MonoPhotoRedux.cube
# A compact monochrome 3D color LUT inspired by analog photography.
# Created by Timo Heidutzek
# https://github.com/trzyglow
# This LUT is not to be sold commercially.
# If you were asked to pay for this LUT, you were scammed.
# Version 1.0
# Licensed under CC-BY-SA-4.0
TITLE MonoPhotoRedux
LUT_3D_SIZE 5
0.000000 0.000000 0.000000
0.043137 0.043137 0.043137
0.094118 0.094118 0.094118
0.156863 0.156863 0.156863
0.203922 0.203922 0.203922
0.168627 0.168627 0.168627
0.223529 0.223529 0.223529
0.282353 0.282353 0.282353
0.333333 0.333333 0.333333
0.392157 0.392157 0.392157
0.368627 0.368627 0.368627
0.415686 0.415686 0.415686
0.470588 0.470588 0.470588
0.525490 0.525490 0.525490
0.584314 0.584314 0.584314
0.545098 0.545098 0.545098
0.596078 0.596078 0.596078
0.662745 0.662745 0.662745
0.709804 0.709804 0.709804
0.764706 0.764706 0.764706
0.729412 0.729412 0.729412
0.792157 0.792157 0.792157
0.843137 0.843137 0.843137
0.898039 0.898039 0.898039
0.956863 0.956863 0.956863
0.007843 0.007843 0.007843
0.058824 0.058824 0.058824
0.117647 0.117647 0.117647
0.164706 0.164706 0.164706
0.223529 0.223529 0.223529
0.188235 0.188235 0.188235
0.247059 0.247059 0.247059
0.298039 0.298039 0.298039
0.360784 0.360784 0.360784
0.415686 0.415686 0.415686
0.376471 0.376471 0.376471
0.431373 0.431373 0.431373
0.498039 0.498039 0.498039
0.545098 0.545098 0.545098
0.596078 0.596078 0.596078
0.560784 0.560784 0.560784
0.619608 0.619608 0.619608
0.670588 0.670588 0.670588
0.729412 0.729412 0.729412
0.792157 0.792157 0.792157
0.752941 0.752941 0.752941
0.807843 0.807843 0.807843
0.862745 0.862745 0.862745
0.921569 0.921569 0.921569
0.968627 0.968627 0.968627
0.027451 0.027451 0.027451
0.082353 0.082353 0.082353
0.129412 0.129412 0.129412
0.188235 0.188235 0.188235
0.243137 0.243137 0.243137
0.207843 0.207843 0.207843
0.262745 0.262745 0.262745
0.325490 0.325490 0.325490
0.376471 0.376471 0.376471
0.427451 0.427451 0.427451
0.400000 0.400000 0.400000
0.454902 0.454902 0.454902
0.505882 0.505882 0.505882
0.560784 0.560784 0.560784
0.619608 0.619608 0.619608
0.584314 0.584314 0.584314
0.631373 0.631373 0.631373
0.694118 0.694118 0.694118
0.749020 0.749020 0.749020
0.803922 0.803922 0.803922
0.772549 0.772549 0.772549
0.831373 0.831373 0.831373
0.882353 0.882353 0.882353
0.933333 0.933333 0.933333
1.000000 1.000000 1.000000
0.043137 0.043137 0.043137
0.094118 0.094118 0.094118
0.156863 0.156863 0.156863
0.203922 0.203922 0.203922
0.258824 0.258824 0.258824
0.227451 0.227451 0.227451
0.282353 0.282353 0.282353
0.337255 0.337255 0.337255
0.392157 0.392157 0.392157
0.454902 0.454902 0.454902
0.415686 0.415686 0.415686
0.470588 0.470588 0.470588
0.533333 0.533333 0.533333
0.584314 0.584314 0.584314
0.631373 0.631373 0.631373
0.596078 0.596078 0.596078
0.662745 0.662745 0.662745
0.713725 0.713725 0.713725
0.764706 0.764706 0.764706
0.831373 0.831373 0.831373
0.792157 0.792157 0.792157
0.843137 0.843137 0.843137
0.898039 0.898039 0.898039
0.956863 0.956863 0.956863
1.000000 1.000000 1.000000
0.058824 0.058824 0.058824
0.117647 0.117647 0.117647
0.168627 0.168627 0.168627
0.223529 0.223529 0.223529
0.282353 0.282353 0.282353
0.247059 0.247059 0.247059
0.298039 0.298039 0.298039
0.360784 0.360784 0.360784
0.415686 0.415686 0.415686
0.466667 0.466667 0.466667
0.431373 0.431373 0.431373
0.498039 0.498039 0.498039
0.545098 0.545098 0.545098
0.600000 0.600000 0.600000
0.662745 0.662745 0.662745
0.619608 0.619608 0.619608
0.674510 0.674510 0.674510
0.729412 0.729412 0.729412
0.792157 0.792157 0.792157
0.839216 0.839216 0.839216
0.807843 0.807843 0.807843
0.862745 0.862745 0.862745
0.921569 0.921569 0.921569
0.968627 0.968627 0.968627
1.000000 1.000000 1.000000
