MonoPhotoReduxCyanotype.cube
# A compact monochrome 3D color LUT inspired by analog photography & the cyanotype printing process.
# Created by Timo Heidutzek
# https://github.com/trzyglow
# This LUT is not to be sold commercially.
# If you were asked to pay for this LUT, you were scammed.
# Version 1.0
# Licensed under CC-BY-SA-4.0
TITLE MonoPhotoReduxCyanotype
LUT_3D_SIZE 25
0.015686 0.133333 0.564706
0.015686 0.133333 0.564706
0.019608 0.141176 0.564706
0.031373 0.149020 0.572549
0.043137 0.156863 0.576471
0.050980 0.168627 0.584314
0.054902 0.172549 0.584314
0.062745 0.180392 0.588235
0.070588 0.184314 0.592157
0.086275 0.200000 0.596078
0.094118 0.203922 0.596078
0.101961 0.211765 0.600000
0.109804 0.215686 0.603922
0.117647 0.223529 0.607843
0.129412 0.235294 0.615686
0.133333 0.239216 0.619608
0.141176 0.247059 0.623529
0.149020 0.254902 0.623529
0.168627 0.270588 0.635294
0.172549 0.274510 0.635294
0.176471 0.278431 0.639216
0.180392 0.282353 0.639216
0.203922 0.298039 0.647059
0.211765 0.309804 0.650980
0.215686 0.313725 0.650980
0.035294 0.152941 0.572549
0.050980 0.168627 0.580392
0.050980 0.168627 0.584314
0.058824 0.176471 0.588235
0.066667 0.184314 0.592157
0.078431 0.192157 0.596078
0.094118 0.203922 0.596078
0.098039 0.207843 0.600000
0.105882 0.215686 0.603922
0.113725 0.219608 0.607843
0.125490 0.227451 0.611765
0.133333 0.239216 0.619608
0.137255 0.243137 0.619608
0.141176 0.247059 0.623529
0.160784 0.262745 0.631373
0.168627 0.270588 0.635294
0.172549 0.274510 0.635294
0.180392 0.282353 0.639216
0.188235 0.286275 0.639216
0.207843 0.301961 0.650980
0.211765 0.309804 0.650980
0.219608 0.317647 0.654902
0.227451 0.321569 0.658824
0.239216 0.329412 0.662745
0.254902 0.345098 0.670588
0.058824 0.176471 0.588235
0.066667 0.184314 0.592157
0.078431 0.192157 0.596078
0.094118 0.203922 0.596078
0.098039 0.207843 0.600000
0.105882 0.215686 0.603922
0.117647 0.223529 0.607843
0.129412 0.235294 0.615686
0.133333 0.239216 0.619608
0.137255 0.243137 0.619608
0.149020 0.254902 0.623529
0.160784 0.262745 0.631373
0.168627 0.270588 0.635294
0.172549 0.274510 0.635294
0.180392 0.282353 0.639216
0.192157 0.290196 0.643137
0.207843 0.301961 0.650980
0.211765 0.309804 0.650980
0.219608 0.317647 0.654902
0.227451 0.321569 0.658824
0.239216 0.329412 0.662745
0.254902 0.345098 0.670588
0.258824 0.349020 0.674510
0.266667 0.356863 0.678431
0.274510 0.360784 0.682353
0.098039 0.207843 0.600000
0.101961 0.211765 0.600000
0.109804 0.215686 0.603922
0.125490 0.227451 0.611765
0.129412 0.235294 0.615686
0.133333 0.239216 0.619608
0.141176 0.247059 0.623529
0.152941 0.258824 0.627451
0.168627 0.270588 0.635294
0.172549 0.274510 0.635294
0.176471 0.278431 0.639216
0.188235 0.286275 0.639216
0.203922 0.298039 0.647059
0.211765 0.309804 0.650980
0.219608 0.317647 0.654902
0.223529 0.317647 0.654902
0.235294 0.329412 0.662745
0.247059 0.341176 0.666667
0.254902 0.345098 0.670588
0.262745 0.352941 0.674510
0.270588 0.356863 0.678431
0.278431 0.364706 0.682353
0.290196 0.380392 0.690196
0.294118 0.384314 0.686275
0.305882 0.388235 0.690196
0.125490 0.227451 0.611765
0.129412 0.235294 0.615686
0.133333 0.239216 0.619608
0.141176 0.247059 0.623529
0.152941 0.258824 0.627451
0.168627 0.270588 0.635294
0.172549 0.274510 0.635294
0.180392 0.282353 0.639216
0.188235 0.286275 0.639216
0.203922 0.298039 0.647059
0.211765 0.309804 0.650980
0.219608 0.317647 0.654902
0.223529 0.317647 0.654902
0.235294 0.329412 0.662745
0.254902 0.345098 0.670588
0.258824 0.349020 0.674510
0.262745 0.352941 0.674510
0.270588 0.356863 0.678431
0.282353 0.376471 0.686275
0.290196 0.380392 0.690196
0.294118 0.384314 0.686275
0.305882 0.388235 0.690196
0.321569 0.400000 0.698039
0.337255 0.415686 0.705882
0.341176 0.419608 0.709804
0.149020 0.254902 0.623529
0.160784 0.262745 0.631373
0.168627 0.270588 0.635294
0.176471 0.278431 0.639216
0.180392 0.282353 0.639216
0.192157 0.290196 0.643137
0.207843 0.301961 0.650980
0.215686 0.313725 0.650980
0.219608 0.317647 0.654902
0.227451 0.321569 0.658824
0.239216 0.329412 0.662745
0.254902 0.345098 0.670588
0.258824 0.349020 0.674510
0.266667 0.356863 0.678431
0.278431 0.364706 0.682353
0.290196 0.380392 0.690196
0.294118 0.384314 0.686275
0.298039 0.388235 0.690196
0.313725 0.396078 0.694118
0.325490 0.403922 0.701961
0.337255 0.415686 0.705882
0.341176 0.419608 0.709804
0.352941 0.431373 0.713725
0.360784 0.443137 0.717647
0.376471 0.454902 0.725490
0.180392 0.282353 0.639216
0.188235 0.286275 0.639216
0.203922 0.298039 0.647059
0.211765 0.309804 0.650980
0.219608 0.317647 0.654902
0.223529 0.317647 0.654902
0.235294 0.329412 0.662745
0.247059 0.341176 0.666667
0.258824 0.349020 0.674510
0.262745 0.352941 0.674510
0.270588 0.356863 0.678431
0.282353 0.376471 0.686275
0.290196 0.380392 0.690196
0.294118 0.384314 0.686275
0.305882 0.388235 0.690196
0.321569 0.400000 0.698039
0.337255 0.415686 0.705882
0.341176 0.419608 0.709804
0.345098 0.423529 0.709804
0.356863 0.431373 0.713725
0.368627 0.447059 0.721569
0.380392 0.458824 0.729412
0.384314 0.458824 0.729412
0.392157 0.466667 0.733333
0.400000 0.470588 0.737255
0.211765 0.309804 0.650980
0.219608 0.317647 0.654902
0.223529 0.317647 0.654902
0.239216 0.329412 0.662745
0.254902 0.345098 0.670588
0.258824 0.349020 0.674510
0.262745 0.352941 0.674510
0.274510 0.360784 0.682353
0.282353 0.376471 0.686275
0.290196 0.380392 0.690196
0.294118 0.384314 0.686275
0.309804 0.392157 0.694118
0.321569 0.400000 0.698039
0.337255 0.415686 0.705882
0.341176 0.419608 0.709804
0.349020 0.427451 0.709804
0.356863 0.431373 0.713725
0.368627 0.447059 0.721569
0.380392 0.458824 0.729412
0.384314 0.458824 0.729412
0.392157 0.466667 0.733333
0.400000 0.470588 0.737255
0.423529 0.490196 0.741176
0.427451 0.494118 0.745098
0.431373 0.498039 0.745098
0.247059 0.341176 0.666667
0.254902 0.345098 0.670588
0.258824 0.349020 0.674510
0.270588 0.356863 0.678431
0.278431 0.364706 0.682353
0.290196 0.380392 0.690196
0.294118 0.384314 0.686275
0.305882 0.388235 0.690196
0.313725 0.396078 0.694118
0.325490 0.403922 0.701961
0.337255 0.415686 0.705882
0.345098 0.423529 0.709804
0.352941 0.431373 0.713725
0.360784 0.443137 0.717647
0.376471 0.454902 0.725490
0.384314 0.458824 0.729412
0.388235 0.462745 0.733333
0.396078 0.470588 0.737255
0.407843 0.482353 0.737255
0.423529 0.490196 0.741176
0.431373 0.498039 0.745098
0.431373 0.501961 0.749020
0.447059 0.517647 0.756863
0.462745 0.529412 0.764706
0.466667 0.529412 0.764706
0.274510 0.360784 0.682353
0.282353 0.376471 0.686275
0.290196 0.380392 0.690196
0.294118 0.384314 0.686275
0.309804 0.392157 0.694118
0.321569 0.400000 0.698039
0.337255 0.415686 0.705882
0.341176 0.419608 0.709804
0.349020 0.427451 0.709804
0.356863 0.431373 0.713725
0.368627 0.447059 0.721569
0.380392 0.458824 0.729412
0.384314 0.458824 0.729412
0.392157 0.466667 0.733333
0.400000 0.470588 0.737255
0.419608 0.490196 0.741176
0.427451 0.494118 0.745098
0.431373 0.498039 0.745098
0.435294 0.501961 0.749020
0.454902 0.521569 0.760784
0.462745 0.529412 0.764706
0.466667 0.529412 0.764706
0.474510 0.537255 0.768627
0.490196 0.552941 0.776471
0.505882 0.564706 0.784314
0.298039 0.388235 0.690196
0.309804 0.392157 0.694118
0.321569 0.400000 0.698039
0.337255 0.415686 0.705882
0.341176 0.419608 0.709804
0.349020 0.427451 0.709804
0.356863 0.431373 0.713725
0.376471 0.454902 0.725490
0.380392 0.458824 0.729412
0.384314 0.458824 0.729412
0.392157 0.466667 0.733333
0.407843 0.482353 0.737255
0.423529 0.490196 0.741176
0.427451 0.494118 0.745098
0.431373 0.498039 0.745098
0.439216 0.505882 0.752941
0.454902 0.521569 0.760784
0.462745 0.529412 0.764706
0.466667 0.529412 0.764706
0.478431 0.545098 0.768627
0.490196 0.552941 0.776471
0.505882 0.564706 0.784314
0.505882 0.568627 0.784314
0.509804 0.572549 0.788235
0.517647 0.576471 0.788235
0.341176 0.419608 0.709804
0.345098 0.423529 0.709804
0.352941 0.431373 0.713725
0.360784 0.443137 0.717647
0.380392 0.458824 0.729412
0.384314 0.458824 0.729412
0.388235 0.462745 0.733333
0.396078 0.470588 0.737255
0.419608 0.490196 0.741176
0.423529 0.490196 0.741176
0.431373 0.498039 0.745098
0.435294 0.501961 0.749020
0.447059 0.517647 0.756863
0.462745 0.529412 0.764706
0.466667 0.529412 0.764706
0.470588 0.533333 0.768627
0.482353 0.549020 0.772549
0.498039 0.560784 0.780392
0.505882 0.564706 0.784314
0.509804 0.572549 0.788235
0.513725 0.572549 0.784314
0.529412 0.588235 0.792157
0.541176 0.596078 0.796078
0.549020 0.603922 0.800000
0.552941 0.603922 0.800000
0.376471 0.454902 0.725490
0.380392 0.458824 0.729412
0.384314 0.458824 0.729412
0.392157 0.466667 0.733333
0.400000 0.470588 0.737255
0.423529 0.490196 0.741176
0.427451 0.494118 0.745098
0.431373 0.498039 0.745098
0.439216 0.505882 0.752941
0.454902 0.521569 0.760784
0.462745 0.529412 0.764706
0.466667 0.529412 0.764706
0.478431 0.545098 0.768627
0.490196 0.552941 0.776471
0.505882 0.564706 0.784314
0.505882 0.568627 0.784314
0.509804 0.572549 0.788235
0.517647 0.576471 0.788235
0.533333 0.588235 0.792157
0.545098 0.600000 0.796078
0.552941 0.603922 0.800000
0.556863 0.607843 0.803922
0.568627 0.619608 0.807843
0.584314 0.631373 0.815686
0.588235 0.639216 0.819608
0.396078 0.470588 0.737255
0.407843 0.482353 0.737255
0.423529 0.490196 0.741176
0.427451 0.494118 0.745098
0.431373 0.501961 0.749020
0.439216 0.505882 0.752941
0.454902 0.521569 0.760784
0.462745 0.529412 0.764706
0.470588 0.533333 0.768627
0.478431 0.545098 0.768627
0.490196 0.552941 0.776471
0.505882 0.564706 0.784314
0.505882 0.568627 0.784314
0.509804 0.572549 0.788235
0.517647 0.576471 0.788235
0.533333 0.588235 0.792157
0.549020 0.603922 0.800000
0.552941 0.603922 0.800000
0.556863 0.607843 0.803922
0.576471 0.627451 0.811765
0.584314 0.635294 0.819608
0.588235 0.639216 0.819608
0.592157 0.643137 0.823529
0.603922 0.654902 0.827451
0.615686 0.662745 0.827451
0.431373 0.498039 0.745098
0.435294 0.501961 0.749020
0.447059 0.517647 0.756863
0.462745 0.529412 0.764706
0.466667 0.529412 0.764706
0.474510 0.537255 0.768627
0.482353 0.549020 0.772549
0.498039 0.560784 0.780392
0.505882 0.568627 0.784314
0.509804 0.572549 0.788235
0.513725 0.572549 0.784314
0.529412 0.588235 0.792157
0.545098 0.600000 0.796078
0.549020 0.603922 0.800000
0.552941 0.603922 0.800000
0.560784 0.615686 0.803922
0.584314 0.631373 0.815686
0.584314 0.635294 0.819608
0.588235 0.639216 0.819608
0.596078 0.643137 0.823529
0.607843 0.658824 0.827451
0.623529 0.670588 0.831373
0.627451 0.674510 0.835294
0.635294 0.678431 0.835294
0.647059 0.690196 0.843137
0.462745 0.529412 0.764706
0.466667 0.529412 0.764706
0.474510 0.537255 0.768627
0.482353 0.549020 0.772549
0.505882 0.564706 0.784314
0.505882 0.568627 0.784314
0.509804 0.572549 0.788235
0.513725 0.572549 0.784314
0.533333 0.588235 0.792157
0.545098 0.600000 0.796078
0.549020 0.603922 0.800000
0.556863 0.607843 0.803922
0.568627 0.619608 0.807843
0.584314 0.631373 0.815686
0.584314 0.635294 0.819608
0.588235 0.639216 0.819608
0.600000 0.647059 0.827451
0.607843 0.658824 0.827451
0.623529 0.670588 0.831373
0.627451 0.674510 0.835294
0.639216 0.682353 0.839216
0.647059 0.690196 0.843137
0.658824 0.701961 0.850980
0.670588 0.709804 0.854902
0.674510 0.717647 0.854902
0.498039 0.560784 0.780392
0.505882 0.564706 0.784314
0.505882 0.568627 0.784314
0.509804 0.572549 0.788235
0.517647 0.576471 0.788235
0.541176 0.596078 0.796078
0.549020 0.603922 0.800000
0.552941 0.603922 0.800000
0.560784 0.615686 0.803922
0.576471 0.627451 0.811765
0.584314 0.635294 0.819608
0.588235 0.639216 0.819608
0.596078 0.643137 0.823529
0.603922 0.654902 0.827451
0.615686 0.662745 0.827451
0.623529 0.670588 0.831373
0.635294 0.678431 0.835294
0.643137 0.686275 0.839216
0.654902 0.694118 0.847059
0.666667 0.705882 0.854902
0.670588 0.709804 0.854902
0.678431 0.721569 0.858824
0.686275 0.725490 0.862745
0.698039 0.733333 0.866667
0.709804 0.745098 0.874510
0.513725 0.572549 0.784314
0.533333 0.588235 0.792157
0.545098 0.600000 0.796078
0.549020 0.603922 0.800000
0.552941 0.603922 0.800000
0.568627 0.619608 0.807843
0.584314 0.631373 0.815686
0.584314 0.635294 0.819608
0.588235 0.639216 0.819608
0.600000 0.647059 0.827451
0.607843 0.658824 0.827451
0.623529 0.670588 0.831373
0.627451 0.674510 0.835294
0.639216 0.682353 0.839216
0.647059 0.690196 0.843137
0.658824 0.701961 0.850980
0.670588 0.709804 0.854902
0.674510 0.717647 0.854902
0.682353 0.721569 0.858824
0.690196 0.729412 0.862745
0.709804 0.745098 0.874510
0.713725 0.749020 0.874510
0.717647 0.752941 0.878431
0.725490 0.760784 0.878431
0.749020 0.776471 0.886275
0.552941 0.603922 0.800000
0.556863 0.607843 0.803922
0.568627 0.619608 0.807843
0.584314 0.631373 0.815686
0.584314 0.635294 0.819608
0.592157 0.643137 0.823529
0.600000 0.647059 0.827451
0.607843 0.658824 0.827451
0.623529 0.670588 0.831373
0.627451 0.674510 0.835294
0.639216 0.682353 0.839216
0.647059 0.690196 0.843137
0.666667 0.705882 0.854902
0.670588 0.709804 0.854902
0.674510 0.717647 0.854902
0.682353 0.721569 0.858824
0.698039 0.733333 0.866667
0.709804 0.745098 0.874510
0.713725 0.749020 0.874510
0.721569 0.756863 0.874510
0.737255 0.764706 0.882353
0.749020 0.776471 0.886275
0.752941 0.784314 0.890196
0.760784 0.792157 0.894118
0.768627 0.796078 0.898039
0.584314 0.635294 0.819608
0.588235 0.639216 0.819608
0.596078 0.643137 0.823529
0.603922 0.654902 0.827451
0.615686 0.662745 0.827451
0.627451 0.674510 0.835294
0.635294 0.678431 0.835294
0.643137 0.686275 0.839216
0.654902 0.694118 0.847059
0.666667 0.705882 0.854902
0.670588 0.709804 0.854902
0.678431 0.721569 0.858824
0.690196 0.729412 0.862745
0.705882 0.741176 0.870588
0.709804 0.745098 0.874510
0.717647 0.752941 0.878431
0.725490 0.760784 0.878431
0.741176 0.772549 0.882353
0.752941 0.784314 0.890196
0.756863 0.788235 0.890196
0.764706 0.792157 0.894118
0.776471 0.803922 0.901961
0.788235 0.815686 0.905882
0.796078 0.819608 0.909804
0.803922 0.827451 0.913725
0.607843 0.658824 0.827451
0.623529 0.670588 0.831373
0.627451 0.674510 0.835294
0.635294 0.678431 0.835294
0.643137 0.686275 0.839216
0.658824 0.701961 0.850980
0.666667 0.705882 0.854902
0.670588 0.709804 0.854902
0.682353 0.721569 0.858824
0.690196 0.729412 0.862745
0.705882 0.741176 0.870588
0.709804 0.745098 0.874510
0.717647 0.752941 0.878431
0.725490 0.760784 0.878431
0.741176 0.772549 0.882353
0.752941 0.784314 0.890196
0.760784 0.792157 0.894118
0.764706 0.792157 0.894118
0.776471 0.803922 0.901961
0.796078 0.819608 0.909804
0.800000 0.823529 0.913725
0.803922 0.827451 0.913725
0.807843 0.835294 0.917647
0.815686 0.839216 0.921569
0.831373 0.854902 0.929412
0.639216 0.682353 0.839216
0.654902 0.694118 0.847059
0.666667 0.705882 0.854902
0.670588 0.709804 0.854902
0.674510 0.717647 0.854902
0.686275 0.725490 0.862745
0.698039 0.733333 0.866667
0.709804 0.745098 0.874510
0.717647 0.752941 0.878431
0.721569 0.756863 0.874510
0.737255 0.764706 0.882353
0.749020 0.776471 0.886275
0.756863 0.788235 0.890196
0.760784 0.792157 0.894118
0.768627 0.796078 0.898039
0.780392 0.803922 0.901961
0.796078 0.819608 0.909804
0.800000 0.823529 0.913725
0.807843 0.831373 0.913725
0.811765 0.835294 0.917647
0.831373 0.854902 0.929412
0.835294 0.858824 0.925490
0.839216 0.862745 0.929412
0.850980 0.866667 0.933333
0.866667 0.878431 0.941176
0.670588 0.709804 0.854902
0.682353 0.721569 0.858824
0.690196 0.729412 0.862745
0.705882 0.741176 0.870588
0.709804 0.745098 0.874510
0.717647 0.752941 0.878431
0.725490 0.760784 0.878431
0.741176 0.772549 0.882353
0.752941 0.784314 0.890196
0.760784 0.792157 0.894118
0.764706 0.792157 0.894118
0.776471 0.803922 0.901961
0.796078 0.819608 0.909804
0.800000 0.823529 0.913725
0.803922 0.827451 0.913725
0.807843 0.835294 0.917647
0.815686 0.839216 0.921569
0.831373 0.854902 0.929412
0.835294 0.858824 0.925490
0.847059 0.862745 0.929412
0.854902 0.870588 0.933333
0.874510 0.890196 0.941176
0.882353 0.894118 0.945098
0.886275 0.898039 0.949020
0.894118 0.905882 0.952941
0.709804 0.745098 0.874510
0.713725 0.749020 0.874510
0.717647 0.752941 0.878431
0.725490 0.760784 0.878431
0.741176 0.772549 0.882353
0.752941 0.784314 0.890196
0.760784 0.792157 0.894118
0.764706 0.792157 0.894118
0.780392 0.803922 0.901961
0.796078 0.819608 0.909804
0.800000 0.823529 0.913725
0.803922 0.827451 0.913725
0.811765 0.835294 0.917647
0.823529 0.847059 0.925490
0.831373 0.854902 0.929412
0.835294 0.858824 0.925490
0.850980 0.866667 0.933333
0.858824 0.874510 0.937255
0.874510 0.890196 0.941176
0.882353 0.894118 0.945098
0.886275 0.898039 0.949020
0.894118 0.905882 0.952941
0.905882 0.921569 0.960784
0.917647 0.929412 0.964706
0.921569 0.933333 0.968627
0.737255 0.764706 0.882353
0.752941 0.784314 0.890196
0.756863 0.788235 0.890196
0.760784 0.792157 0.894118
0.768627 0.796078 0.898039
0.788235 0.815686 0.905882
0.796078 0.819608 0.909804
0.800000 0.823529 0.913725
0.807843 0.831373 0.913725
0.815686 0.839216 0.921569
0.831373 0.854902 0.929412
0.835294 0.858824 0.925490
0.847059 0.862745 0.929412
0.854902 0.870588 0.933333
0.866667 0.878431 0.941176
0.878431 0.894118 0.945098
0.882353 0.894118 0.945098
0.886275 0.901961 0.949020
0.898039 0.909804 0.956863
0.913725 0.925490 0.964706
0.917647 0.929412 0.964706
0.925490 0.933333 0.968627
0.933333 0.941176 0.972549
0.945098 0.952941 0.972549
0.960784 0.964706 0.980392
0.015686 0.133333 0.564706
0.015686 0.133333 0.564706
0.023529 0.145098 0.568627
0.035294 0.152941 0.572549
0.050980 0.168627 0.580392
0.050980 0.168627 0.584314
0.054902 0.172549 0.584314
0.062745 0.180392 0.588235
0.078431 0.192157 0.596078
0.094118 0.203922 0.596078
0.098039 0.207843 0.600000
0.105882 0.215686 0.603922
0.113725 0.219608 0.607843
0.125490 0.227451 0.611765
0.129412 0.235294 0.615686
0.137255 0.243137 0.619608
0.141176 0.247059 0.623529
0.152941 0.258824 0.627451
0.168627 0.270588 0.635294
0.172549 0.274510 0.635294
0.180392 0.282353 0.639216
0.188235 0.286275 0.639216
0.203922 0.298039 0.647059
0.211765 0.309804 0.650980
0.219608 0.317647 0.654902
0.043137 0.156863 0.576471
0.050980 0.168627 0.584314
0.054902 0.172549 0.584314
0.058824 0.176471 0.588235
0.070588 0.184314 0.592157
0.086275 0.200000 0.596078
0.094118 0.203922 0.596078
0.098039 0.207843 0.600000
0.109804 0.215686 0.603922
0.117647 0.223529 0.607843
0.129412 0.235294 0.615686
0.133333 0.239216 0.619608
0.141176 0.247059 0.623529
0.149020 0.254902 0.623529
0.160784 0.262745 0.631373
0.168627 0.270588 0.635294
0.176471 0.278431 0.639216
0.180392 0.282353 0.639216
0.192157 0.290196 0.643137
0.211765 0.309804 0.650980
0.215686 0.313725 0.650980
0.219608 0.317647 0.654902
0.227451 0.321569 0.658824
0.247059 0.341176 0.666667
0.254902 0.345098 0.670588
0.062745 0.180392 0.588235
0.070588 0.184314 0.592157
0.086275 0.200000 0.596078
0.098039 0.207843 0.600000
0.101961 0.211765 0.600000
0.109804 0.215686 0.603922
0.117647 0.223529 0.607843
0.129412 0.235294 0.615686
0.133333 0.239216 0.619608
0.141176 0.247059 0.623529
0.149020 0.254902 0.623529
0.168627 0.270588 0.635294
0.172549 0.274510 0.635294
0.176471 0.278431 0.639216
0.180392 0.282353 0.639216
0.203922 0.298039 0.647059
0.211765 0.309804 0.650980
0.215686 0.313725 0.650980
0.219608 0.317647 0.654902
0.235294 0.329412 0.662745
0.247059 0.341176 0.666667
0.254902 0.345098 0.670588
0.262745 0.352941 0.674510
0.270588 0.356863 0.678431
0.278431 0.364706 0.682353
0.098039 0.207843 0.600000
0.105882 0.215686 0.603922
0.113725 0.219608 0.607843
0.125490 0.227451 0.611765
0.133333 0.239216 0.619608
0.137255 0.243137 0.619608
0.141176 0.247059 0.623529
0.152941 0.258824 0.627451
0.168627 0.270588 0.635294
0.172549 0.274510 0.635294
0.180392 0.282353 0.639216
0.188235 0.286275 0.639216
0.207843 0.301961 0.650980
0.211765 0.309804 0.650980
0.219608 0.317647 0.654902
0.223529 0.317647 0.654902
0.239216 0.329412 0.662745
0.254902 0.345098 0.670588
0.258824 0.349020 0.674510
0.266667 0.356863 0.678431
0.274510 0.360784 0.682353
0.282353 0.376471 0.686275
0.290196 0.380392 0.690196
0.298039 0.388235 0.690196
0.309804 0.392157 0.694118
0.129412 0.235294 0.615686
0.133333 0.239216 0.619608
0.137255 0.243137 0.619608
0.149020 0.254902 0.623529
0.160784 0.262745 0.631373
0.168627 0.270588 0.635294
0.172549 0.274510 0.635294
0.180392 0.282353 0.639216
0.192157 0.290196 0.643137
0.207843 0.301961 0.650980
0.211765 0.309804 0.650980
0.219608 0.317647 0.654902
0.227451 0.321569 0.658824
0.239216 0.329412 0.662745
0.254902 0.345098 0.670588
0.258824 0.349020 0.674510
0.266667 0.356863 0.678431
0.274510 0.360784 0.682353
0.282353 0.376471 0.686275
0.294118 0.384314 0.686275
0.298039 0.388235 0.690196
0.309804 0.392157 0.694118
0.325490 0.403922 0.701961
0.337255 0.415686 0.705882
0.341176 0.419608 0.709804
0.152941 0.258824 0.627451
0.168627 0.270588 0.635294
0.172549 0.274510 0.635294
0.176471 0.278431 0.639216
0.188235 0.286275 0.639216
0.203922 0.298039 0.647059
0.211765 0.309804 0.650980
0.215686 0.313725 0.650980
0.223529 0.317647 0.654902
0.235294 0.329412 0.662745
0.247059 0.341176 0.666667
0.258824 0.349020 0.674510
0.262745 0.352941 0.674510
0.270588 0.356863 0.678431
0.278431 0.364706 0.682353
0.290196 0.380392 0.690196
0.294118 0.384314 0.686275
0.305882 0.388235 0.690196
0.313725 0.396078 0.694118
0.337255 0.415686 0.705882
0.341176 0.419608 0.709804
0.345098 0.423529 0.709804
0.352941 0.431373 0.713725
0.368627 0.447059 0.721569
0.380392 0.458824 0.729412
0.180392 0.282353 0.639216
0.192157 0.290196 0.643137
0.207843 0.301961 0.650980
0.211765 0.309804 0.650980
0.219608 0.317647 0.654902
0.227451 0.321569 0.658824
0.239216 0.329412 0.662745
0.254902 0.345098 0.670588
0.258824 0.349020 0.674510
0.266667 0.356863 0.678431
0.274510 0.360784 0.682353
0.282353 0.376471 0.686275
0.294118 0.384314 0.686275
0.298039 0.388235 0.690196
0.309804 0.392157 0.694118
0.321569 0.400000 0.698039
0.337255 0.415686 0.705882
0.341176 0.419608 0.709804
0.349020 0.427451 0.709804
0.356863 0.431373 0.713725
0.376471 0.454902 0.725490
0.380392 0.458824 0.729412
0.384314 0.458824 0.729412
0.392157 0.466667 0.733333
0.407843 0.482353 0.737255
0.215686 0.313725 0.650980
0.219608 0.317647 0.654902
0.227451 0.321569 0.658824
0.247059 0.341176 0.666667
0.254902 0.345098 0.670588
0.258824 0.349020 0.674510
0.266667 0.356863 0.678431
0.274510 0.360784 0.682353
0.290196 0.380392 0.690196
0.294118 0.384314 0.686275
0.298039 0.388235 0.690196
0.313725 0.396078 0.694118
0.325490 0.403922 0.701961
0.337255 0.415686 0.705882
0.341176 0.419608 0.709804
0.349020 0.427451 0.709804
0.360784 0.443137 0.717647
0.376471 0.454902 0.725490
0.380392 0.458824 0.729412
0.388235 0.462745 0.733333
0.396078 0.470588 0.737255
0.407843 0.482353 0.737255
0.423529 0.490196 0.741176
0.431373 0.498039 0.745098
0.431373 0.501961 0.749020
0.254902 0.345098 0.670588
0.258824 0.349020 0.674510
0.262745 0.352941 0.674510
0.270588 0.356863 0.678431
0.278431 0.364706 0.682353
0.290196 0.380392 0.690196
0.294118 0.384314 0.686275
0.305882 0.388235 0.690196
0.321569 0.400000 0.698039
0.337255 0.415686 0.705882
0.341176 0.419608 0.709804
0.345098 0.423529 0.709804
0.356863 0.431373 0.713725
0.368627 0.447059 0.721569
0.380392 0.458824 0.729412
0.384314 0.458824 0.729412
0.392157 0.466667 0.733333
0.400000 0.470588 0.737255
0.419608 0.490196 0.741176
0.427451 0.494118 0.745098
0.431373 0.498039 0.745098
0.435294 0.501961 0.749020
0.447059 0.517647 0.756863
0.462745 0.529412 0.764706
0.466667 0.529412 0.764706
0.274510 0.360784 0.682353
0.290196 0.380392 0.690196
0.294118 0.384314 0.686275
0.298039 0.388235 0.690196
0.309804 0.392157 0.694118
0.325490 0.403922 0.701961
0.337255 0.415686 0.705882
0.341176 0.419608 0.709804
0.349020 0.427451 0.709804
0.360784 0.443137 0.717647
0.376471 0.454902 0.725490
0.380392 0.458824 0.729412
0.388235 0.462745 0.733333
0.396078 0.470588 0.737255
0.407843 0.482353 0.737255
0.423529 0.490196 0.741176
0.431373 0.498039 0.745098
0.431373 0.501961 0.749020
0.439216 0.505882 0.752941
0.454902 0.521569 0.760784
0.462745 0.529412 0.764706
0.470588 0.533333 0.768627
0.478431 0.545098 0.768627
0.490196 0.552941 0.776471
0.505882 0.564706 0.784314
