MonoPhotoReduxSepia.cube
# A Sepia toned compact monochrome 3D color LUT inspired by analog photography.
# Created by Timo Heidutzek
# https://github.com/trzyglow
# This LUT is not to be sold commercially.
# If you were asked to pay for this LUT, you were scammed.
# Version 1.0
# Licensed under CC-BY-SA-4.0
TITLE MonoPhotoReduxSepia
LUT_3D_SIZE 9
0.000000 0.000000 0.000000
0.015686 0.011765 0.007843
0.050980 0.039216 0.031373
0.082353 0.070588 0.054902
0.109804 0.090196 0.070588
0.145098 0.113725 0.094118
0.184314 0.149020 0.121569
0.203922 0.164706 0.133333
0.243137 0.200000 0.164706
0.094118 0.078431 0.058824
0.129412 0.101961 0.082353
0.152941 0.121569 0.098039
0.188235 0.152941 0.121569
0.223529 0.180392 0.145098
0.254902 0.207843 0.172549
0.286275 0.239216 0.200000
0.317647 0.266667 0.223529
0.349020 0.294118 0.247059
0.200000 0.160784 0.129412
0.239216 0.196078 0.160784
0.266667 0.219608 0.184314
0.298039 0.247059 0.207843
0.333333 0.278431 0.235294
0.364706 0.305882 0.258824
0.392157 0.333333 0.282353
0.427451 0.368627 0.317647
0.458824 0.396078 0.345098
0.309804 0.258824 0.219608
0.337255 0.286275 0.239216
0.380392 0.321569 0.270588
0.407843 0.349020 0.298039
0.439216 0.376471 0.329412
0.470588 0.407843 0.352941
0.494118 0.431373 0.376471
0.525490 0.466667 0.407843
0.560784 0.498039 0.443137
0.423529 0.364706 0.313725
0.447059 0.388235 0.333333
0.478431 0.415686 0.360784
0.509804 0.447059 0.392157
0.537255 0.478431 0.419608
0.564706 0.501961 0.450980
0.580392 0.529412 0.486275
0.607843 0.560784 0.521569
0.631373 0.592157 0.556863
0.521569 0.458824 0.403922
0.545098 0.482353 0.427451
0.568627 0.509804 0.458824
0.588235 0.537255 0.498039
0.615686 0.572549 0.533333
0.631373 0.596078 0.560784
0.658824 0.627451 0.596078
0.678431 0.654902 0.631373
0.705882 0.686275 0.666667
0.600000 0.552941 0.509804
0.623529 0.580392 0.545098
0.643137 0.607843 0.576471
0.666667 0.639216 0.607843
0.698039 0.674510 0.650980
0.713725 0.694118 0.674510
0.741176 0.729412 0.713725
0.768627 0.756863 0.745098
0.792157 0.788235 0.776471
0.670588 0.647059 0.619608
0.701961 0.678431 0.658824
0.725490 0.713725 0.694118
0.752941 0.741176 0.725490
0.776471 0.772549 0.760784
0.803922 0.796078 0.788235
0.831373 0.823529 0.819608
0.858824 0.854902 0.850980
0.890196 0.890196 0.886275
0.760784 0.749020 0.733333
0.784314 0.780392 0.768627
0.819608 0.811765 0.803922
0.843137 0.835294 0.831373
0.870588 0.866667 0.862745
0.898039 0.898039 0.894118
0.929412 0.925490 0.925490
0.956863 0.952941 0.952941
0.984314 0.984314 0.984314
0.000000 0.000000 0.000000
0.027451 0.023529 0.015686
0.058824 0.047059 0.035294
0.094118 0.078431 0.058824
0.129412 0.101961 0.082353
0.152941 0.121569 0.098039
0.188235 0.152941 0.121569
0.223529 0.180392 0.145098
0.250980 0.203922 0.168627
0.101961 0.082353 0.062745
0.137255 0.109804 0.090196
0.168627 0.133333 0.109804
0.200000 0.160784 0.129412
0.235294 0.192157 0.156863
0.266667 0.219608 0.184314
0.298039 0.247059 0.207843
0.333333 0.278431 0.235294
0.356863 0.301961 0.254902
0.207843 0.168627 0.137255
0.247059 0.200000 0.164706
0.286275 0.239216 0.200000
0.305882 0.254902 0.215686
0.337255 0.286275 0.239216
0.380392 0.321569 0.270588
0.407843 0.349020 0.298039
0.435294 0.376471 0.325490
0.470588 0.407843 0.352941
0.321569 0.270588 0.227451
0.352941 0.298039 0.247059
0.388235 0.329412 0.278431
0.415686 0.356863 0.305882
0.447059 0.388235 0.333333
0.478431 0.415686 0.360784
0.509804 0.447059 0.392157
0.533333 0.470588 0.415686
0.564706 0.501961 0.450980
0.431373 0.372549 0.321569
0.462745 0.400000 0.349020
0.486275 0.423529 0.368627
0.521569 0.458824 0.403922
0.549020 0.486275 0.431373
0.568627 0.513725 0.466667
0.588235 0.537255 0.498039
0.615686 0.572549 0.533333
0.635294 0.600000 0.568627
0.525490 0.466667 0.407843
0.560784 0.498039 0.443137
0.576471 0.521569 0.474510
0.596078 0.549020 0.505882
0.623529 0.580392 0.545098
0.643137 0.607843 0.576471
0.666667 0.639216 0.607843
0.690196 0.666667 0.643137
0.713725 0.694118 0.674510
0.607843 0.560784 0.521569
0.631373 0.592157 0.556863
0.650980 0.619608 0.584314
0.670588 0.647059 0.619608
0.701961 0.678431 0.658824
0.725490 0.713725 0.694118
0.749020 0.737255 0.721569
0.776471 0.764706 0.752941
0.803922 0.796078 0.788235
0.686275 0.658824 0.635294
0.709804 0.690196 0.670588
0.737255 0.721569 0.705882
0.760784 0.749020 0.733333
0.784314 0.780392 0.768627
0.819608 0.811765 0.803922
0.839216 0.831373 0.827451
0.866667 0.862745 0.858824
0.898039 0.898039 0.894118
0.772549 0.760784 0.749020
0.792157 0.788235 0.776471
0.823529 0.819608 0.811765
0.854902 0.847059 0.843137
0.878431 0.878431 0.874510
0.905882 0.905882 0.901961
0.941176 0.941176 0.937255
0.960784 0.960784 0.960784
0.988235 0.988235 0.988235
0.007843 0.003922 0.003922
0.043137 0.035294 0.027451
0.066667 0.054902 0.043137
0.101961 0.082353 0.062745
0.137255 0.109804 0.090196
0.160784 0.129412 0.105882
0.196078 0.156863 0.125490
0.235294 0.192157 0.156863
0.266667 0.219608 0.184314
0.109804 0.090196 0.070588
0.145098 0.113725 0.094118
0.184314 0.149020 0.121569
0.207843 0.168627 0.137255
0.247059 0.200000 0.164706
0.278431 0.235294 0.196078
0.305882 0.254902 0.215686
0.337255 0.286275 0.239216
0.380392 0.321569 0.270588
0.223529 0.180392 0.145098
0.254902 0.207843 0.172549
0.290196 0.243137 0.203922
0.321569 0.270588 0.227451
0.352941 0.298039 0.247059
0.384314 0.325490 0.274510
0.415686 0.356863 0.305882
0.447059 0.388235 0.333333
0.478431 0.415686 0.360784
0.333333 0.278431 0.235294
0.364706 0.305882 0.258824
0.396078 0.337255 0.286275
0.431373 0.372549 0.321569
0.458824 0.396078 0.345098
0.486275 0.423529 0.368627
0.521569 0.458824 0.403922
0.549020 0.486275 0.431373
0.568627 0.509804 0.458824
0.439216 0.376471 0.329412
0.474510 0.411765 0.356863
0.498039 0.435294 0.380392
0.529412 0.470588 0.411765
0.560784 0.498039 0.443137
0.576471 0.521569 0.474510
0.600000 0.552941 0.509804
0.627451 0.584314 0.549020
0.643137 0.607843 0.576471
0.533333 0.470588 0.415686
0.564706 0.501961 0.450980
0.580392 0.529412 0.486275
0.607843 0.560784 0.521569
0.627451 0.588235 0.552941
0.650980 0.619608 0.584314
0.670588 0.647059 0.619608
0.701961 0.678431 0.658824
0.725490 0.713725 0.694118
0.615686 0.572549 0.533333
0.635294 0.600000 0.568627
0.658824 0.631373 0.600000
0.686275 0.658824 0.635294
0.705882 0.686275 0.666667
0.737255 0.721569 0.705882
0.760784 0.749020 0.733333
0.784314 0.780392 0.768627
0.815686 0.807843 0.800000
0.698039 0.674510 0.650980
0.717647 0.701961 0.682353
0.745098 0.733333 0.717647
0.768627 0.756863 0.745098
0.792157 0.788235 0.776471
0.823529 0.819608 0.811765
0.854902 0.847059 0.843137
0.874510 0.870588 0.866667
0.905882 0.905882 0.901961
0.776471 0.772549 0.760784
0.807843 0.803922 0.792157
0.835294 0.827451 0.823529
0.858824 0.854902 0.850980
0.890196 0.890196 0.886275
0.917647 0.917647 0.913725
0.949020 0.949020 0.945098
0.972549 0.972549 0.972549
0.988235 0.988235 0.988235
0.015686 0.011765 0.007843
0.050980 0.039216 0.031373
0.082353 0.070588 0.054902
0.109804 0.090196 0.070588
0.145098 0.113725 0.094118
0.184314 0.149020 0.121569
0.207843 0.168627 0.137255
0.243137 0.200000 0.164706
0.278431 0.235294 0.196078
0.129412 0.101961 0.082353
0.156863 0.125490 0.101961
0.188235 0.152941 0.121569
0.223529 0.180392 0.145098
0.254902 0.207843 0.172549
0.290196 0.243137 0.203922
0.317647 0.266667 0.223529
0.349020 0.294118 0.247059
0.384314 0.325490 0.274510
0.239216 0.196078 0.160784
0.266667 0.219608 0.184314
0.298039 0.247059 0.207843
0.333333 0.278431 0.235294
0.364706 0.305882 0.258824
0.392157 0.333333 0.282353
0.427451 0.368627 0.317647
0.458824 0.396078 0.345098
0.486275 0.423529 0.368627
0.341176 0.290196 0.243137
0.380392 0.321569 0.270588
0.407843 0.349020 0.298039
0.439216 0.376471 0.329412
0.474510 0.411765 0.356863
0.494118 0.431373 0.376471
0.525490 0.466667 0.407843
0.560784 0.498039 0.443137
0.576471 0.521569 0.474510
0.447059 0.388235 0.333333
0.478431 0.415686 0.360784
0.509804 0.447059 0.392157
0.537255 0.478431 0.419608
0.564706 0.505882 0.454902
0.580392 0.529412 0.486275
0.607843 0.560784 0.521569
0.631373 0.592157 0.556863
0.654902 0.623529 0.592157
0.549020 0.486275 0.431373
0.568627 0.509804 0.458824
0.588235 0.537255 0.498039
0.615686 0.572549 0.533333
0.635294 0.600000 0.568627
0.658824 0.627451 0.596078
0.678431 0.654902 0.631373
0.705882 0.686275 0.666667
0.737255 0.721569 0.705882
0.623529 0.580392 0.545098
0.643137 0.607843 0.576471
0.666667 0.639216 0.607843
0.698039 0.674510 0.650980
0.717647 0.701961 0.682353
0.741176 0.729412 0.713725
0.768627 0.756863 0.745098
0.792157 0.788235 0.776471
0.823529 0.819608 0.811765
0.701961 0.678431 0.658824
0.725490 0.713725 0.694118
0.752941 0.741176 0.725490
0.776471 0.772549 0.760784
0.807843 0.803922 0.792157
0.831373 0.823529 0.819608
0.858824 0.854902 0.850980
0.890196 0.890196 0.886275
0.917647 0.917647 0.913725
0.784314 0.780392 0.768627
0.819608 0.811765 0.803922
0.843137 0.835294 0.831373
0.870588 0.866667 0.862745
0.898039 0.898039 0.894118
0.929412 0.925490 0.925490
0.956863 0.952941 0.952941
0.984314 0.984314 0.984314
0.992157 0.992157 0.992157
0.027451 0.023529 0.015686
0.058824 0.047059 0.035294
0.094118 0.078431 0.058824
0.129412 0.101961 0.082353
0.152941 0.121569 0.098039
0.188235 0.152941 0.121569
0.223529 0.180392 0.145098
0.254902 0.207843 0.172549
0.286275 0.239216 0.200000
0.137255 0.109804 0.090196
0.168627 0.133333 0.109804
0.200000 0.160784 0.129412
0.235294 0.192157 0.156863
0.266667 0.219608 0.184314
0.298039 0.247059 0.207843
0.333333 0.278431 0.235294
0.364706 0.305882 0.258824
0.392157 0.333333 0.282353
0.247059 0.200000 0.164706
0.286275 0.239216 0.200000
0.309804 0.258824 0.219608
0.337255 0.286275 0.239216
0.380392 0.321569 0.270588
0.407843 0.349020 0.298039
0.439216 0.376471 0.329412
0.470588 0.407843 0.352941
0.494118 0.431373 0.376471
0.352941 0.298039 0.247059
0.388235 0.329412 0.278431
0.415686 0.356863 0.305882
0.447059 0.388235 0.333333
0.478431 0.415686 0.360784
0.509804 0.447059 0.392157
0.533333 0.470588 0.415686
0.564706 0.501961 0.450980
0.580392 0.529412 0.486275
0.462745 0.400000 0.349020
0.490196 0.427451 0.372549
0.521569 0.458824 0.403922
0.549020 0.486275 0.431373
0.568627 0.513725 0.466667
0.592157 0.545098 0.501961
0.615686 0.572549 0.533333
0.635294 0.600000 0.568627
0.658824 0.631373 0.600000
0.560784 0.498039 0.443137
0.576471 0.521569 0.474510
0.600000 0.552941 0.509804
0.623529 0.580392 0.545098
0.643137 0.607843 0.576471
0.666667 0.639216 0.607843
0.698039 0.674510 0.650980
0.713725 0.694118 0.674510
0.741176 0.729412 0.713725
0.631373 0.592157 0.556863
0.654902 0.623529 0.592157
0.670588 0.647059 0.619608
0.701961 0.678431 0.658824
0.725490 0.713725 0.694118
0.752941 0.741176 0.725490
0.776471 0.764706 0.752941
0.803922 0.796078 0.788235
0.831373 0.823529 0.819608
0.709804 0.690196 0.670588
0.737255 0.721569 0.705882
0.760784 0.749020 0.733333
0.784314 0.780392 0.768627
0.819608 0.811765 0.803922
0.843137 0.835294 0.831373
0.866667 0.862745 0.858824
0.898039 0.898039 0.894118
0.929412 0.925490 0.925490
0.796078 0.792157 0.780392
0.823529 0.819608 0.811765
0.854902 0.847059 0.843137
0.878431 0.878431 0.874510
0.909804 0.909804 0.905882
0.941176 0.941176 0.937255
0.960784 0.960784 0.960784
0.988235 0.988235 0.988235
1.000000 1.000000 1.000000
0.043137 0.035294 0.027451
0.066667 0.054902 0.043137
0.101961 0.082353 0.062745
0.137255 0.109804 0.090196
0.168627 0.133333 0.109804
0.196078 0.156863 0.125490
0.235294 0.192157 0.156863
0.266667 0.219608 0.184314
0.298039 0.247059 0.207843
0.145098 0.113725 0.094118
0.184314 0.149020 0.121569
0.207843 0.168627 0.137255
0.247059 0.200000 0.164706
0.286275 0.239216 0.200000
0.305882 0.254902 0.215686
0.337255 0.286275 0.239216
0.380392 0.321569 0.270588
0.407843 0.349020 0.298039
0.254902 0.207843 0.172549
0.290196 0.243137 0.203922
0.321569 0.270588 0.227451
0.352941 0.298039 0.247059
0.384314 0.325490 0.274510
0.415686 0.356863 0.305882
0.447059 0.388235 0.333333
0.478431 0.415686 0.360784
0.505882 0.443137 0.388235
0.364706 0.305882 0.258824
0.396078 0.337255 0.286275
0.431373 0.372549 0.321569
0.462745 0.400000 0.349020
0.486275 0.423529 0.368627
0.521569 0.458824 0.403922
0.549020 0.486275 0.431373
0.568627 0.509804 0.458824
0.588235 0.537255 0.498039
0.474510 0.411765 0.356863
0.498039 0.435294 0.380392
0.529412 0.470588 0.411765
0.560784 0.498039 0.443137
0.576471 0.521569 0.474510
0.600000 0.552941 0.509804
0.627451 0.584314 0.549020
0.643137 0.607843 0.576471
0.666667 0.639216 0.607843
0.564706 0.501961 0.450980
0.580392 0.529412 0.486275
0.607843 0.560784 0.521569
0.631373 0.592157 0.556863
0.650980 0.619608 0.584314
0.670588 0.647059 0.619608
0.701961 0.678431 0.658824
0.725490 0.713725 0.694118
0.749020 0.737255 0.721569
0.635294 0.600000 0.568627
0.658824 0.631373 0.600000
0.686275 0.658824 0.635294
0.705882 0.686275 0.666667
0.737255 0.721569 0.705882
0.760784 0.749020 0.733333
0.784314 0.780392 0.768627
0.815686 0.807843 0.800000
0.839216 0.831373 0.827451
0.717647 0.701961 0.682353
0.745098 0.733333 0.717647
0.772549 0.760784 0.749020
0.792157 0.788235 0.776471
0.823529 0.819608 0.811765
0.854902 0.847059 0.843137
0.878431 0.878431 0.874510
0.905882 0.905882 0.901961
0.941176 0.941176 0.937255
0.807843 0.803922 0.792157
0.835294 0.827451 0.823529
0.858824 0.854902 0.850980
0.890196 0.890196 0.886275
0.917647 0.917647 0.913725
0.949020 0.949020 0.945098
0.972549 0.972549 0.972549
0.988235 0.988235 0.988235
1.000000 1.000000 1.000000
0.050980 0.039216 0.031373
0.090196 0.074510 0.058824
0.109804 0.090196 0.070588
0.145098 0.113725 0.094118
0.184314 0.149020 0.121569
0.207843 0.168627 0.137255
0.243137 0.200000 0.164706
0.278431 0.235294 0.196078
0.305882 0.254902 0.215686
0.156863 0.125490 0.101961
0.188235 0.152941 0.121569
0.223529 0.180392 0.145098
0.254902 0.207843 0.172549
0.290196 0.243137 0.203922
0.317647 0.266667 0.223529
0.349020 0.294118 0.247059
0.384314 0.325490 0.274510
0.415686 0.356863 0.305882
0.270588 0.227451 0.188235
0.298039 0.247059 0.207843
0.333333 0.278431 0.235294
0.364706 0.305882 0.258824
0.396078 0.337255 0.286275
0.427451 0.368627 0.317647
0.458824 0.396078 0.345098
0.486275 0.423529 0.368627
0.521569 0.458824 0.403922
0.380392 0.321569 0.270588
0.407843 0.349020 0.298039
0.439216 0.376471 0.329412
0.474510 0.411765 0.356863
0.498039 0.435294 0.380392
0.525490 0.466667 0.407843
0.560784 0.498039 0.443137
0.576471 0.521569 0.474510
0.600000 0.552941 0.509804
0.478431 0.415686 0.360784
0.509804 0.447059 0.392157
0.537255 0.478431 0.419608
0.564706 0.505882 0.454902
0.584314 0.533333 0.490196
0.607843 0.560784 0.521569
0.631373 0.592157 0.556863
0.654902 0.623529 0.592157
0.670588 0.647059 0.619608
0.568627 0.509804 0.458824
0.588235 0.537255 0.498039
0.615686 0.572549 0.533333
0.635294 0.600000 0.568627
0.658824 0.631373 0.600000
0.678431 0.654902 0.631373
0.705882 0.686275 0.666667
0.737255 0.721569 0.705882
0.760784 0.749020 0.733333
0.643137 0.607843 0.576471
0.666667 0.639216 0.607843
0.698039 0.674510 0.650980
0.717647 0.701961 0.682353
0.745098 0.733333 0.717647
0.768627 0.756863 0.745098
0.792157 0.788235 0.776471
0.823529 0.819608 0.811765
0.854902 0.847059 0.843137
0.725490 0.713725 0.694118
0.752941 0.741176 0.725490
0.776471 0.772549 0.760784
0.807843 0.803922 0.792157
0.831373 0.823529 0.819608
0.858824 0.854902 0.850980
0.890196 0.890196 0.886275
0.917647 0.917647 0.913725
0.949020 0.945098 0.945098
0.819608 0.811765 0.803922
0.843137 0.835294 0.831373
0.870588 0.866667 0.862745
0.901961 0.901961 0.898039
0.929412 0.925490 0.925490
0.956863 0.952941 0.952941
0.984314 0.984314 0.984314
0.996078 0.996078 0.996078
1.000000 1.000000 1.000000
0.058824 0.047059 0.035294
0.094118 0.078431 0.058824
0.129412 0.101961 0.082353
0.152941 0.121569 0.098039
0.188235 0.152941 0.121569
0.223529 0.180392 0.145098
0.254902 0.207843 0.172549
0.290196 0.243137 0.203922
0.317647 0.266667 0.223529
0.168627 0.133333 0.109804
0.200000 0.160784 0.129412
0.239216 0.196078 0.160784
0.266667 0.219608 0.184314
0.298039 0.247059 0.207843
0.333333 0.278431 0.235294
0.364706 0.305882 0.258824
0.392157 0.333333 0.282353
0.427451 0.368627 0.317647
0.286275 0.239216 0.200000
0.309804 0.258824 0.219608
0.337255 0.286275 0.239216
0.380392 0.321569 0.270588
0.407843 0.349020 0.298039
0.439216 0.376471 0.329412
0.470588 0.407843 0.352941
0.494118 0.431373 0.376471
0.525490 0.466667 0.407843
0.388235 0.329412 0.278431
0.423529 0.364706 0.313725
0.447059 0.388235 0.333333
0.478431 0.415686 0.360784
0.509804 0.447059 0.392157
0.537255 0.478431 0.419608
0.564706 0.501961 0.450980
0.580392 0.529412 0.486275
0.607843 0.560784 0.521569
0.490196 0.427451 0.372549
0.521569 0.458824 0.403922
0.549020 0.486275 0.431373
0.568627 0.513725 0.466667
0.592157 0.545098 0.501961
0.615686 0.572549 0.533333
0.635294 0.600000 0.568627
0.658824 0.631373 0.600000
0.686275 0.658824 0.635294
0.576471 0.521569 0.474510
0.600000 0.552941 0.509804
0.623529 0.580392 0.545098
0.643137 0.607843 0.576471
0.666667 0.639216 0.607843
0.698039 0.674510 0.650980
0.713725 0.694118 0.674510
0.741176 0.729412 0.713725
0.768627 0.756863 0.745098
0.654902 0.623529 0.592157
0.670588 0.647059 0.619608
0.701961 0.678431 0.658824
0.725490 0.713725 0.694118
0.752941 0.741176 0.725490
0.776471 0.764706 0.752941
0.803922 0.796078 0.788235
0.831373 0.823529 0.819608
0.858824 0.854902 0.850980
0.741176 0.725490 0.709804
0.760784 0.749020 0.733333
0.784314 0.780392 0.768627
0.819608 0.811765 0.803922
0.843137 0.835294 0.831373
0.866667 0.862745 0.858824
0.898039 0.898039 0.894118
0.929412 0.925490 0.925490
0.956863 0.952941 0.952941
0.823529 0.819608 0.811765
0.854902 0.847059 0.843137
0.878431 0.878431 0.874510
0.909804 0.909804 0.905882
0.945098 0.945098 0.941176
0.960784 0.960784 0.960784
0.988235 0.988235 0.988235
1.000000 1.000000 1.000000
1.000000 1.000000 1.000000
0.066667 0.054902 0.043137
0.101961 0.082353 0.062745
0.137255 0.109804 0.090196
0.168627 0.133333 0.109804
0.200000 0.160784 0.129412
0.235294 0.192157 0.156863
0.266667 0.219608 0.184314
0.298039 0.247059 0.207843
0.333333 0.278431 0.235294
0.184314 0.149020 0.121569
0.207843 0.168627 0.137255
0.247059 0.200000 0.164706
0.286275 0.239216 0.200000
0.305882 0.254902 0.215686
0.337255 0.286275 0.239216
0.380392 0.321569 0.270588
0.407843 0.349020 0.298039
0.439216 0.376471 0.329412
0.290196 0.243137 0.203922
0.321569 0.270588 0.227451
0.352941 0.298039 0.247059
0.388235 0.329412 0.278431
0.415686 0.356863 0.305882
0.447059 0.388235 0.333333
0.478431 0.415686 0.360784
0.509804 0.447059 0.392157
0.533333 0.470588 0.415686
0.396078 0.337255 0.286275
0.431373 0.372549 0.321569
0.462745 0.400000 0.349020
0.486275 0.423529 0.368627
0.521569 0.458824 0.403922
0.549020 0.486275 0.431373
0.568627 0.513725 0.466667
0.588235 0.537255 0.498039
0.615686 0.572549 0.533333
0.498039 0.435294 0.380392
0.529412 0.470588 0.411765
0.560784 0.501961 0.447059
0.576471 0.521569 0.474510
0.600000 0.552941 0.509804
0.627451 0.584314 0.549020
0.647059 0.611765 0.580392
0.666667 0.639216 0.607843
0.698039 0.674510 0.650980
0.580392 0.529412 0.486275
0.607843 0.560784 0.521569
0.631373 0.592157 0.556863
0.654902 0.623529 0.592157
0.670588 0.647059 0.619608
0.701961 0.678431 0.658824
0.725490 0.713725 0.694118
0.749020 0.737255 0.721569
0.776471 0.764706 0.752941
0.658824 0.631373 0.600000
0.686275 0.658824 0.635294
0.709804 0.690196 0.670588
0.737255 0.721569 0.705882
0.760784 0.749020 0.733333
0.784314 0.780392 0.768627
0.819608 0.811765 0.803922
0.839216 0.831373 0.827451
0.866667 0.862745 0.858824
0.745098 0.733333 0.717647
0.772549 0.760784 0.749020
0.792157 0.788235 0.776471
0.823529 0.819608 0.811765
0.854902 0.847059 0.843137
0.878431 0.878431 0.874510
0.905882 0.905882 0.901961
0.941176 0.941176 0.937255
0.960784 0.960784 0.960784
0.835294 0.827451 0.823529
0.862745 0.858824 0.854902
0.890196 0.890196 0.886275
0.917647 0.917647 0.913725
0.949020 0.949020 0.945098
0.980392 0.980392 0.976471
0.988235 0.988235 0.988235
1.000000 1.000000 1.000000
1.000000 1.000000 1.000000
