MonoPhotoRedux.cube
# A compact monochrome 3D color LUT inspired by analog photography.
# Created by Timo Heidutzek
# https://github.com/trzyglow
# This LUT is not to be sold commercially.
# If you were asked to pay for this LUT, you were scammed.
# Version 1.0
# Licensed under CC-BY-SA-4.0
TITLE MonoPhotoRedux
LUT_3D_SIZE 9
0.000000 0.000000 0.000000
0.015686 0.015686 0.015686
0.043137 0.043137 0.043137
0.074510 0.074510 0.074510
0.094118 0.094118 0.094118
0.121569 0.121569 0.121569
0.156863 0.156863 0.156863
0.168627 0.168627 0.168627
0.203922 0.203922 0.203922
0.082353 0.082353 0.082353
0.109804 0.109804 0.109804
0.129412 0.129412 0.129412
0.160784 0.160784 0.160784
0.188235 0.188235 0.188235
0.211765 0.211765 0.211765
0.243137 0.243137 0.243137
0.266667 0.266667 0.266667
0.294118 0.294118 0.294118
0.168627 0.168627 0.168627
0.200000 0.200000 0.200000
0.223529 0.223529 0.223529
0.250980 0.250980 0.250980
0.282353 0.282353 0.282353
0.309804 0.309804 0.309804
0.333333 0.333333 0.333333
0.372549 0.372549 0.372549
0.392157 0.392157 0.392157
0.262745 0.262745 0.262745
0.286275 0.286275 0.286275
0.325490 0.325490 0.325490
0.345098 0.345098 0.345098
0.376471 0.376471 0.376471
0.407843 0.407843 0.407843
0.427451 0.427451 0.427451
0.458824 0.458824 0.458824
0.498039 0.498039 0.498039
0.368627 0.368627 0.368627
0.384314 0.384314 0.384314
0.415686 0.415686 0.415686
0.447059 0.447059 0.447059
0.470588 0.470588 0.470588
0.501961 0.501961 0.501961
0.525490 0.525490 0.525490
0.549020 0.549020 0.549020
0.584314 0.584314 0.584314
0.454902 0.454902 0.454902
0.474510 0.474510 0.474510
0.505882 0.505882 0.505882
0.537255 0.537255 0.537255
0.560784 0.560784 0.560784
0.584314 0.584314 0.584314
0.619608 0.619608 0.619608
0.639216 0.639216 0.639216
0.670588 0.670588 0.670588
0.545098 0.545098 0.545098
0.576471 0.576471 0.576471
0.596078 0.596078 0.596078
0.623529 0.623529 0.623529
0.662745 0.662745 0.662745
0.678431 0.678431 0.678431
0.709804 0.709804 0.709804
0.745098 0.745098 0.745098
0.764706 0.764706 0.764706
0.631373 0.631373 0.631373
0.666667 0.666667 0.666667
0.694118 0.694118 0.694118
0.717647 0.717647 0.717647
0.752941 0.752941 0.752941
0.776471 0.776471 0.776471
0.803922 0.803922 0.803922
0.835294 0.835294 0.835294
0.862745 0.862745 0.862745
0.729412 0.729412 0.729412
0.756863 0.756863 0.756863
0.792157 0.792157 0.792157
0.815686 0.815686 0.815686
0.843137 0.843137 0.843137
0.874510 0.874510 0.874510
0.898039 0.898039 0.898039
0.925490 0.925490 0.925490
0.956863 0.956863 0.956863
0.000000 0.000000 0.000000
0.027451 0.027451 0.027451
0.050980 0.050980 0.050980
0.082353 0.082353 0.082353
0.109804 0.109804 0.109804
0.129412 0.129412 0.129412
0.160784 0.160784 0.160784
0.188235 0.188235 0.188235
0.207843 0.207843 0.207843
0.086275 0.086275 0.086275
0.117647 0.117647 0.117647
0.141176 0.141176 0.141176
0.168627 0.168627 0.168627
0.200000 0.200000 0.200000
0.223529 0.223529 0.223529
0.250980 0.250980 0.250980
0.282353 0.282353 0.282353
0.301961 0.301961 0.301961
0.176471 0.176471 0.176471
0.207843 0.207843 0.207843
0.243137 0.243137 0.243137
0.258824 0.258824 0.258824
0.286275 0.286275 0.286275
0.325490 0.325490 0.325490
0.345098 0.345098 0.345098
0.376471 0.376471 0.376471
0.407843 0.407843 0.407843
0.274510 0.274510 0.274510
0.298039 0.298039 0.298039
0.329412 0.329412 0.329412
0.360784 0.360784 0.360784
0.384314 0.384314 0.384314
0.415686 0.415686 0.415686
0.447059 0.447059 0.447059
0.466667 0.466667 0.466667
0.501961 0.501961 0.501961
0.372549 0.372549 0.372549
0.400000 0.400000 0.400000
0.419608 0.419608 0.419608
0.454902 0.454902 0.454902
0.482353 0.482353 0.482353
0.505882 0.505882 0.505882
0.537255 0.537255 0.537255
0.560784 0.560784 0.560784
0.588235 0.588235 0.588235
0.458824 0.458824 0.458824
0.498039 0.498039 0.498039
0.513725 0.513725 0.513725
0.541176 0.541176 0.541176
0.576471 0.576471 0.576471
0.596078 0.596078 0.596078
0.623529 0.623529 0.623529
0.654902 0.654902 0.654902
0.678431 0.678431 0.678431
0.549020 0.549020 0.549020
0.584314 0.584314 0.584314
0.603922 0.603922 0.603922
0.631373 0.631373 0.631373
0.666667 0.666667 0.666667
0.694118 0.694118 0.694118
0.713725 0.713725 0.713725
0.749020 0.749020 0.749020
0.776471 0.776471 0.776471
0.647059 0.647059 0.647059
0.674510 0.674510 0.674510
0.705882 0.705882 0.705882
0.729412 0.729412 0.729412
0.756863 0.756863 0.756863
0.792157 0.792157 0.792157
0.811765 0.811765 0.811765
0.839216 0.839216 0.839216
0.874510 0.874510 0.874510
0.749020 0.749020 0.749020
0.764706 0.764706 0.764706
0.796078 0.796078 0.796078
0.831373 0.831373 0.831373
0.850980 0.850980 0.850980
0.878431 0.878431 0.878431
0.913725 0.913725 0.913725
0.933333 0.933333 0.933333
0.960784 0.960784 0.960784
0.007843 0.007843 0.007843
0.039216 0.039216 0.039216
0.058824 0.058824 0.058824
0.086275 0.086275 0.086275
0.117647 0.117647 0.117647
0.137255 0.137255 0.137255
0.164706 0.164706 0.164706
0.200000 0.200000 0.200000
0.223529 0.223529 0.223529
0.094118 0.094118 0.094118
0.121569 0.121569 0.121569
0.156863 0.156863 0.156863
0.176471 0.176471 0.176471
0.207843 0.207843 0.207843
0.235294 0.235294 0.235294
0.258824 0.258824 0.258824
0.286275 0.286275 0.286275
0.325490 0.325490 0.325490
0.188235 0.188235 0.188235
0.211765 0.211765 0.211765
0.247059 0.247059 0.247059
0.274510 0.274510 0.274510
0.298039 0.298039 0.298039
0.329412 0.329412 0.329412
0.360784 0.360784 0.360784
0.384314 0.384314 0.384314
0.415686 0.415686 0.415686
0.282353 0.282353 0.282353
0.309804 0.309804 0.309804
0.337255 0.337255 0.337255
0.372549 0.372549 0.372549
0.392157 0.392157 0.392157
0.419608 0.419608 0.419608
0.454902 0.454902 0.454902
0.482353 0.482353 0.482353
0.505882 0.505882 0.505882
0.376471 0.376471 0.376471
0.411765 0.411765 0.411765
0.431373 0.431373 0.431373
0.462745 0.462745 0.462745
0.498039 0.498039 0.498039
0.513725 0.513725 0.513725
0.545098 0.545098 0.545098
0.580392 0.580392 0.580392
0.596078 0.596078 0.596078
0.466667 0.466667 0.466667
0.501961 0.501961 0.501961
0.525490 0.525490 0.525490
0.549020 0.549020 0.549020
0.580392 0.580392 0.580392
0.603922 0.603922 0.603922
0.631373 0.631373 0.631373
0.666667 0.666667 0.666667
0.694118 0.694118 0.694118
0.560784 0.560784 0.560784
0.588235 0.588235 0.588235
0.619608 0.619608 0.619608
0.647059 0.647059 0.647059
0.670588 0.670588 0.670588
0.705882 0.705882 0.705882
0.729412 0.729412 0.729412
0.756863 0.756863 0.756863
0.792157 0.792157 0.792157
0.662745 0.662745 0.662745
0.682353 0.682353 0.682353
0.713725 0.713725 0.713725
0.745098 0.745098 0.745098
0.764706 0.764706 0.764706
0.796078 0.796078 0.796078
0.831373 0.831373 0.831373
0.847059 0.847059 0.847059
0.878431 0.878431 0.878431
0.752941 0.752941 0.752941
0.784314 0.784314 0.784314
0.807843 0.807843 0.807843
0.835294 0.835294 0.835294
0.862745 0.862745 0.862745
0.886275 0.886275 0.886275
0.921569 0.921569 0.921569
0.945098 0.945098 0.945098
0.968627 0.968627 0.968627
0.015686 0.015686 0.015686
0.043137 0.043137 0.043137
0.074510 0.074510 0.074510
0.094118 0.094118 0.094118
0.121569 0.121569 0.121569
0.156863 0.156863 0.156863
0.176471 0.176471 0.176471
0.203922 0.203922 0.203922
0.235294 0.235294 0.235294
0.109804 0.109804 0.109804
0.129412 0.129412 0.129412
0.160784 0.160784 0.160784
0.188235 0.188235 0.188235
0.211765 0.211765 0.211765
0.247059 0.247059 0.247059
0.266667 0.266667 0.266667
0.294118 0.294118 0.294118
0.329412 0.329412 0.329412
0.200000 0.200000 0.200000
0.223529 0.223529 0.223529
0.250980 0.250980 0.250980
0.282353 0.282353 0.282353
0.309804 0.309804 0.309804
0.333333 0.333333 0.333333
0.372549 0.372549 0.372549
0.392157 0.392157 0.392157
0.419608 0.419608 0.419608
0.290196 0.290196 0.290196
0.325490 0.325490 0.325490
0.345098 0.345098 0.345098
0.376471 0.376471 0.376471
0.411765 0.411765 0.411765
0.427451 0.427451 0.427451
0.458824 0.458824 0.458824
0.498039 0.498039 0.498039
0.513725 0.513725 0.513725
0.384314 0.384314 0.384314
0.415686 0.415686 0.415686
0.447059 0.447059 0.447059
0.470588 0.470588 0.470588
0.501961 0.501961 0.501961
0.525490 0.525490 0.525490
0.549020 0.549020 0.549020
0.584314 0.584314 0.584314
0.611765 0.611765 0.611765
0.482353 0.482353 0.482353
0.505882 0.505882 0.505882
0.537255 0.537255 0.537255
0.560784 0.560784 0.560784
0.588235 0.588235 0.588235
0.619608 0.619608 0.619608
0.639216 0.639216 0.639216
0.670588 0.670588 0.670588
0.705882 0.705882 0.705882
0.576471 0.576471 0.576471
0.596078 0.596078 0.596078
0.623529 0.623529 0.623529
0.662745 0.662745 0.662745
0.682353 0.682353 0.682353
0.709804 0.709804 0.709804
0.745098 0.745098 0.745098
0.764706 0.764706 0.764706
0.796078 0.796078 0.796078
0.666667 0.666667 0.666667
0.694118 0.694118 0.694118
0.717647 0.717647 0.717647
0.752941 0.752941 0.752941
0.784314 0.784314 0.784314
0.803922 0.803922 0.803922
0.835294 0.835294 0.835294
0.862745 0.862745 0.862745
0.886275 0.886275 0.886275
0.756863 0.756863 0.756863
0.792157 0.792157 0.792157
0.815686 0.815686 0.815686
0.843137 0.843137 0.843137
0.874510 0.874510 0.874510
0.898039 0.898039 0.898039
0.925490 0.925490 0.925490
0.956863 0.956863 0.956863
0.976471 0.976471 0.976471
0.027451 0.027451 0.027451
0.050980 0.050980 0.050980
0.082353 0.082353 0.082353
0.109804 0.109804 0.109804
0.129412 0.129412 0.129412
0.160784 0.160784 0.160784
0.188235 0.188235 0.188235
0.211765 0.211765 0.211765
0.243137 0.243137 0.243137
0.117647 0.117647 0.117647
0.141176 0.141176 0.141176
0.168627 0.168627 0.168627
0.200000 0.200000 0.200000
0.223529 0.223529 0.223529
0.250980 0.250980 0.250980
0.282353 0.282353 0.282353
0.309804 0.309804 0.309804
0.333333 0.333333 0.333333
0.207843 0.207843 0.207843
0.243137 0.243137 0.243137
0.262745 0.262745 0.262745
0.286275 0.286275 0.286275
0.325490 0.325490 0.325490
0.345098 0.345098 0.345098
0.376471 0.376471 0.376471
0.407843 0.407843 0.407843
0.427451 0.427451 0.427451
0.298039 0.298039 0.298039
0.329412 0.329412 0.329412
0.360784 0.360784 0.360784
0.384314 0.384314 0.384314
0.415686 0.415686 0.415686
0.447059 0.447059 0.447059
0.466667 0.466667 0.466667
0.501961 0.501961 0.501961
0.525490 0.525490 0.525490
0.400000 0.400000 0.400000
0.423529 0.423529 0.423529
0.454902 0.454902 0.454902
0.482353 0.482353 0.482353
0.505882 0.505882 0.505882
0.541176 0.541176 0.541176
0.560784 0.560784 0.560784
0.588235 0.588235 0.588235
0.619608 0.619608 0.619608
0.498039 0.498039 0.498039
0.513725 0.513725 0.513725
0.545098 0.545098 0.545098
0.576471 0.576471 0.576471
0.596078 0.596078 0.596078
0.623529 0.623529 0.623529
0.662745 0.662745 0.662745
0.678431 0.678431 0.678431
0.709804 0.709804 0.709804
0.584314 0.584314 0.584314
0.611765 0.611765 0.611765
0.631373 0.631373 0.631373
0.666667 0.666667 0.666667
0.694118 0.694118 0.694118
0.717647 0.717647 0.717647
0.749020 0.749020 0.749020
0.776471 0.776471 0.776471
0.803922 0.803922 0.803922
0.674510 0.674510 0.674510
0.705882 0.705882 0.705882
0.729412 0.729412 0.729412
0.756863 0.756863 0.756863
0.792157 0.792157 0.792157
0.815686 0.815686 0.815686
0.839216 0.839216 0.839216
0.874510 0.874510 0.874510
0.898039 0.898039 0.898039
0.772549 0.772549 0.772549
0.796078 0.796078 0.796078
0.831373 0.831373 0.831373
0.850980 0.850980 0.850980
0.882353 0.882353 0.882353
0.913725 0.913725 0.913725
0.933333 0.933333 0.933333
0.960784 0.960784 0.960784
1.000000 1.000000 1.000000
0.039216 0.039216 0.039216
0.058824 0.058824 0.058824
0.086275 0.086275 0.086275
0.117647 0.117647 0.117647
0.141176 0.141176 0.141176
0.164706 0.164706 0.164706
0.200000 0.200000 0.200000
0.223529 0.223529 0.223529
0.250980 0.250980 0.250980
0.121569 0.121569 0.121569
0.156863 0.156863 0.156863
0.176471 0.176471 0.176471
0.207843 0.207843 0.207843
0.243137 0.243137 0.243137
0.258824 0.258824 0.258824
0.286275 0.286275 0.286275
0.325490 0.325490 0.325490
0.345098 0.345098 0.345098
0.211765 0.211765 0.211765
0.247059 0.247059 0.247059
0.274510 0.274510 0.274510
0.298039 0.298039 0.298039
0.329412 0.329412 0.329412
0.360784 0.360784 0.360784
0.384314 0.384314 0.384314
0.415686 0.415686 0.415686
0.439216 0.439216 0.439216
0.309804 0.309804 0.309804
0.337255 0.337255 0.337255
0.372549 0.372549 0.372549
0.400000 0.400000 0.400000
0.419608 0.419608 0.419608
0.454902 0.454902 0.454902
0.482353 0.482353 0.482353
0.505882 0.505882 0.505882
0.537255 0.537255 0.537255
0.411765 0.411765 0.411765
0.431373 0.431373 0.431373
0.462745 0.462745 0.462745
0.498039 0.498039 0.498039
0.513725 0.513725 0.513725
0.545098 0.545098 0.545098
0.580392 0.580392 0.580392
0.596078 0.596078 0.596078
0.623529 0.623529 0.623529
0.501961 0.501961 0.501961
0.525490 0.525490 0.525490
0.549020 0.549020 0.549020
0.584314 0.584314 0.584314
0.603922 0.603922 0.603922
0.631373 0.631373 0.631373
0.666667 0.666667 0.666667
0.694118 0.694118 0.694118
0.713725 0.713725 0.713725
0.588235 0.588235 0.588235
0.619608 0.619608 0.619608
0.647059 0.647059 0.647059
0.670588 0.670588 0.670588
0.705882 0.705882 0.705882
0.729412 0.729412 0.729412
0.756863 0.756863 0.756863
0.792157 0.792157 0.792157
0.811765 0.811765 0.811765
0.682353 0.682353 0.682353
0.713725 0.713725 0.713725
0.749020 0.749020 0.749020
0.764706 0.764706 0.764706
0.796078 0.796078 0.796078
0.831373 0.831373 0.831373
0.850980 0.850980 0.850980
0.878431 0.878431 0.878431
0.913725 0.913725 0.913725
0.784314 0.784314 0.784314
0.807843 0.807843 0.807843
0.835294 0.835294 0.835294
0.862745 0.862745 0.862745
0.886275 0.886275 0.886275
0.921569 0.921569 0.921569
0.945098 0.945098 0.945098
0.968627 0.968627 0.968627
1.000000 1.000000 1.000000
0.043137 0.043137 0.043137
0.078431 0.078431 0.078431
0.094118 0.094118 0.094118
0.121569 0.121569 0.121569
0.156863 0.156863 0.156863
0.176471 0.176471 0.176471
0.203922 0.203922 0.203922
0.235294 0.235294 0.235294
0.258824 0.258824 0.258824
0.129412 0.129412 0.129412
0.160784 0.160784 0.160784
0.188235 0.188235 0.188235
0.211765 0.211765 0.211765
0.247059 0.247059 0.247059
0.266667 0.266667 0.266667
0.294118 0.294118 0.294118
0.329412 0.329412 0.329412
0.360784 0.360784 0.360784
0.227451 0.227451 0.227451
0.250980 0.250980 0.250980
0.282353 0.282353 0.282353
0.309804 0.309804 0.309804
0.337255 0.337255 0.337255
0.372549 0.372549 0.372549
0.392157 0.392157 0.392157
0.419608 0.419608 0.419608
0.454902 0.454902 0.454902
0.325490 0.325490 0.325490
0.345098 0.345098 0.345098
0.376471 0.376471 0.376471
0.411765 0.411765 0.411765
0.431373 0.431373 0.431373
0.458824 0.458824 0.458824
0.498039 0.498039 0.498039
0.513725 0.513725 0.513725
0.545098 0.545098 0.545098
0.415686 0.415686 0.415686
0.447059 0.447059 0.447059
0.470588 0.470588 0.470588
0.501961 0.501961 0.501961
0.533333 0.533333 0.533333
0.549020 0.549020 0.549020
0.584314 0.584314 0.584314
0.611765 0.611765 0.611765
0.631373 0.631373 0.631373
0.505882 0.505882 0.505882
0.537255 0.537255 0.537255
0.560784 0.560784 0.560784
0.588235 0.588235 0.588235
0.619608 0.619608 0.619608
0.639216 0.639216 0.639216
0.670588 0.670588 0.670588
0.705882 0.705882 0.705882
0.729412 0.729412 0.729412
0.596078 0.596078 0.596078
0.623529 0.623529 0.623529
0.662745 0.662745 0.662745
0.682353 0.682353 0.682353
0.713725 0.713725 0.713725
0.745098 0.745098 0.745098
0.764706 0.764706 0.764706
0.796078 0.796078 0.796078
0.831373 0.831373 0.831373
0.694118 0.694118 0.694118
0.717647 0.717647 0.717647
0.752941 0.752941 0.752941
0.784314 0.784314 0.784314
0.803922 0.803922 0.803922
0.835294 0.835294 0.835294
0.862745 0.862745 0.862745
0.886275 0.886275 0.886275
0.917647 0.917647 0.917647
0.792157 0.792157 0.792157
0.815686 0.815686 0.815686
0.843137 0.843137 0.843137
0.878431 0.878431 0.878431
0.898039 0.898039 0.898039
0.925490 0.925490 0.925490
0.956863 0.956863 0.956863
0.984314 0.984314 0.984314
1.000000 1.000000 1.000000
0.050980 0.050980 0.050980
0.082353 0.082353 0.082353
0.109804 0.109804 0.109804
0.129412 0.129412 0.129412
0.160784 0.160784 0.160784
0.188235 0.188235 0.188235
0.211765 0.211765 0.211765
0.247059 0.247059 0.247059
0.266667 0.266667 0.266667
0.141176 0.141176 0.141176
0.168627 0.168627 0.168627
0.200000 0.200000 0.200000
0.223529 0.223529 0.223529
0.250980 0.250980 0.250980
0.282353 0.282353 0.282353
0.309804 0.309804 0.309804
0.333333 0.333333 0.333333
0.372549 0.372549 0.372549
0.243137 0.243137 0.243137
0.262745 0.262745 0.262745
0.286275 0.286275 0.286275
0.325490 0.325490 0.325490
0.345098 0.345098 0.345098
0.376471 0.376471 0.376471
0.407843 0.407843 0.407843
0.427451 0.427451 0.427451
0.458824 0.458824 0.458824
0.329412 0.329412 0.329412
0.368627 0.368627 0.368627
0.384314 0.384314 0.384314
0.415686 0.415686 0.415686
0.447059 0.447059 0.447059
0.470588 0.470588 0.470588
0.501961 0.501961 0.501961
0.525490 0.525490 0.525490
0.549020 0.549020 0.549020
0.423529 0.423529 0.423529
0.454902 0.454902 0.454902
0.482353 0.482353 0.482353
0.505882 0.505882 0.505882
0.541176 0.541176 0.541176
0.560784 0.560784 0.560784
0.588235 0.588235 0.588235
0.619608 0.619608 0.619608
0.647059 0.647059 0.647059
0.513725 0.513725 0.513725
0.545098 0.545098 0.545098
0.576471 0.576471 0.576471
0.596078 0.596078 0.596078
0.623529 0.623529 0.623529
0.662745 0.662745 0.662745
0.678431 0.678431 0.678431
0.709804 0.709804 0.709804
0.745098 0.745098 0.745098
0.611765 0.611765 0.611765
0.631373 0.631373 0.631373
0.666667 0.666667 0.666667
0.694118 0.694118 0.694118
0.717647 0.717647 0.717647
0.749020 0.749020 0.749020
0.776471 0.776471 0.776471
0.803922 0.803922 0.803922
0.835294 0.835294 0.835294
0.705882 0.705882 0.705882
0.729412 0.729412 0.729412
0.756863 0.756863 0.756863
0.792157 0.792157 0.792157
0.815686 0.815686 0.815686
0.839216 0.839216 0.839216
0.874510 0.874510 0.874510
0.898039 0.898039 0.898039
0.925490 0.925490 0.925490
0.796078 0.796078 0.796078
0.831373 0.831373 0.831373
0.850980 0.850980 0.850980
0.882353 0.882353 0.882353
0.917647 0.917647 0.917647
0.933333 0.933333 0.933333
0.960784 0.960784 0.960784
1.000000 1.000000 1.000000
1.000000 1.000000 1.000000
0.058824 0.058824 0.058824
0.086275 0.086275 0.086275
0.117647 0.117647 0.117647
0.141176 0.141176 0.141176
0.168627 0.168627 0.168627
0.200000 0.200000 0.200000
0.223529 0.223529 0.223529
0.250980 0.250980 0.250980
0.282353 0.282353 0.282353
0.156863 0.156863 0.156863
0.176471 0.176471 0.176471
0.207843 0.207843 0.207843
0.243137 0.243137 0.243137
0.258824 0.258824 0.258824
0.286275 0.286275 0.286275
0.325490 0.325490 0.325490
0.345098 0.345098 0.345098
0.376471 0.376471 0.376471
0.247059 0.247059 0.247059
0.274510 0.274510 0.274510
0.298039 0.298039 0.298039
0.329412 0.329412 0.329412
0.360784 0.360784 0.360784
0.384314 0.384314 0.384314
0.415686 0.415686 0.415686
0.447059 0.447059 0.447059
0.466667 0.466667 0.466667
0.337255 0.337255 0.337255
0.372549 0.372549 0.372549
0.400000 0.400000 0.400000
0.419608 0.419608 0.419608
0.454902 0.454902 0.454902
0.482353 0.482353 0.482353
0.505882 0.505882 0.505882
0.537255 0.537255 0.537255
0.560784 0.560784 0.560784
0.431373 0.431373 0.431373
0.462745 0.462745 0.462745
0.498039 0.498039 0.498039
0.513725 0.513725 0.513725
0.545098 0.545098 0.545098
0.580392 0.580392 0.580392
0.600000 0.600000 0.600000
0.623529 0.623529 0.623529
0.662745 0.662745 0.662745
0.525490 0.525490 0.525490
0.549020 0.549020 0.549020
0.584314 0.584314 0.584314
0.611765 0.611765 0.611765
0.631373 0.631373 0.631373
0.666667 0.666667 0.666667
0.694118 0.694118 0.694118
0.713725 0.713725 0.713725
0.749020 0.749020 0.749020
0.619608 0.619608 0.619608
0.647059 0.647059 0.647059
0.674510 0.674510 0.674510
0.705882 0.705882 0.705882
0.729412 0.729412 0.729412
0.756863 0.756863 0.756863
0.792157 0.792157 0.792157
0.811765 0.811765 0.811765
0.839216 0.839216 0.839216
0.713725 0.713725 0.713725
0.749020 0.749020 0.749020
0.764706 0.764706 0.764706
0.796078 0.796078 0.796078
0.831373 0.831373 0.831373
0.850980 0.850980 0.850980
0.878431 0.878431 0.878431
0.913725 0.913725 0.913725
0.933333 0.933333 0.933333
0.807843 0.807843 0.807843
0.835294 0.835294 0.835294
0.862745 0.862745 0.862745
0.886275 0.886275 0.886275
0.921569 0.921569 0.921569
0.949020 0.949020 0.949020
0.968627 0.968627 0.968627
1.000000 1.000000 1.000000
1.000000 1.000000 1.000000
