MonoPhotoRedux.cube
# A compact monochrome 3D color LUT inspired by analog photography.
# Created by Timo Heidutzek
# https://github.com/trzyglow
# This LUT is not to be sold commercially.
# If you were asked to pay for this LUT, you were scammed.
# Version 1.0
# Licensed under CC-BY-SA-4.0
TITLE MonoPhotoRedux
LUT_3D_SIZE 25
0.000000 0.000000 0.000000
0.000000 0.000000 0.000000
0.003922 0.003922 0.003922
0.015686 0.015686 0.015686
0.027451 0.027451 0.027451
0.039216 0.039216 0.039216
0.043137 0.043137 0.043137
0.050980 0.050980 0.050980
0.058824 0.058824 0.058824
0.074510 0.074510 0.074510
0.078431 0.078431 0.078431
0.086275 0.086275 0.086275
0.094118 0.094118 0.094118
0.101961 0.101961 0.101961
0.117647 0.117647 0.117647
0.121569 0.121569 0.121569
0.129412 0.129412 0.129412
0.137255 0.137255 0.137255
0.156863 0.156863 0.156863
0.160784 0.160784 0.160784
0.164706 0.164706 0.164706
0.168627 0.168627 0.168627
0.188235 0.188235 0.188235
0.200000 0.200000 0.200000
0.203922 0.203922 0.203922
0.019608 0.019608 0.019608
0.035294 0.035294 0.035294
0.039216 0.039216 0.039216
0.047059 0.047059 0.047059
0.054902 0.054902 0.054902
0.066667 0.066667 0.066667
0.078431 0.078431 0.078431
0.082353 0.082353 0.082353
0.090196 0.090196 0.090196
0.098039 0.098039 0.098039
0.109804 0.109804 0.109804
0.121569 0.121569 0.121569
0.125490 0.125490 0.125490
0.129412 0.129412 0.129412
0.149020 0.149020 0.149020
0.156863 0.156863 0.156863
0.160784 0.160784 0.160784
0.168627 0.168627 0.168627
0.176471 0.176471 0.176471
0.196078 0.196078 0.196078
0.200000 0.200000 0.200000
0.207843 0.207843 0.207843
0.215686 0.215686 0.215686
0.227451 0.227451 0.227451
0.243137 0.243137 0.243137
0.047059 0.047059 0.047059
0.054902 0.054902 0.054902
0.066667 0.066667 0.066667
0.078431 0.078431 0.078431
0.082353 0.082353 0.082353
0.090196 0.090196 0.090196
0.101961 0.101961 0.101961
0.117647 0.117647 0.117647
0.121569 0.121569 0.121569
0.125490 0.125490 0.125490
0.137255 0.137255 0.137255
0.149020 0.149020 0.149020
0.156863 0.156863 0.156863
0.160784 0.160784 0.160784
0.168627 0.168627 0.168627
0.180392 0.180392 0.180392
0.196078 0.196078 0.196078
0.200000 0.200000 0.200000
0.207843 0.207843 0.207843
0.215686 0.215686 0.215686
0.227451 0.227451 0.227451
0.243137 0.243137 0.243137
0.247059 0.247059 0.247059
0.254902 0.254902 0.254902
0.262745 0.262745 0.262745
0.082353 0.082353 0.082353
0.086275 0.086275 0.086275
0.094118 0.094118 0.094118
0.109804 0.109804 0.109804
0.117647 0.117647 0.117647
0.121569 0.121569 0.121569
0.129412 0.129412 0.129412
0.141176 0.141176 0.141176
0.156863 0.156863 0.156863
0.160784 0.160784 0.160784
0.164706 0.164706 0.164706
0.176471 0.176471 0.176471
0.188235 0.188235 0.188235
0.200000 0.200000 0.200000
0.207843 0.207843 0.207843
0.211765 0.211765 0.211765
0.223529 0.223529 0.223529
0.235294 0.235294 0.235294
0.243137 0.243137 0.243137
0.250980 0.250980 0.250980
0.258824 0.258824 0.258824
0.266667 0.266667 0.266667
0.282353 0.282353 0.282353
0.286275 0.286275 0.286275
0.294118 0.294118 0.294118
0.109804 0.109804 0.109804
0.117647 0.117647 0.117647
0.121569 0.121569 0.121569
0.129412 0.129412 0.129412
0.141176 0.141176 0.141176
0.156863 0.156863 0.156863
0.160784 0.160784 0.160784
0.168627 0.168627 0.168627
0.176471 0.176471 0.176471
0.188235 0.188235 0.188235
0.200000 0.200000 0.200000
0.207843 0.207843 0.207843
0.211765 0.211765 0.211765
0.223529 0.223529 0.223529
0.243137 0.243137 0.243137
0.247059 0.247059 0.247059
0.250980 0.250980 0.250980
0.258824 0.258824 0.258824
0.274510 0.274510 0.274510
0.282353 0.282353 0.282353
0.286275 0.286275 0.286275
0.294118 0.294118 0.294118
0.309804 0.309804 0.309804
0.325490 0.325490 0.325490
0.329412 0.329412 0.329412
0.137255 0.137255 0.137255
0.149020 0.149020 0.149020
0.156863 0.156863 0.156863
0.164706 0.164706 0.164706
0.168627 0.168627 0.168627
0.180392 0.180392 0.180392
0.196078 0.196078 0.196078
0.203922 0.203922 0.203922
0.207843 0.207843 0.207843
0.215686 0.215686 0.215686
0.227451 0.227451 0.227451
0.243137 0.243137 0.243137
0.247059 0.247059 0.247059
0.254902 0.254902 0.254902
0.266667 0.266667 0.266667
0.282353 0.282353 0.282353
0.286275 0.286275 0.286275
0.290196 0.290196 0.290196
0.301961 0.301961 0.301961
0.313725 0.313725 0.313725
0.325490 0.325490 0.325490
0.329412 0.329412 0.329412
0.341176 0.341176 0.341176
0.352941 0.352941 0.352941
0.368627 0.368627 0.368627
0.168627 0.168627 0.168627
0.176471 0.176471 0.176471
0.188235 0.188235 0.188235
0.200000 0.200000 0.200000
0.207843 0.207843 0.207843
0.211765 0.211765 0.211765
0.223529 0.223529 0.223529
0.235294 0.235294 0.235294
0.247059 0.247059 0.247059
0.250980 0.250980 0.250980
0.258824 0.258824 0.258824
0.274510 0.274510 0.274510
0.282353 0.282353 0.282353
0.286275 0.286275 0.286275
0.294118 0.294118 0.294118
0.309804 0.309804 0.309804
0.325490 0.325490 0.325490
0.329412 0.329412 0.329412
0.333333 0.333333 0.333333
0.345098 0.345098 0.345098
0.360784 0.360784 0.360784
0.372549 0.372549 0.372549
0.376471 0.376471 0.376471
0.384314 0.384314 0.384314
0.392157 0.392157 0.392157
0.200000 0.200000 0.200000
0.207843 0.207843 0.207843
0.211765 0.211765 0.211765
0.227451 0.227451 0.227451
0.243137 0.243137 0.243137
0.247059 0.247059 0.247059
0.250980 0.250980 0.250980
0.262745 0.262745 0.262745
0.274510 0.274510 0.274510
0.282353 0.282353 0.282353
0.286275 0.286275 0.286275
0.298039 0.298039 0.298039
0.309804 0.309804 0.309804
0.325490 0.325490 0.325490
0.329412 0.329412 0.329412
0.337255 0.337255 0.337255
0.345098 0.345098 0.345098
0.360784 0.360784 0.360784
0.372549 0.372549 0.372549
0.376471 0.376471 0.376471
0.384314 0.384314 0.384314
0.392157 0.392157 0.392157
0.411765 0.411765 0.411765
0.415686 0.415686 0.415686
0.419608 0.419608 0.419608
0.235294 0.235294 0.235294
0.243137 0.243137 0.243137
0.247059 0.247059 0.247059
0.258824 0.258824 0.258824
0.266667 0.266667 0.266667
0.282353 0.282353 0.282353
0.286275 0.286275 0.286275
0.294118 0.294118 0.294118
0.301961 0.301961 0.301961
0.313725 0.313725 0.313725
0.325490 0.325490 0.325490
0.333333 0.333333 0.333333
0.341176 0.341176 0.341176
0.352941 0.352941 0.352941
0.368627 0.368627 0.368627
0.376471 0.376471 0.376471
0.380392 0.380392 0.380392
0.388235 0.388235 0.388235
0.400000 0.400000 0.400000
0.411765 0.411765 0.411765
0.419608 0.419608 0.419608
0.423529 0.423529 0.423529
0.439216 0.439216 0.439216
0.454902 0.454902 0.454902
0.458824 0.458824 0.458824
0.262745 0.262745 0.262745
0.274510 0.274510 0.274510
0.282353 0.282353 0.282353
0.286275 0.286275 0.286275
0.298039 0.298039 0.298039
0.309804 0.309804 0.309804
0.325490 0.325490 0.325490
0.329412 0.329412 0.329412
0.337255 0.337255 0.337255
0.345098 0.345098 0.345098
0.360784 0.360784 0.360784
0.372549 0.372549 0.372549
0.376471 0.376471 0.376471
0.384314 0.384314 0.384314
0.392157 0.392157 0.392157
0.407843 0.407843 0.407843
0.415686 0.415686 0.415686
0.419608 0.419608 0.419608
0.427451 0.427451 0.427451
0.447059 0.447059 0.447059
0.454902 0.454902 0.454902
0.458824 0.458824 0.458824
0.466667 0.466667 0.466667
0.482353 0.482353 0.482353
0.498039 0.498039 0.498039
0.290196 0.290196 0.290196
0.298039 0.298039 0.298039
0.309804 0.309804 0.309804
0.325490 0.325490 0.325490
0.329412 0.329412 0.329412
0.337255 0.337255 0.337255
0.345098 0.345098 0.345098
0.368627 0.368627 0.368627
0.372549 0.372549 0.372549
0.376471 0.376471 0.376471
0.384314 0.384314 0.384314
0.400000 0.400000 0.400000
0.411765 0.411765 0.411765
0.415686 0.415686 0.415686
0.419608 0.419608 0.419608
0.431373 0.431373 0.431373
0.447059 0.447059 0.447059
0.454902 0.454902 0.454902
0.458824 0.458824 0.458824
0.470588 0.470588 0.470588
0.482353 0.482353 0.482353
0.498039 0.498039 0.498039
0.501961 0.501961 0.501961
0.505882 0.505882 0.505882
0.513725 0.513725 0.513725
0.329412 0.329412 0.329412
0.333333 0.333333 0.333333
0.341176 0.341176 0.341176
0.352941 0.352941 0.352941
0.372549 0.372549 0.372549
0.376471 0.376471 0.376471
0.380392 0.380392 0.380392
0.388235 0.388235 0.388235
0.407843 0.407843 0.407843
0.411765 0.411765 0.411765
0.419608 0.419608 0.419608
0.427451 0.427451 0.427451
0.439216 0.439216 0.439216
0.454902 0.454902 0.454902
0.458824 0.458824 0.458824
0.462745 0.462745 0.462745
0.474510 0.474510 0.474510
0.490196 0.490196 0.490196
0.498039 0.498039 0.498039
0.505882 0.505882 0.505882
0.509804 0.509804 0.509804
0.521569 0.521569 0.521569
0.533333 0.533333 0.533333
0.541176 0.541176 0.541176
0.545098 0.545098 0.545098
0.368627 0.368627 0.368627
0.372549 0.372549 0.372549
0.376471 0.376471 0.376471
0.384314 0.384314 0.384314
0.392157 0.392157 0.392157
0.411765 0.411765 0.411765
0.415686 0.415686 0.415686
0.419608 0.419608 0.419608
0.431373 0.431373 0.431373
0.447059 0.447059 0.447059
0.454902 0.454902 0.454902
0.458824 0.458824 0.458824
0.470588 0.470588 0.470588
0.482353 0.482353 0.482353
0.498039 0.498039 0.498039
0.501961 0.501961 0.501961
0.505882 0.505882 0.505882
0.513725 0.513725 0.513725
0.525490 0.525490 0.525490
0.537255 0.537255 0.537255
0.545098 0.545098 0.545098
0.549020 0.549020 0.549020
0.560784 0.560784 0.560784
0.576471 0.576471 0.576471
0.584314 0.584314 0.584314
0.388235 0.388235 0.388235
0.400000 0.400000 0.400000
0.411765 0.411765 0.411765
0.415686 0.415686 0.415686
0.423529 0.423529 0.423529
0.431373 0.431373 0.431373
0.447059 0.447059 0.447059
0.454902 0.454902 0.454902
0.462745 0.462745 0.462745
0.470588 0.470588 0.470588
0.482353 0.482353 0.482353
0.498039 0.498039 0.498039
0.501961 0.501961 0.501961
0.505882 0.505882 0.505882
0.513725 0.513725 0.513725
0.525490 0.525490 0.525490
0.541176 0.541176 0.541176
0.545098 0.545098 0.545098
0.549020 0.549020 0.549020
0.568627 0.568627 0.568627
0.580392 0.580392 0.580392
0.584314 0.584314 0.584314
0.588235 0.588235 0.588235
0.600000 0.600000 0.600000
0.611765 0.611765 0.611765
0.419608 0.419608 0.419608
0.427451 0.427451 0.427451
0.439216 0.439216 0.439216
0.454902 0.454902 0.454902
0.458824 0.458824 0.458824
0.466667 0.466667 0.466667
0.474510 0.474510 0.474510
0.490196 0.490196 0.490196
0.501961 0.501961 0.501961
0.505882 0.505882 0.505882
0.509804 0.509804 0.509804
0.521569 0.521569 0.521569
0.537255 0.537255 0.537255
0.541176 0.541176 0.541176
0.545098 0.545098 0.545098
0.552941 0.552941 0.552941
0.576471 0.576471 0.576471
0.580392 0.580392 0.580392
0.584314 0.584314 0.584314
0.592157 0.592157 0.592157
0.603922 0.603922 0.603922
0.619608 0.619608 0.619608
0.623529 0.623529 0.623529
0.627451 0.627451 0.627451
0.639216 0.639216 0.639216
0.454902 0.454902 0.454902
0.458824 0.458824 0.458824
0.466667 0.466667 0.466667
0.474510 0.474510 0.474510
0.498039 0.498039 0.498039
0.501961 0.501961 0.501961
0.505882 0.505882 0.505882
0.509804 0.509804 0.509804
0.525490 0.525490 0.525490
0.537255 0.537255 0.537255
0.541176 0.541176 0.541176
0.549020 0.549020 0.549020
0.560784 0.560784 0.560784
0.576471 0.576471 0.576471
0.580392 0.580392 0.580392
0.584314 0.584314 0.584314
0.596078 0.596078 0.596078
0.603922 0.603922 0.603922
0.619608 0.619608 0.619608
0.623529 0.623529 0.623529
0.631373 0.631373 0.631373
0.639216 0.639216 0.639216
0.654902 0.654902 0.654902
0.666667 0.666667 0.666667
0.670588 0.670588 0.670588
0.490196 0.490196 0.490196
0.498039 0.498039 0.498039
0.501961 0.501961 0.501961
0.505882 0.505882 0.505882
0.513725 0.513725 0.513725
0.533333 0.533333 0.533333
0.541176 0.541176 0.541176
0.545098 0.545098 0.545098
0.552941 0.552941 0.552941
0.568627 0.568627 0.568627
0.580392 0.580392 0.580392
0.584314 0.584314 0.584314
0.592157 0.592157 0.592157
0.600000 0.600000 0.600000
0.611765 0.611765 0.611765
0.619608 0.619608 0.619608
0.627451 0.627451 0.627451
0.635294 0.635294 0.635294
0.647059 0.647059 0.647059
0.662745 0.662745 0.662745
0.666667 0.666667 0.666667
0.674510 0.674510 0.674510
0.682353 0.682353 0.682353
0.694118 0.694118 0.694118
0.705882 0.705882 0.705882
0.509804 0.509804 0.509804
0.525490 0.525490 0.525490
0.537255 0.537255 0.537255
0.541176 0.541176 0.541176
0.545098 0.545098 0.545098
0.560784 0.560784 0.560784
0.576471 0.576471 0.576471
0.580392 0.580392 0.580392
0.584314 0.584314 0.584314
0.596078 0.596078 0.596078
0.603922 0.603922 0.603922
0.619608 0.619608 0.619608
0.623529 0.623529 0.623529
0.631373 0.631373 0.631373
0.639216 0.639216 0.639216
0.654902 0.654902 0.654902
0.666667 0.666667 0.666667
0.670588 0.670588 0.670588
0.678431 0.678431 0.678431
0.686275 0.686275 0.686275
0.705882 0.705882 0.705882
0.709804 0.709804 0.709804
0.713725 0.713725 0.713725
0.721569 0.721569 0.721569
0.745098 0.745098 0.745098
0.545098 0.545098 0.545098
0.549020 0.549020 0.549020
0.560784 0.560784 0.560784
0.576471 0.576471 0.576471
0.580392 0.580392 0.580392
0.588235 0.588235 0.588235
0.596078 0.596078 0.596078
0.603922 0.603922 0.603922
0.619608 0.619608 0.619608
0.623529 0.623529 0.623529
0.631373 0.631373 0.631373
0.639216 0.639216 0.639216
0.662745 0.662745 0.662745
0.666667 0.666667 0.666667
0.670588 0.670588 0.670588
0.678431 0.678431 0.678431
0.694118 0.694118 0.694118
0.705882 0.705882 0.705882
0.709804 0.709804 0.709804
0.717647 0.717647 0.717647
0.729412 0.729412 0.729412
0.745098 0.745098 0.745098
0.749020 0.749020 0.749020
0.756863 0.756863 0.756863
0.764706 0.764706 0.764706
0.580392 0.580392 0.580392
0.584314 0.584314 0.584314
0.592157 0.592157 0.592157
0.600000 0.600000 0.600000
0.611765 0.611765 0.611765
0.623529 0.623529 0.623529
0.627451 0.627451 0.627451
0.635294 0.635294 0.635294
0.647059 0.647059 0.647059
0.662745 0.662745 0.662745
0.666667 0.666667 0.666667
0.674510 0.674510 0.674510
0.686275 0.686275 0.686275
0.701961 0.701961 0.701961
0.705882 0.705882 0.705882
0.713725 0.713725 0.713725
0.721569 0.721569 0.721569
0.737255 0.737255 0.737255
0.749020 0.749020 0.749020
0.752941 0.752941 0.752941
0.760784 0.760784 0.760784
0.772549 0.772549 0.772549
0.784314 0.784314 0.784314
0.792157 0.792157 0.792157
0.800000 0.800000 0.800000
0.603922 0.603922 0.603922
0.619608 0.619608 0.619608
0.623529 0.623529 0.623529
0.627451 0.627451 0.627451
0.635294 0.635294 0.635294
0.654902 0.654902 0.654902
0.662745 0.662745 0.662745
0.666667 0.666667 0.666667
0.678431 0.678431 0.678431
0.686275 0.686275 0.686275
0.701961 0.701961 0.701961
0.705882 0.705882 0.705882
0.713725 0.713725 0.713725
0.721569 0.721569 0.721569
0.737255 0.737255 0.737255
0.749020 0.749020 0.749020
0.756863 0.756863 0.756863
0.760784 0.760784 0.760784
0.772549 0.772549 0.772549
0.792157 0.792157 0.792157
0.796078 0.796078 0.796078
0.800000 0.800000 0.800000
0.807843 0.807843 0.807843
0.815686 0.815686 0.815686
0.831373 0.831373 0.831373
0.631373 0.631373 0.631373
0.647059 0.647059 0.647059
0.662745 0.662745 0.662745
0.666667 0.666667 0.666667
0.670588 0.670588 0.670588
0.682353 0.682353 0.682353
0.694118 0.694118 0.694118
0.705882 0.705882 0.705882
0.713725 0.713725 0.713725
0.717647 0.717647 0.717647
0.729412 0.729412 0.729412
0.745098 0.745098 0.745098
0.752941 0.752941 0.752941
0.756863 0.756863 0.756863
0.764706 0.764706 0.764706
0.776471 0.776471 0.776471
0.792157 0.792157 0.792157
0.796078 0.796078 0.796078
0.803922 0.803922 0.803922
0.811765 0.811765 0.811765
0.831373 0.831373 0.831373
0.835294 0.835294 0.835294
0.839216 0.839216 0.839216
0.847059 0.847059 0.847059
0.862745 0.862745 0.862745
0.666667 0.666667 0.666667
0.678431 0.678431 0.678431
0.686275 0.686275 0.686275
0.701961 0.701961 0.701961
0.705882 0.705882 0.705882
0.713725 0.713725 0.713725
0.721569 0.721569 0.721569
0.737255 0.737255 0.737255
0.749020 0.749020 0.749020
0.756863 0.756863 0.756863
0.760784 0.760784 0.760784
0.772549 0.772549 0.772549
0.792157 0.792157 0.792157
0.796078 0.796078 0.796078
0.800000 0.800000 0.800000
0.807843 0.807843 0.807843
0.815686 0.815686 0.815686
0.831373 0.831373 0.831373
0.835294 0.835294 0.835294
0.843137 0.843137 0.843137
0.850980 0.850980 0.850980
0.870588 0.870588 0.870588
0.878431 0.878431 0.878431
0.882353 0.882353 0.882353
0.894118 0.894118 0.894118
0.705882 0.705882 0.705882
0.709804 0.709804 0.709804
0.713725 0.713725 0.713725
0.721569 0.721569 0.721569
0.737255 0.737255 0.737255
0.749020 0.749020 0.749020
0.756863 0.756863 0.756863
0.760784 0.760784 0.760784
0.776471 0.776471 0.776471
0.792157 0.792157 0.792157
0.796078 0.796078 0.796078
0.800000 0.800000 0.800000
0.811765 0.811765 0.811765
0.823529 0.823529 0.823529
0.831373 0.831373 0.831373
0.835294 0.835294 0.835294
0.847059 0.847059 0.847059
0.854902 0.854902 0.854902
0.870588 0.870588 0.870588
0.878431 0.878431 0.878431
0.882353 0.882353 0.882353
0.894118 0.894118 0.894118
0.905882 0.905882 0.905882
0.917647 0.917647 0.917647
0.921569 0.921569 0.921569
0.729412 0.729412 0.729412
0.749020 0.749020 0.749020
0.752941 0.752941 0.752941
0.756863 0.756863 0.756863
0.764706 0.764706 0.764706
0.784314 0.784314 0.784314
0.792157 0.792157 0.792157
0.796078 0.796078 0.796078
0.803922 0.803922 0.803922
0.815686 0.815686 0.815686
0.831373 0.831373 0.831373
0.835294 0.835294 0.835294
0.843137 0.843137 0.843137
0.850980 0.850980 0.850980
0.862745 0.862745 0.862745
0.874510 0.874510 0.874510
0.878431 0.878431 0.878431
0.886275 0.886275 0.886275
0.898039 0.898039 0.898039
0.913725 0.913725 0.913725
0.917647 0.917647 0.917647
0.925490 0.925490 0.925490
0.933333 0.933333 0.933333
0.945098 0.945098 0.945098
0.956863 0.956863 0.956863
0.000000 0.000000 0.000000
0.000000 0.000000 0.000000
0.007843 0.007843 0.007843
0.019608 0.019608 0.019608
0.035294 0.035294 0.035294
0.039216 0.039216 0.039216
0.043137 0.043137 0.043137
0.050980 0.050980 0.050980
0.066667 0.066667 0.066667
0.078431 0.078431 0.078431
0.082353 0.082353 0.082353
0.090196 0.090196 0.090196
0.098039 0.098039 0.098039
0.109804 0.109804 0.109804
0.117647 0.117647 0.117647
0.125490 0.125490 0.125490
0.129412 0.129412 0.129412
0.141176 0.141176 0.141176
0.156863 0.156863 0.156863
0.160784 0.160784 0.160784
0.168627 0.168627 0.168627
0.176471 0.176471 0.176471
0.188235 0.188235 0.188235
0.200000 0.200000 0.200000
0.207843 0.207843 0.207843
0.027451 0.027451 0.027451
0.039216 0.039216 0.039216
0.043137 0.043137 0.043137
0.047059 0.047059 0.047059
0.058824 0.058824 0.058824
0.074510 0.074510 0.074510
0.078431 0.078431 0.078431
0.082353 0.082353 0.082353
0.094118 0.094118 0.094118
0.101961 0.101961 0.101961
0.117647 0.117647 0.117647
0.121569 0.121569 0.121569
0.129412 0.129412 0.129412
0.137255 0.137255 0.137255
0.149020 0.149020 0.149020
0.156863 0.156863 0.156863
0.164706 0.164706 0.164706
0.168627 0.168627 0.168627
0.180392 0.180392 0.180392
0.200000 0.200000 0.200000
0.203922 0.203922 0.203922
0.207843 0.207843 0.207843
0.215686 0.215686 0.215686
0.235294 0.235294 0.235294
0.243137 0.243137 0.243137
0.050980 0.050980 0.050980
0.058824 0.058824 0.058824
0.074510 0.074510 0.074510
0.082353 0.082353 0.082353
0.086275 0.086275 0.086275
0.094118 0.094118 0.094118
0.101961 0.101961 0.101961
0.117647 0.117647 0.117647
0.121569 0.121569 0.121569
0.129412 0.129412 0.129412
0.137255 0.137255 0.137255
0.156863 0.156863 0.156863
0.160784 0.160784 0.160784
0.164706 0.164706 0.164706
0.168627 0.168627 0.168627
0.188235 0.188235 0.188235
0.200000 0.200000 0.200000
0.203922 0.203922 0.203922
0.207843 0.207843 0.207843
0.223529 0.223529 0.223529
0.235294 0.235294 0.235294
0.243137 0.243137 0.243137
0.250980 0.250980 0.250980
0.258824 0.258824 0.258824
0.266667 0.266667 0.266667
0.082353 0.082353 0.082353
0.090196 0.090196 0.090196
0.098039 0.098039 0.098039
0.109804 0.109804 0.109804
0.121569 0.121569 0.121569
0.125490 0.125490 0.125490
0.129412 0.129412 0.129412
0.141176 0.141176 0.141176
0.156863 0.156863 0.156863
0.160784 0.160784 0.160784
0.168627 0.168627 0.168627
0.176471 0.176471 0.176471
0.196078 0.196078 0.196078
0.200000 0.200000 0.200000
0.207843 0.207843 0.207843
0.211765 0.211765 0.211765
0.227451 0.227451 0.227451
0.243137 0.243137 0.243137
0.247059 0.247059 0.247059
0.254902 0.254902 0.254902
0.262745 0.262745 0.262745
0.274510 0.274510 0.274510
0.282353 0.282353 0.282353
0.290196 0.290196 0.290196
0.298039 0.298039 0.298039
0.117647 0.117647 0.117647
0.121569 0.121569 0.121569
0.125490 0.125490 0.125490
0.137255 0.137255 0.137255
0.149020 0.149020 0.149020
0.156863 0.156863 0.156863
0.160784 0.160784 0.160784
0.168627 0.168627 0.168627
0.180392 0.180392 0.180392
0.196078 0.196078 0.196078
0.200000 0.200000 0.200000
0.207843 0.207843 0.207843
0.215686 0.215686 0.215686
0.227451 0.227451 0.227451
0.243137 0.243137 0.243137
0.247059 0.247059 0.247059
0.254902 0.254902 0.254902
0.262745 0.262745 0.262745
0.274510 0.274510 0.274510
0.286275 0.286275 0.286275
0.290196 0.290196 0.290196
0.298039 0.298039 0.298039
0.313725 0.313725 0.313725
0.325490 0.325490 0.325490
0.329412 0.329412 0.329412
0.141176 0.141176 0.141176
0.156863 0.156863 0.156863
0.160784 0.160784 0.160784
0.164706 0.164706 0.164706
0.176471 0.176471 0.176471
0.188235 0.188235 0.188235
0.200000 0.200000 0.200000
0.203922 0.203922 0.203922
0.211765 0.211765 0.211765
0.223529 0.223529 0.223529
0.235294 0.235294 0.235294
0.247059 0.247059 0.247059
0.250980 0.250980 0.250980
0.258824 0.258824 0.258824
0.266667 0.266667 0.266667
0.282353 0.282353 0.282353
0.286275 0.286275 0.286275
0.294118 0.294118 0.294118
0.301961 0.301961 0.301961
0.325490 0.325490 0.325490
0.329412 0.329412 0.329412
0.333333 0.333333 0.333333
0.341176 0.341176 0.341176
0.360784 0.360784 0.360784
0.372549 0.372549 0.372549
0.168627 0.168627 0.168627
0.180392 0.180392 0.180392
0.196078 0.196078 0.196078
0.200000 0.200000 0.200000
0.207843 0.207843 0.207843
0.215686 0.215686 0.215686
0.227451 0.227451 0.227451
0.243137 0.243137 0.243137
0.247059 0.247059 0.247059
0.254902 0.254902 0.254902
0.262745 0.262745 0.262745
0.274510 0.274510 0.274510
0.286275 0.286275 0.286275
0.290196 0.290196 0.290196
0.298039 0.298039 0.298039
0.309804 0.309804 0.309804
0.325490 0.325490 0.325490
0.329412 0.329412 0.329412
0.337255 0.337255 0.337255
0.345098 0.345098 0.345098
0.368627 0.368627 0.368627
0.372549 0.372549 0.372549
0.376471 0.376471 0.376471
0.384314 0.384314 0.384314
0.400000 0.400000 0.400000
0.203922 0.203922 0.203922
0.207843 0.207843 0.207843
0.215686 0.215686 0.215686
0.235294 0.235294 0.235294
0.243137 0.243137 0.243137
0.247059 0.247059 0.247059
0.254902 0.254902 0.254902
0.262745 0.262745 0.262745
0.282353 0.282353 0.282353
0.286275 0.286275 0.286275
0.290196 0.290196 0.290196
0.301961 0.301961 0.301961
0.313725 0.313725 0.313725
0.325490 0.325490 0.325490
0.329412 0.329412 0.329412
0.337255 0.337255 0.337255
0.352941 0.352941 0.352941
0.368627 0.368627 0.368627
0.372549 0.372549 0.372549
0.380392 0.380392 0.380392
0.388235 0.388235 0.388235
0.400000 0.400000 0.400000
0.411765 0.411765 0.411765
0.419608 0.419608 0.419608
0.423529 0.423529 0.423529
0.243137 0.243137 0.243137
0.247059 0.247059 0.247059
0.250980 0.250980 0.250980
0.258824 0.258824 0.258824
0.266667 0.266667 0.266667
0.282353 0.282353 0.282353
0.286275 0.286275 0.286275
0.294118 0.294118 0.294118
0.309804 0.309804 0.309804
0.325490 0.325490 0.325490
0.329412 0.329412 0.329412
0.333333 0.333333 0.333333
0.345098 0.345098 0.345098
0.360784 0.360784 0.360784
0.372549 0.372549 0.372549
0.376471 0.376471 0.376471
0.384314 0.384314 0.384314
0.392157 0.392157 0.392157
0.407843 0.407843 0.407843
0.415686 0.415686 0.415686
0.419608 0.419608 0.419608
0.427451 0.427451 0.427451
0.439216 0.439216 0.439216
0.454902 0.454902 0.454902
0.458824 0.458824 0.458824
0.262745 0.262745 0.262745
0.282353 0.282353 0.282353
0.286275 0.286275 0.286275
0.290196 0.290196 0.290196
0.298039 0.298039 0.298039
0.313725 0.313725 0.313725
0.325490 0.325490 0.325490
0.329412 0.329412 0.329412
0.337255 0.337255 0.337255
0.352941 0.352941 0.352941
0.368627 0.368627 0.368627
0.372549 0.372549 0.372549
0.380392 0.380392 0.380392
0.388235 0.388235 0.388235
0.400000 0.400000 0.400000
0.411765 0.411765 0.411765
0.419608 0.419608 0.419608
0.423529 0.423529 0.423529
0.431373 0.431373 0.431373
0.447059 0.447059 0.447059
0.454902 0.454902 0.454902
0.462745 0.462745 0.462745
0.470588 0.470588 0.470588
0.482353 0.482353 0.482353
0.498039 0.498039 0.498039
0.294118 0.294118 0.294118
0.301961 0.301961 0.301961
