MonoPhotoReduxSepia.cube
# A Sepia toned compact monochrome 3D color LUT inspired by analog photography.
# Created by Timo Heidutzek
# https://github.com/trzyglow
# This LUT is not to be sold commercially.
# If you were asked to pay for this LUT, you were scammed.
# Version 1.0
# Licensed under CC-BY-SA-4.0
TITLE MonoPhotoReduxSepia
LUT_3D_SIZE 5
0.000000 0.000000 0.000000
0.050980 0.039216 0.031373
0.109804 0.090196 0.070588
0.184314 0.149020 0.121569
0.243137 0.200000 0.164706
0.200000 0.160784 0.129412
0.266667 0.219608 0.184314
0.333333 0.278431 0.235294
0.392157 0.333333 0.282353
0.458824 0.396078 0.345098
0.423529 0.364706 0.313725
0.478431 0.415686 0.360784
0.537255 0.478431 0.419608
0.580392 0.529412 0.486275
0.631373 0.592157 0.556863
0.600000 0.552941 0.509804
0.643137 0.607843 0.576471
0.698039 0.674510 0.650980
0.741176 0.729412 0.713725
0.792157 0.788235 0.776471
0.760784 0.749020 0.733333
0.819608 0.811765 0.803922
0.870588 0.866667 0.862745
0.929412 0.925490 0.925490
0.984314 0.984314 0.984314
0.007843 0.003922 0.003922
0.066667 0.054902 0.043137
0.137255 0.109804 0.090196
0.196078 0.156863 0.125490
0.266667 0.219608 0.184314
0.223529 0.180392 0.145098
0.290196 0.243137 0.203922
0.352941 0.298039 0.247059
0.415686 0.356863 0.305882
0.478431 0.415686 0.360784
0.439216 0.376471 0.329412
0.498039 0.435294 0.380392
0.560784 0.498039 0.443137
0.600000 0.552941 0.509804
0.643137 0.607843 0.576471
0.615686 0.572549 0.533333
0.658824 0.631373 0.600000
0.705882 0.686275 0.666667
0.760784 0.749020 0.733333
0.815686 0.807843 0.800000
0.776471 0.772549 0.760784
0.835294 0.827451 0.823529
0.890196 0.890196 0.886275
0.949020 0.949020 0.945098
0.988235 0.988235 0.988235
0.027451 0.023529 0.015686
0.094118 0.078431 0.058824
0.152941 0.121569 0.098039
0.223529 0.180392 0.145098
0.286275 0.239216 0.200000
0.247059 0.200000 0.164706
0.309804 0.258824 0.219608
0.380392 0.321569 0.270588
0.439216 0.376471 0.329412
0.494118 0.431373 0.376471
0.462745 0.400000 0.349020
0.521569 0.458824 0.403922
0.568627 0.513725 0.466667
0.615686 0.572549 0.533333
0.658824 0.631373 0.600000
0.631373 0.592157 0.556863
0.670588 0.647059 0.619608
0.725490 0.713725 0.694118
0.776471 0.764706 0.752941
0.831373 0.823529 0.819608
0.796078 0.792157 0.780392
0.854902 0.847059 0.843137
0.909804 0.909804 0.905882
0.960784 0.960784 0.960784
1.000000 1.000000 1.000000
0.050980 0.039216 0.031373
0.109804 0.090196 0.070588
0.184314 0.149020 0.121569
0.243137 0.200000 0.164706
0.305882 0.254902 0.215686
0.270588 0.227451 0.188235
0.333333 0.278431 0.235294
0.396078 0.337255 0.286275
0.458824 0.396078 0.345098
0.521569 0.458824 0.403922
0.478431 0.415686 0.360784
0.537255 0.478431 0.419608
0.584314 0.533333 0.490196
0.631373 0.592157 0.556863
0.670588 0.647059 0.619608
0.643137 0.607843 0.576471
0.698039 0.674510 0.650980
0.745098 0.733333 0.717647
0.792157 0.788235 0.776471
0.854902 0.847059 0.843137
0.819608 0.811765 0.803922
0.870588 0.866667 0.862745
0.929412 0.925490 0.925490
0.984314 0.984314 0.984314
1.000000 1.000000 1.000000
0.066667 0.054902 0.043137
0.137255 0.109804 0.090196
0.200000 0.160784 0.129412
0.266667 0.219608 0.184314
0.333333 0.278431 0.235294
0.290196 0.243137 0.203922
0.352941 0.298039 0.247059
0.415686 0.356863 0.305882
0.478431 0.415686 0.360784
0.533333 0.470588 0.415686
0.498039 0.435294 0.380392
0.560784 0.501961 0.447059
0.600000 0.552941 0.509804
0.647059 0.611765 0.580392
0.698039 0.674510 0.650980
0.658824 0.631373 0.600000
0.709804 0.690196 0.670588
0.760784 0.749020 0.733333
0.819608 0.811765 0.803922
0.866667 0.862745 0.858824
0.835294 0.827451 0.823529
0.890196 0.890196 0.886275
0.949020 0.949020 0.945098
0.988235 0.988235 0.988235
1.000000 1.000000 1.000000
