MonoPhotoReduxCyanotype.cube
# A compact monochrome 3D color LUT inspired by analog photography & the cyanotype printing process.
# Created by Timo Heidutzek
# https://github.com/trzyglow
# This LUT is not to be sold commercially.
# If you were asked to pay for this LUT, you were scammed.
# Version 1.0
# Licensed under CC-BY-SA-4.0
TITLE MonoPhotoReduxCyanotype
LUT_3D_SIZE 5
0.015686 0.133333 0.564706
0.054902 0.172549 0.584314
0.109804 0.215686 0.603922
0.168627 0.270588 0.635294
0.215686 0.313725 0.650980
0.180392 0.282353 0.639216
0.235294 0.329412 0.662745
0.290196 0.380392 0.690196
0.345098 0.423529 0.709804
0.400000 0.470588 0.737255
0.376471 0.454902 0.725490
0.427451 0.494118 0.745098
0.478431 0.545098 0.768627
0.533333 0.588235 0.792157
0.588235 0.639216 0.819608
0.552941 0.603922 0.800000
0.600000 0.647059 0.827451
0.666667 0.705882 0.854902
0.713725 0.749020 0.874510
0.768627 0.796078 0.898039
0.737255 0.764706 0.882353
0.796078 0.819608 0.909804
0.847059 0.862745 0.929412
0.898039 0.909804 0.956863
0.960784 0.964706 0.980392
0.023529 0.145098 0.568627
0.070588 0.184314 0.592157
0.129412 0.235294 0.615686
0.176471 0.278431 0.639216
0.235294 0.329412 0.662745
0.203922 0.298039 0.647059
0.258824 0.349020 0.674510
0.309804 0.392157 0.694118
0.368627 0.447059 0.721569
0.427451 0.494118 0.745098
0.384314 0.458824 0.729412
0.439216 0.505882 0.752941
0.505882 0.564706 0.784314
0.552941 0.603922 0.800000
0.600000 0.647059 0.827451
0.568627 0.619608 0.807843
0.623529 0.670588 0.831373
0.674510 0.717647 0.854902
0.737255 0.764706 0.882353
0.796078 0.819608 0.909804
0.756863 0.788235 0.890196
0.807843 0.835294 0.917647
0.866667 0.878431 0.941176
0.921569 0.933333 0.968627
0.968627 0.972549 0.984314
0.043137 0.156863 0.576471
0.098039 0.207843 0.600000
0.141176 0.247059 0.623529
0.203922 0.298039 0.647059
0.254902 0.345098 0.670588
0.219608 0.317647 0.654902
0.274510 0.360784 0.682353
0.337255 0.415686 0.705882
0.384314 0.458824 0.729412
0.435294 0.501961 0.749020
0.407843 0.482353 0.737255
0.462745 0.529412 0.764706
0.509804 0.572549 0.788235
0.568627 0.619608 0.807843
0.623529 0.670588 0.831373
0.588235 0.639216 0.819608
0.639216 0.682353 0.839216
0.698039 0.733333 0.866667
0.752941 0.784314 0.890196
0.807843 0.831373 0.913725
0.776471 0.803922 0.901961
0.831373 0.854902 0.929412
0.886275 0.898039 0.949020
0.933333 0.941176 0.972549
1.000000 1.000000 1.000000
0.054902 0.172549 0.584314
0.109804 0.215686 0.603922
0.168627 0.270588 0.635294
0.215686 0.313725 0.650980
0.270588 0.356863 0.678431
0.239216 0.329412 0.662745
0.290196 0.380392 0.690196
0.349020 0.427451 0.709804
0.400000 0.470588 0.737255
0.462745 0.529412 0.764706
0.427451 0.494118 0.745098
0.478431 0.545098 0.768627
0.541176 0.596078 0.796078
0.588235 0.639216 0.819608
0.639216 0.682353 0.839216
0.600000 0.647059 0.827451
0.666667 0.705882 0.854902
0.717647 0.752941 0.878431
0.768627 0.796078 0.898039
0.831373 0.854902 0.929412
0.796078 0.819608 0.909804
0.847059 0.862745 0.929412
0.898039 0.909804 0.956863
0.960784 0.964706 0.980392
1.000000 1.000000 1.000000
0.070588 0.184314 0.592157
0.129412 0.235294 0.615686
0.180392 0.282353 0.639216
0.235294 0.329412 0.662745
0.290196 0.380392 0.690196
0.258824 0.349020 0.674510
0.309804 0.392157 0.694118
0.368627 0.447059 0.721569
0.427451 0.494118 0.745098
0.474510 0.537255 0.768627
0.439216 0.505882 0.752941
0.505882 0.564706 0.784314
0.552941 0.603922 0.800000
0.603922 0.654902 0.827451
0.666667 0.705882 0.854902
0.623529 0.670588 0.831373
0.678431 0.721569 0.858824
0.737255 0.764706 0.882353
0.796078 0.819608 0.909804
0.839216 0.862745 0.929412
0.807843 0.835294 0.917647
0.866667 0.878431 0.941176
0.921569 0.933333 0.968627
0.968627 0.972549 0.984314
1.000000 1.000000 1.000000
