MonoPhotoReduxAged.cube
# A compact monochrome 3D color LUT inspired by analog photography; now sun bleached.
# Created by Timo Heidutzek
# https://github.com/trzyglow
# This LUT is not to be sold commercially.
# If you were asked to pay for this LUT, you were scammed.
# Version 1.0
# Licensed under CC-BY-SA-4.0
TITLE MonoPhotoReduxAged
LUT_3D_SIZE 5
0.054902 0.054902 0.054902
0.109804 0.109804 0.109804
0.149020 0.149020 0.149020
0.203922 0.203922 0.203922
0.250980 0.250980 0.250980
0.219608 0.219608 0.219608
0.266667 0.266667 0.266667
0.317647 0.317647 0.317647
0.368627 0.368627 0.368627
0.423529 0.423529 0.423529
0.400000 0.400000 0.400000
0.443137 0.443137 0.443137
0.498039 0.498039 0.498039
0.545098 0.545098 0.545098
0.600000 0.600000 0.600000
0.564706 0.564706 0.564706
0.607843 0.607843 0.607843
0.666667 0.666667 0.666667
0.705882 0.705882 0.705882
0.749020 0.749020 0.749020
0.721569 0.721569 0.721569
0.772549 0.772549 0.772549
0.811765 0.811765 0.811765
0.854902 0.854902 0.854902
0.898039 0.898039 0.898039
0.074510 0.074510 0.074510
0.121569 0.121569 0.121569
0.168627 0.168627 0.168627
0.211765 0.211765 0.211765
0.266667 0.266667 0.266667
0.235294 0.235294 0.235294
0.286275 0.286275 0.286275
0.337255 0.337255 0.337255
0.392157 0.392157 0.392157
0.443137 0.443137 0.443137
0.403922 0.403922 0.403922
0.458824 0.458824 0.458824
0.521569 0.521569 0.521569
0.564706 0.564706 0.564706
0.607843 0.607843 0.607843
0.576471 0.576471 0.576471
0.627451 0.627451 0.627451
0.674510 0.674510 0.674510
0.721569 0.721569 0.721569
0.772549 0.772549 0.772549
0.737255 0.737255 0.737255
0.784314 0.784314 0.784314
0.827451 0.827451 0.827451
0.874510 0.874510 0.874510
0.909804 0.909804 0.909804
0.094118 0.094118 0.094118
0.137255 0.137255 0.137255
0.180392 0.180392 0.180392
0.235294 0.235294 0.235294
0.286275 0.286275 0.286275
0.250980 0.250980 0.250980
0.301961 0.301961 0.301961
0.360784 0.360784 0.360784
0.403922 0.403922 0.403922
0.454902 0.454902 0.454902
0.431373 0.431373 0.431373
0.478431 0.478431 0.478431
0.529412 0.529412 0.529412
0.576471 0.576471 0.576471
0.627451 0.627451 0.627451
0.600000 0.600000 0.600000
0.639216 0.639216 0.639216
0.690196 0.690196 0.690196
0.737255 0.737255 0.737255
0.784314 0.784314 0.784314
0.756863 0.756863 0.756863
0.803922 0.803922 0.803922
0.843137 0.843137 0.843137
0.882353 0.882353 0.882353
0.933333 0.933333 0.933333
0.109804 0.109804 0.109804
0.149020 0.149020 0.149020
0.203922 0.203922 0.203922
0.250980 0.250980 0.250980
0.298039 0.298039 0.298039
0.270588 0.270588 0.270588
0.317647 0.317647 0.317647
0.368627 0.368627 0.368627
0.423529 0.423529 0.423529
0.478431 0.478431 0.478431
0.443137 0.443137 0.443137
0.498039 0.498039 0.498039
0.552941 0.552941 0.552941
0.600000 0.600000 0.600000
0.639216 0.639216 0.639216
0.607843 0.607843 0.607843
0.666667 0.666667 0.666667
0.709804 0.709804 0.709804
0.749020 0.749020 0.749020
0.803922 0.803922 0.803922
0.772549 0.772549 0.772549
0.811765 0.811765 0.811765
0.854902 0.854902 0.854902
0.898039 0.898039 0.898039
0.933333 0.933333 0.933333
0.121569 0.121569 0.121569
0.168627 0.168627 0.168627
0.219608 0.219608 0.219608
0.266667 0.266667 0.266667
0.317647 0.317647 0.317647
0.286275 0.286275 0.286275
0.337255 0.337255 0.337255
0.392157 0.392157 0.392157
0.443137 0.443137 0.443137
0.494118 0.494118 0.494118
0.458824 0.458824 0.458824
0.521569 0.521569 0.521569
0.564706 0.564706 0.564706
0.611765 0.611765 0.611765
0.666667 0.666667 0.666667
0.627451 0.627451 0.627451
0.678431 0.678431 0.678431
0.721569 0.721569 0.721569
0.772549 0.772549 0.772549
0.807843 0.807843 0.807843
0.784314 0.784314 0.784314
0.827451 0.827451 0.827451
0.874510 0.874510 0.874510
0.909804 0.909804 0.909804
0.933333 0.933333 0.933333
