MonoPhotoReduxAged.cube
# A compact monochrome 3D color LUT inspired by analog photography; now sun bleached.
# Created by Timo Heidutzek
# https://github.com/trzyglow
# This LUT is not to be sold commercially.
# If you were asked to pay for this LUT, you were scammed.
# Version 1.0
# Licensed under CC-BY-SA-4.0
TITLE MonoPhotoReduxAged
LUT_3D_SIZE 9
0.054902 0.054902 0.054902
0.082353 0.082353 0.082353
0.109804 0.109804 0.109804
0.133333 0.133333 0.133333
0.149020 0.149020 0.149020
0.172549 0.172549 0.172549
0.203922 0.203922 0.203922
0.219608 0.219608 0.219608
0.250980 0.250980 0.250980
0.137255 0.137255 0.137255
0.164706 0.164706 0.164706
0.180392 0.180392 0.180392
0.207843 0.207843 0.207843
0.235294 0.235294 0.235294
0.254902 0.254902 0.254902
0.286275 0.286275 0.286275
0.305882 0.305882 0.305882
0.333333 0.333333 0.333333
0.219608 0.219608 0.219608
0.247059 0.247059 0.247059
0.266667 0.266667 0.266667
0.290196 0.290196 0.290196
0.317647 0.317647 0.317647
0.349020 0.349020 0.349020
0.368627 0.368627 0.368627
0.403922 0.403922 0.403922
0.423529 0.423529 0.423529
0.301961 0.301961 0.301961
0.321569 0.321569 0.321569
0.360784 0.360784 0.360784
0.376471 0.376471 0.376471
0.403922 0.403922 0.403922
0.435294 0.435294 0.435294
0.454902 0.454902 0.454902
0.482353 0.482353 0.482353
0.521569 0.521569 0.521569
0.400000 0.400000 0.400000
0.415686 0.415686 0.415686
0.443137 0.443137 0.443137
0.474510 0.474510 0.474510
0.498039 0.498039 0.498039
0.525490 0.525490 0.525490
0.545098 0.545098 0.545098
0.564706 0.564706 0.564706
0.600000 0.600000 0.600000
0.478431 0.478431 0.478431
0.501961 0.501961 0.501961
0.529412 0.529412 0.529412
0.556863 0.556863 0.556863
0.576471 0.576471 0.576471
0.600000 0.600000 0.600000
0.627451 0.627451 0.627451
0.647059 0.647059 0.647059
0.674510 0.674510 0.674510
0.564706 0.564706 0.564706
0.592157 0.592157 0.592157
0.607843 0.607843 0.607843
0.631373 0.631373 0.631373
0.666667 0.666667 0.666667
0.678431 0.678431 0.678431
0.705882 0.705882 0.705882
0.733333 0.733333 0.733333
0.749020 0.749020 0.749020
0.639216 0.639216 0.639216
0.670588 0.670588 0.670588
0.690196 0.690196 0.690196
0.709804 0.709804 0.709804
0.737255 0.737255 0.737255
0.760784 0.760784 0.760784
0.784314 0.784314 0.784314
0.807843 0.807843 0.807843
0.827451 0.827451 0.827451
0.721569 0.721569 0.721569
0.741176 0.741176 0.741176
0.772549 0.772549 0.772549
0.788235 0.788235 0.788235
0.811765 0.811765 0.811765
0.839216 0.839216 0.839216
0.854902 0.854902 0.854902
0.874510 0.874510 0.874510
0.898039 0.898039 0.898039
0.054902 0.054902 0.054902
0.094118 0.094118 0.094118
0.113725 0.113725 0.113725
0.137255 0.137255 0.137255
0.164706 0.164706 0.164706
0.180392 0.180392 0.180392
0.207843 0.207843 0.207843
0.235294 0.235294 0.235294
0.250980 0.250980 0.250980
0.141176 0.141176 0.141176
0.168627 0.168627 0.168627
0.188235 0.188235 0.188235
0.219608 0.219608 0.219608
0.247059 0.247059 0.247059
0.266667 0.266667 0.266667
0.290196 0.290196 0.290196
0.317647 0.317647 0.317647
0.341176 0.341176 0.341176
0.227451 0.227451 0.227451
0.250980 0.250980 0.250980
0.286275 0.286275 0.286275
0.298039 0.298039 0.298039
0.321569 0.321569 0.321569
0.360784 0.360784 0.360784
0.376471 0.376471 0.376471
0.403922 0.403922 0.403922
0.435294 0.435294 0.435294
0.309804 0.309804 0.309804
0.337255 0.337255 0.337255
0.364706 0.364706 0.364706
0.392157 0.392157 0.392157
0.415686 0.415686 0.415686
0.443137 0.443137 0.443137
0.474510 0.474510 0.474510
0.494118 0.494118 0.494118
0.525490 0.525490 0.525490
0.403922 0.403922 0.403922
0.431373 0.431373 0.431373
0.447059 0.447059 0.447059
0.478431 0.478431 0.478431
0.505882 0.505882 0.505882
0.529412 0.529412 0.529412
0.556863 0.556863 0.556863
0.576471 0.576471 0.576471
0.600000 0.600000 0.600000
0.482353 0.482353 0.482353
0.521569 0.521569 0.521569
0.537255 0.537255 0.537255
0.560784 0.560784 0.560784
0.592157 0.592157 0.592157
0.607843 0.607843 0.607843
0.631373 0.631373 0.631373
0.658824 0.658824 0.658824
0.678431 0.678431 0.678431
0.564706 0.564706 0.564706
0.600000 0.600000 0.600000
0.615686 0.615686 0.615686
0.639216 0.639216 0.639216
0.670588 0.670588 0.670588
0.690196 0.690196 0.690196
0.709804 0.709804 0.709804
0.737255 0.737255 0.737255
0.760784 0.760784 0.760784
0.654902 0.654902 0.654902
0.678431 0.678431 0.678431
0.701961 0.701961 0.701961
0.721569 0.721569 0.721569
0.741176 0.741176 0.741176
0.772549 0.772549 0.772549
0.788235 0.788235 0.788235
0.807843 0.807843 0.807843
0.839216 0.839216 0.839216
0.737255 0.737255 0.737255
0.749020 0.749020 0.749020
0.776471 0.776471 0.776471
0.803922 0.803922 0.803922
0.819608 0.819608 0.819608
0.839216 0.839216 0.839216
0.866667 0.866667 0.866667
0.882353 0.882353 0.882353
0.901961 0.901961 0.901961
0.074510 0.074510 0.074510
0.105882 0.105882 0.105882
0.121569 0.121569 0.121569
0.141176 0.141176 0.141176
0.168627 0.168627 0.168627
0.188235 0.188235 0.188235
0.211765 0.211765 0.211765
0.247059 0.247059 0.247059
0.266667 0.266667 0.266667
0.149020 0.149020 0.149020
0.172549 0.172549 0.172549
0.203922 0.203922 0.203922
0.227451 0.227451 0.227451
0.250980 0.250980 0.250980
0.278431 0.278431 0.278431
0.298039 0.298039 0.298039
0.321569 0.321569 0.321569
0.360784 0.360784 0.360784
0.235294 0.235294 0.235294
0.254902 0.254902 0.254902
0.286275 0.286275 0.286275
0.309804 0.309804 0.309804
0.337255 0.337255 0.337255
0.364706 0.364706 0.364706
0.392157 0.392157 0.392157
0.415686 0.415686 0.415686
0.443137 0.443137 0.443137
0.317647 0.317647 0.317647
0.349020 0.349020 0.349020
0.368627 0.368627 0.368627
0.403922 0.403922 0.403922
0.423529 0.423529 0.423529
0.447059 0.447059 0.447059
0.478431 0.478431 0.478431
0.505882 0.505882 0.505882
0.529412 0.529412 0.529412
0.403922 0.403922 0.403922
0.439216 0.439216 0.439216
0.458824 0.458824 0.458824
0.486275 0.486275 0.486275
0.521569 0.521569 0.521569
0.537255 0.537255 0.537255
0.564706 0.564706 0.564706
0.596078 0.596078 0.596078
0.607843 0.607843 0.607843
0.494118 0.494118 0.494118
0.525490 0.525490 0.525490
0.545098 0.545098 0.545098
0.564706 0.564706 0.564706
0.596078 0.596078 0.596078
0.615686 0.615686 0.615686
0.639216 0.639216 0.639216
0.670588 0.670588 0.670588
0.690196 0.690196 0.690196
0.576471 0.576471 0.576471
0.600000 0.600000 0.600000
0.627451 0.627451 0.627451
0.654902 0.654902 0.654902
0.674510 0.674510 0.674510
0.701961 0.701961 0.701961
0.721569 0.721569 0.721569
0.741176 0.741176 0.741176
0.772549 0.772549 0.772549
0.666667 0.666667 0.666667
0.682353 0.682353 0.682353
0.709804 0.709804 0.709804
0.733333 0.733333 0.733333
0.749020 0.749020 0.749020
0.776471 0.776471 0.776471
0.803922 0.803922 0.803922
0.815686 0.815686 0.815686
0.839216 0.839216 0.839216
0.737255 0.737255 0.737255
0.764706 0.764706 0.764706
0.784314 0.784314 0.784314
0.807843 0.807843 0.807843
0.827451 0.827451 0.827451
0.843137 0.843137 0.843137
0.874510 0.874510 0.874510
0.890196 0.890196 0.890196
0.909804 0.909804 0.909804
0.082353 0.082353 0.082353
0.109804 0.109804 0.109804
0.133333 0.133333 0.133333
0.149020 0.149020 0.149020
0.172549 0.172549 0.172549
0.203922 0.203922 0.203922
0.227451 0.227451 0.227451
0.250980 0.250980 0.250980
0.278431 0.278431 0.278431
0.164706 0.164706 0.164706
0.180392 0.180392 0.180392
0.207843 0.207843 0.207843
0.235294 0.235294 0.235294
0.254902 0.254902 0.254902
0.286275 0.286275 0.286275
0.305882 0.305882 0.305882
0.333333 0.333333 0.333333
0.364706 0.364706 0.364706
0.247059 0.247059 0.247059
0.266667 0.266667 0.266667
0.290196 0.290196 0.290196
0.317647 0.317647 0.317647
0.349020 0.349020 0.349020
0.368627 0.368627 0.368627
0.403922 0.403922 0.403922
0.423529 0.423529 0.423529
0.447059 0.447059 0.447059
0.329412 0.329412 0.329412
0.360784 0.360784 0.360784
0.376471 0.376471 0.376471
0.403922 0.403922 0.403922
0.439216 0.439216 0.439216
0.454902 0.454902 0.454902
0.482353 0.482353 0.482353
0.521569 0.521569 0.521569
0.537255 0.537255 0.537255
0.415686 0.415686 0.415686
0.443137 0.443137 0.443137
0.474510 0.474510 0.474510
0.498039 0.498039 0.498039
0.525490 0.525490 0.525490
0.545098 0.545098 0.545098
0.564706 0.564706 0.564706
0.600000 0.600000 0.600000
0.619608 0.619608 0.619608
0.505882 0.505882 0.505882
0.529412 0.529412 0.529412
0.556863 0.556863 0.556863
0.576471 0.576471 0.576471
0.600000 0.600000 0.600000
0.627451 0.627451 0.627451
0.647059 0.647059 0.647059
0.674510 0.674510 0.674510
0.701961 0.701961 0.701961
0.592157 0.592157 0.592157
0.607843 0.607843 0.607843
0.631373 0.631373 0.631373
0.666667 0.666667 0.666667
0.682353 0.682353 0.682353
0.705882 0.705882 0.705882
0.733333 0.733333 0.733333
0.749020 0.749020 0.749020
0.776471 0.776471 0.776471
0.670588 0.670588 0.670588
0.690196 0.690196 0.690196
0.709804 0.709804 0.709804
0.737255 0.737255 0.737255
0.764706 0.764706 0.764706
0.784314 0.784314 0.784314
0.807843 0.807843 0.807843
0.827451 0.827451 0.827451
0.843137 0.843137 0.843137
0.741176 0.741176 0.741176
0.772549 0.772549 0.772549
0.788235 0.788235 0.788235
0.811765 0.811765 0.811765
0.839216 0.839216 0.839216
0.854902 0.854902 0.854902
0.874510 0.874510 0.874510
0.898039 0.898039 0.898039
0.913725 0.913725 0.913725
0.094118 0.094118 0.094118
0.113725 0.113725 0.113725
0.137255 0.137255 0.137255
0.164706 0.164706 0.164706
0.180392 0.180392 0.180392
0.207843 0.207843 0.207843
0.235294 0.235294 0.235294
0.254902 0.254902 0.254902
0.286275 0.286275 0.286275
0.168627 0.168627 0.168627
0.188235 0.188235 0.188235
0.219608 0.219608 0.219608
0.247059 0.247059 0.247059
0.266667 0.266667 0.266667
0.290196 0.290196 0.290196
0.317647 0.317647 0.317647
0.349020 0.349020 0.349020
0.368627 0.368627 0.368627
0.250980 0.250980 0.250980
0.286275 0.286275 0.286275
0.301961 0.301961 0.301961
0.321569 0.321569 0.321569
0.360784 0.360784 0.360784
0.376471 0.376471 0.376471
0.403922 0.403922 0.403922
0.435294 0.435294 0.435294
0.454902 0.454902 0.454902
0.337255 0.337255 0.337255
0.364706 0.364706 0.364706
0.392157 0.392157 0.392157
0.415686 0.415686 0.415686
0.443137 0.443137 0.443137
0.474510 0.474510 0.474510
0.494118 0.494118 0.494118
0.525490 0.525490 0.525490
0.545098 0.545098 0.545098
0.431373 0.431373 0.431373
0.450980 0.450980 0.450980
0.478431 0.478431 0.478431
0.505882 0.505882 0.505882
0.529412 0.529412 0.529412
0.560784 0.560784 0.560784
0.576471 0.576471 0.576471
0.600000 0.600000 0.600000
0.627451 0.627451 0.627451
0.521569 0.521569 0.521569
0.537255 0.537255 0.537255
0.564706 0.564706 0.564706
0.592157 0.592157 0.592157
0.607843 0.607843 0.607843
0.631373 0.631373 0.631373
0.666667 0.666667 0.666667
0.678431 0.678431 0.678431
0.705882 0.705882 0.705882
0.600000 0.600000 0.600000
0.619608 0.619608 0.619608
0.639216 0.639216 0.639216
0.670588 0.670588 0.670588
0.690196 0.690196 0.690196
0.709804 0.709804 0.709804
0.737255 0.737255 0.737255
0.760784 0.760784 0.760784
0.784314 0.784314 0.784314
0.678431 0.678431 0.678431
0.701961 0.701961 0.701961
0.721569 0.721569 0.721569
0.741176 0.741176 0.741176
0.772549 0.772549 0.772549
0.788235 0.788235 0.788235
0.807843 0.807843 0.807843
0.839216 0.839216 0.839216
0.854902 0.854902 0.854902
0.756863 0.756863 0.756863
0.776471 0.776471 0.776471
0.803922 0.803922 0.803922
0.819608 0.819608 0.819608
0.843137 0.843137 0.843137
0.866667 0.866667 0.866667
0.882353 0.882353 0.882353
0.901961 0.901961 0.901961
0.933333 0.933333 0.933333
0.105882 0.105882 0.105882
0.121569 0.121569 0.121569
0.141176 0.141176 0.141176
0.168627 0.168627 0.168627
0.188235 0.188235 0.188235
0.211765 0.211765 0.211765
0.247059 0.247059 0.247059
0.266667 0.266667 0.266667
0.290196 0.290196 0.290196
0.172549 0.172549 0.172549
0.203922 0.203922 0.203922
0.227451 0.227451 0.227451
0.250980 0.250980 0.250980
0.286275 0.286275 0.286275
0.298039 0.298039 0.298039
0.321569 0.321569 0.321569
0.360784 0.360784 0.360784
0.376471 0.376471 0.376471
0.254902 0.254902 0.254902
0.286275 0.286275 0.286275
0.309804 0.309804 0.309804
0.337255 0.337255 0.337255
0.364706 0.364706 0.364706
0.392157 0.392157 0.392157
0.415686 0.415686 0.415686
0.443137 0.443137 0.443137
0.466667 0.466667 0.466667
0.349020 0.349020 0.349020
0.368627 0.368627 0.368627
0.403922 0.403922 0.403922
0.431373 0.431373 0.431373
0.447059 0.447059 0.447059
0.478431 0.478431 0.478431
0.505882 0.505882 0.505882
0.529412 0.529412 0.529412
0.556863 0.556863 0.556863
0.439216 0.439216 0.439216
0.458824 0.458824 0.458824
0.486275 0.486275 0.486275
0.521569 0.521569 0.521569
0.537255 0.537255 0.537255
0.564706 0.564706 0.564706
0.596078 0.596078 0.596078
0.607843 0.607843 0.607843
0.631373 0.631373 0.631373
0.525490 0.525490 0.525490
0.545098 0.545098 0.545098
0.564706 0.564706 0.564706
0.600000 0.600000 0.600000
0.615686 0.615686 0.615686
0.639216 0.639216 0.639216
0.670588 0.670588 0.670588
0.690196 0.690196 0.690196
0.709804 0.709804 0.709804
0.600000 0.600000 0.600000
0.627451 0.627451 0.627451
0.654902 0.654902 0.654902
0.674510 0.674510 0.674510
0.701961 0.701961 0.701961
0.721569 0.721569 0.721569
0.741176 0.741176 0.741176
0.772549 0.772549 0.772549
0.788235 0.788235 0.788235
0.682353 0.682353 0.682353
0.709804 0.709804 0.709804
0.737255 0.737255 0.737255
0.749020 0.749020 0.749020
0.776471 0.776471 0.776471
0.803922 0.803922 0.803922
0.819608 0.819608 0.819608
0.839216 0.839216 0.839216
0.866667 0.866667 0.866667
0.764706 0.764706 0.764706
0.784314 0.784314 0.784314
0.807843 0.807843 0.807843
0.827451 0.827451 0.827451
0.843137 0.843137 0.843137
0.874510 0.874510 0.874510
0.890196 0.890196 0.890196
0.909804 0.909804 0.909804
0.933333 0.933333 0.933333
0.109804 0.109804 0.109804
0.133333 0.133333 0.133333
0.149020 0.149020 0.149020
0.172549 0.172549 0.172549
0.203922 0.203922 0.203922
0.227451 0.227451 0.227451
0.250980 0.250980 0.250980
0.278431 0.278431 0.278431
0.298039 0.298039 0.298039
0.180392 0.180392 0.180392
0.207843 0.207843 0.207843
0.235294 0.235294 0.235294
0.254902 0.254902 0.254902
0.286275 0.286275 0.286275
0.305882 0.305882 0.305882
0.333333 0.333333 0.333333
0.364706 0.364706 0.364706
0.392157 0.392157 0.392157
0.270588 0.270588 0.270588
0.290196 0.290196 0.290196
0.317647 0.317647 0.317647
0.349020 0.349020 0.349020
0.368627 0.368627 0.368627
0.403922 0.403922 0.403922
0.423529 0.423529 0.423529
0.447059 0.447059 0.447059
0.478431 0.478431 0.478431
0.360784 0.360784 0.360784
0.376471 0.376471 0.376471
0.403922 0.403922 0.403922
0.439216 0.439216 0.439216
0.458824 0.458824 0.458824
0.482353 0.482353 0.482353
0.521569 0.521569 0.521569
0.537255 0.537255 0.537255
0.564706 0.564706 0.564706
0.443137 0.443137 0.443137
0.474510 0.474510 0.474510
0.498039 0.498039 0.498039
0.525490 0.525490 0.525490
0.552941 0.552941 0.552941
0.564706 0.564706 0.564706
0.600000 0.600000 0.600000
0.619608 0.619608 0.619608
0.639216 0.639216 0.639216
0.529412 0.529412 0.529412
0.556863 0.556863 0.556863
0.576471 0.576471 0.576471
0.600000 0.600000 0.600000
0.627451 0.627451 0.627451
0.647059 0.647059 0.647059
0.674510 0.674510 0.674510
0.701961 0.701961 0.701961
0.721569 0.721569 0.721569
0.607843 0.607843 0.607843
0.631373 0.631373 0.631373
0.666667 0.666667 0.666667
0.682353 0.682353 0.682353
0.709804 0.709804 0.709804
0.733333 0.733333 0.733333
0.749020 0.749020 0.749020
0.776471 0.776471 0.776471
0.803922 0.803922 0.803922
0.690196 0.690196 0.690196
0.709804 0.709804 0.709804
0.737255 0.737255 0.737255
0.764706 0.764706 0.764706
0.784314 0.784314 0.784314
0.807843 0.807843 0.807843
0.827451 0.827451 0.827451
0.843137 0.843137 0.843137
0.870588 0.870588 0.870588
0.772549 0.772549 0.772549
0.788235 0.788235 0.788235
0.811765 0.811765 0.811765
0.839216 0.839216 0.839216
0.854902 0.854902 0.854902
0.874510 0.874510 0.874510
0.898039 0.898039 0.898039
0.921569 0.921569 0.921569
0.933333 0.933333 0.933333
0.113725 0.113725 0.113725
0.137255 0.137255 0.137255
0.164706 0.164706 0.164706
0.180392 0.180392 0.180392
0.207843 0.207843 0.207843
0.235294 0.235294 0.235294
0.254902 0.254902 0.254902
0.286275 0.286275 0.286275
0.305882 0.305882 0.305882
0.188235 0.188235 0.188235
0.219608 0.219608 0.219608
0.247059 0.247059 0.247059
0.266667 0.266667 0.266667
0.290196 0.290196 0.290196
0.317647 0.317647 0.317647
0.349020 0.349020 0.349020
0.368627 0.368627 0.368627
0.403922 0.403922 0.403922
0.286275 0.286275 0.286275
0.301961 0.301961 0.301961
0.321569 0.321569 0.321569
0.360784 0.360784 0.360784
0.376471 0.376471 0.376471
0.403922 0.403922 0.403922
0.435294 0.435294 0.435294
0.454902 0.454902 0.454902
0.482353 0.482353 0.482353
0.364706 0.364706 0.364706
0.400000 0.400000 0.400000
0.415686 0.415686 0.415686
0.443137 0.443137 0.443137
0.474510 0.474510 0.474510
0.498039 0.498039 0.498039
0.525490 0.525490 0.525490
0.545098 0.545098 0.545098
0.564706 0.564706 0.564706
0.450980 0.450980 0.450980
0.478431 0.478431 0.478431
0.505882 0.505882 0.505882
0.529412 0.529412 0.529412
0.560784 0.560784 0.560784
0.576471 0.576471 0.576471
0.600000 0.600000 0.600000
0.627451 0.627451 0.627451
0.654902 0.654902 0.654902
0.537255 0.537255 0.537255
0.564706 0.564706 0.564706
0.592157 0.592157 0.592157
0.607843 0.607843 0.607843
0.631373 0.631373 0.631373
0.666667 0.666667 0.666667
0.678431 0.678431 0.678431
0.705882 0.705882 0.705882
0.733333 0.733333 0.733333
0.619608 0.619608 0.619608
0.639216 0.639216 0.639216
0.670588 0.670588 0.670588
0.690196 0.690196 0.690196
0.709804 0.709804 0.709804
0.737255 0.737255 0.737255
0.760784 0.760784 0.760784
0.784314 0.784314 0.784314
0.807843 0.807843 0.807843
0.701961 0.701961 0.701961
0.721569 0.721569 0.721569
0.741176 0.741176 0.741176
0.772549 0.772549 0.772549
0.788235 0.788235 0.788235
0.807843 0.807843 0.807843
0.839216 0.839216 0.839216
0.854902 0.854902 0.854902
0.874510 0.874510 0.874510
0.776471 0.776471 0.776471
0.803922 0.803922 0.803922
0.819608 0.819608 0.819608
0.843137 0.843137 0.843137
0.870588 0.870588 0.870588
0.882353 0.882353 0.882353
0.901961 0.901961 0.901961
0.933333 0.933333 0.933333
0.933333 0.933333 0.933333
0.121569 0.121569 0.121569
0.141176 0.141176 0.141176
0.168627 0.168627 0.168627
0.188235 0.188235 0.188235
0.219608 0.219608 0.219608
0.247059 0.247059 0.247059
0.266667 0.266667 0.266667
0.290196 0.290196 0.290196
0.317647 0.317647 0.317647
0.203922 0.203922 0.203922
0.227451 0.227451 0.227451
0.250980 0.250980 0.250980
0.286275 0.286275 0.286275
0.298039 0.298039 0.298039
0.321569 0.321569 0.321569
0.360784 0.360784 0.360784
0.376471 0.376471 0.376471
0.403922 0.403922 0.403922
0.286275 0.286275 0.286275
0.309804 0.309804 0.309804
0.337255 0.337255 0.337255
0.364706 0.364706 0.364706
0.392157 0.392157 0.392157
0.415686 0.415686 0.415686
0.443137 0.443137 0.443137
0.474510 0.474510 0.474510
0.494118 0.494118 0.494118
0.368627 0.368627 0.368627
0.403922 0.403922 0.403922
0.431373 0.431373 0.431373
0.447059 0.447059 0.447059
0.478431 0.478431 0.478431
0.505882 0.505882 0.505882
0.529412 0.529412 0.529412
0.556863 0.556863 0.556863
0.576471 0.576471 0.576471
0.458824 0.458824 0.458824
0.486275 0.486275 0.486275
0.521569 0.521569 0.521569
0.537255 0.537255 0.537255
0.564706 0.564706 0.564706
0.596078 0.596078 0.596078
0.611765 0.611765 0.611765
0.631373 0.631373 0.631373
0.666667 0.666667 0.666667
0.545098 0.545098 0.545098
0.564706 0.564706 0.564706
0.600000 0.600000 0.600000
0.619608 0.619608 0.619608
0.639216 0.639216 0.639216
0.670588 0.670588 0.670588
0.690196 0.690196 0.690196
0.709804 0.709804 0.709804
0.737255 0.737255 0.737255
0.627451 0.627451 0.627451
0.654902 0.654902 0.654902
0.678431 0.678431 0.678431
0.701961 0.701961 0.701961
0.721569 0.721569 0.721569
0.741176 0.741176 0.741176
0.772549 0.772549 0.772549
0.788235 0.788235 0.788235
0.807843 0.807843 0.807843
0.709804 0.709804 0.709804
0.737255 0.737255 0.737255
0.749020 0.749020 0.749020
0.776471 0.776471 0.776471
0.803922 0.803922 0.803922
0.819608 0.819608 0.819608
0.839216 0.839216 0.839216
0.866667 0.866667 0.866667
0.882353 0.882353 0.882353
0.784314 0.784314 0.784314
0.807843 0.807843 0.807843
0.827451 0.827451 0.827451
0.843137 0.843137 0.843137
0.874510 0.874510 0.874510
0.894118 0.894118 0.894118
0.909804 0.909804 0.909804
0.933333 0.933333 0.933333
0.933333 0.933333 0.933333
