MonoPhotoReduxSepia.cube
# A Sepia toned compact monochrome 3D color LUT inspired by analog photography.
# Created by Timo Heidutzek
# https://github.com/trzyglow
# This LUT is not to be sold commercially.
# If you were asked to pay for this LUT, you were scammed.
# Version 1.0
# Licensed under CC-BY-SA-4.0
TITLE MonoPhotoReduxSepia
LUT_3D_SIZE 25
0.000000 0.000000 0.000000
0.000000 0.000000 0.000000
0.003922 0.003922 0.000000
0.015686 0.011765 0.007843
0.027451 0.023529 0.015686
0.043137 0.035294 0.027451
0.050980 0.039216 0.031373
0.058824 0.047059 0.035294
0.066667 0.054902 0.043137
0.082353 0.070588 0.054902
0.094118 0.074510 0.058824
0.101961 0.082353 0.062745
0.109804 0.090196 0.070588
0.121569 0.098039 0.078431
0.137255 0.109804 0.090196
0.145098 0.113725 0.094118
0.152941 0.121569 0.098039
0.160784 0.129412 0.105882
0.184314 0.149020 0.121569
0.188235 0.152941 0.121569
0.196078 0.156863 0.125490
0.203922 0.164706 0.133333
0.223529 0.180392 0.145098
0.235294 0.192157 0.156863
0.243137 0.200000 0.164706
0.023529 0.015686 0.011765
0.039216 0.031373 0.023529
0.047059 0.035294 0.027451
0.054902 0.043137 0.035294
0.062745 0.050980 0.039216
0.074510 0.062745 0.047059
0.090196 0.074510 0.058824
0.098039 0.078431 0.062745
0.105882 0.086275 0.066667
0.113725 0.094118 0.074510
0.129412 0.101961 0.082353
0.141176 0.113725 0.090196
0.149020 0.117647 0.094118
0.156863 0.125490 0.101961
0.176471 0.141176 0.113725
0.184314 0.149020 0.121569
0.192157 0.152941 0.125490
0.200000 0.160784 0.129412
0.207843 0.168627 0.137255
0.231373 0.188235 0.152941
0.239216 0.196078 0.160784
0.247059 0.200000 0.164706
0.258824 0.215686 0.176471
0.270588 0.227451 0.188235
0.286275 0.239216 0.200000
0.054902 0.043137 0.035294
0.062745 0.050980 0.039216
0.074510 0.062745 0.047059
0.094118 0.074510 0.058824
0.098039 0.078431 0.062745
0.105882 0.086275 0.066667
0.121569 0.098039 0.078431
0.137255 0.109804 0.090196
0.141176 0.113725 0.090196
0.149020 0.117647 0.094118
0.160784 0.129412 0.105882
0.176471 0.141176 0.113725
0.184314 0.149020 0.121569
0.192157 0.152941 0.125490
0.203922 0.164706 0.133333
0.215686 0.172549 0.141176
0.231373 0.188235 0.152941
0.239216 0.196078 0.160784
0.250980 0.203922 0.168627
0.258824 0.215686 0.176471
0.270588 0.227451 0.188235
0.286275 0.239216 0.200000
0.294118 0.247059 0.203922
0.301961 0.250980 0.211765
0.309804 0.258824 0.219608
0.094118 0.078431 0.058824
0.101961 0.082353 0.062745
0.109804 0.090196 0.070588
0.129412 0.101961 0.082353
0.137255 0.109804 0.090196
0.145098 0.113725 0.094118
0.152941 0.121569 0.098039
0.168627 0.133333 0.109804
0.184314 0.149020 0.121569
0.188235 0.152941 0.121569
0.196078 0.156863 0.125490
0.207843 0.168627 0.137255
0.223529 0.180392 0.145098
0.235294 0.192157 0.156863
0.247059 0.200000 0.164706
0.254902 0.207843 0.172549
0.266667 0.219608 0.184314
0.278431 0.235294 0.196078
0.286275 0.239216 0.200000
0.298039 0.247059 0.207843
0.305882 0.254902 0.215686
0.317647 0.266667 0.223529
0.333333 0.278431 0.235294
0.337255 0.286275 0.239216
0.349020 0.294118 0.247059
0.129412 0.101961 0.082353
0.137255 0.109804 0.090196
0.145098 0.113725 0.094118
0.156863 0.125490 0.101961
0.168627 0.133333 0.109804
0.184314 0.149020 0.121569
0.192157 0.152941 0.125490
0.200000 0.160784 0.129412
0.207843 0.168627 0.137255
0.223529 0.180392 0.145098
0.239216 0.196078 0.160784
0.247059 0.200000 0.164706
0.254902 0.207843 0.172549
0.266667 0.219608 0.184314
0.286275 0.239216 0.200000
0.290196 0.243137 0.203922
0.298039 0.247059 0.207843
0.305882 0.254902 0.215686
0.321569 0.270588 0.227451
0.333333 0.278431 0.235294
0.337255 0.286275 0.239216
0.349020 0.294118 0.247059
0.364706 0.305882 0.258824
0.380392 0.321569 0.270588
0.384314 0.325490 0.274510
0.160784 0.129412 0.105882
0.176471 0.141176 0.113725
0.184314 0.149020 0.121569
0.196078 0.156863 0.125490
0.203922 0.164706 0.133333
0.215686 0.172549 0.141176
0.231373 0.188235 0.152941
0.243137 0.200000 0.164706
0.250980 0.203922 0.168627
0.258824 0.215686 0.176471
0.270588 0.227451 0.188235
0.286275 0.239216 0.200000
0.294118 0.247059 0.203922
0.301961 0.250980 0.211765
0.317647 0.266667 0.223529
0.329412 0.278431 0.235294
0.337255 0.282353 0.235294
0.341176 0.290196 0.243137
0.356863 0.301961 0.254902
0.372549 0.313725 0.262745
0.380392 0.321569 0.270588
0.388235 0.329412 0.278431
0.400000 0.341176 0.290196
0.411765 0.352941 0.301961
0.423529 0.364706 0.313725
0.200000 0.160784 0.129412
0.207843 0.168627 0.137255
0.223529 0.180392 0.145098
0.239216 0.196078 0.160784
0.247059 0.200000 0.164706
0.254902 0.207843 0.172549
0.266667 0.219608 0.184314
0.278431 0.235294 0.196078
0.290196 0.243137 0.203922
0.298039 0.247059 0.207843
0.305882 0.254902 0.215686
0.321569 0.270588 0.227451
0.333333 0.278431 0.235294
0.337255 0.286275 0.239216
0.349020 0.294118 0.247059
0.364706 0.305882 0.258824
0.380392 0.321569 0.270588
0.384314 0.325490 0.274510
0.392157 0.333333 0.282353
0.407843 0.349020 0.298039
0.415686 0.356863 0.305882
0.427451 0.368627 0.317647
0.439216 0.376471 0.329412
0.447059 0.388235 0.333333
0.458824 0.396078 0.345098
0.239216 0.196078 0.160784
0.247059 0.200000 0.164706
0.254902 0.207843 0.172549
0.270588 0.227451 0.188235
0.286275 0.239216 0.200000
0.290196 0.243137 0.203922
0.298039 0.247059 0.207843
0.309804 0.258824 0.219608
0.321569 0.270588 0.227451
0.333333 0.278431 0.235294
0.337255 0.286275 0.239216
0.352941 0.298039 0.247059
0.364706 0.305882 0.258824
0.380392 0.321569 0.270588
0.388235 0.329412 0.278431
0.396078 0.337255 0.286275
0.407843 0.349020 0.298039
0.415686 0.356863 0.305882
0.431373 0.372549 0.321569
0.439216 0.376471 0.329412
0.447059 0.388235 0.333333
0.458824 0.396078 0.345098
0.474510 0.411765 0.356863
0.478431 0.415686 0.360784
0.486275 0.423529 0.368627
0.278431 0.235294 0.196078
0.286275 0.239216 0.200000
0.294118 0.247059 0.203922
0.305882 0.254902 0.215686
0.317647 0.266667 0.223529
0.329412 0.278431 0.235294
0.337255 0.282353 0.235294
0.349020 0.294118 0.247059
0.356863 0.301961 0.254902
0.372549 0.313725 0.262745
0.380392 0.321569 0.270588
0.392157 0.333333 0.282353
0.400000 0.341176 0.290196
0.411765 0.352941 0.301961
0.423529 0.364706 0.313725
0.435294 0.376471 0.325490
0.443137 0.380392 0.329412
0.450980 0.392157 0.337255
0.462745 0.400000 0.349020
0.478431 0.415686 0.360784
0.482353 0.419608 0.364706
0.490196 0.427451 0.372549
0.505882 0.443137 0.388235
0.517647 0.454902 0.400000
0.525490 0.462745 0.407843
0.309804 0.258824 0.219608
0.321569 0.270588 0.227451
0.333333 0.278431 0.235294
0.337255 0.286275 0.239216
0.352941 0.298039 0.247059
0.364706 0.305882 0.258824
0.380392 0.321569 0.270588
0.384314 0.325490 0.274510
0.396078 0.337255 0.286275
0.407843 0.349020 0.298039
0.415686 0.356863 0.305882
0.431373 0.372549 0.321569
0.439216 0.376471 0.329412
0.447059 0.388235 0.333333
0.458824 0.396078 0.345098
0.470588 0.407843 0.352941
0.478431 0.415686 0.360784
0.486275 0.423529 0.368627
0.494118 0.431373 0.376471
0.509804 0.447059 0.392157
0.521569 0.458824 0.403922
0.525490 0.466667 0.407843
0.533333 0.470588 0.415686
0.549020 0.486275 0.431373
0.560784 0.498039 0.443137
0.341176 0.290196 0.243137
0.352941 0.298039 0.247059
0.364706 0.305882 0.258824
0.380392 0.321569 0.270588
0.388235 0.329412 0.278431
0.396078 0.337255 0.286275
0.407843 0.349020 0.298039
0.423529 0.364706 0.313725
0.431373 0.372549 0.321569
0.439216 0.376471 0.329412
0.447059 0.388235 0.333333
0.462745 0.400000 0.349020
0.474510 0.411765 0.356863
0.478431 0.415686 0.360784
0.486275 0.423529 0.368627
0.498039 0.435294 0.380392
0.509804 0.447059 0.392157
0.521569 0.458824 0.403922
0.525490 0.466667 0.407843
0.537255 0.478431 0.419608
0.549020 0.486275 0.431373
0.560784 0.498039 0.443137
0.564706 0.505882 0.454902
0.568627 0.513725 0.466667
0.576471 0.521569 0.474510
0.384314 0.325490 0.274510
0.392157 0.333333 0.282353
0.400000 0.341176 0.290196
0.411765 0.352941 0.301961
0.427451 0.368627 0.317647
0.435294 0.376471 0.325490
0.443137 0.380392 0.329412
0.450980 0.392157 0.337255
0.470588 0.407843 0.352941
0.478431 0.415686 0.360784
0.482353 0.419608 0.364706
0.494118 0.431373 0.376471
0.505882 0.443137 0.388235
0.517647 0.454902 0.400000
0.525490 0.462745 0.407843
0.529412 0.470588 0.411765
0.545098 0.482353 0.427451
0.552941 0.490196 0.435294
0.560784 0.501961 0.447059
0.568627 0.509804 0.458824
0.572549 0.517647 0.470588
0.580392 0.525490 0.478431
0.584314 0.533333 0.490196
0.596078 0.549020 0.505882
0.603922 0.556863 0.513725
0.423529 0.364706 0.313725
0.431373 0.372549 0.321569
0.439216 0.376471 0.329412
0.447059 0.388235 0.333333
0.458824 0.396078 0.345098
0.474510 0.411765 0.356863
0.478431 0.415686 0.360784
0.486275 0.423529 0.368627
0.498039 0.435294 0.380392
0.509804 0.447059 0.392157
0.521569 0.458824 0.403922
0.525490 0.466667 0.407843
0.537255 0.478431 0.419608
0.549020 0.486275 0.431373
0.560784 0.498039 0.443137
0.564706 0.501961 0.450980
0.568627 0.513725 0.466667
0.576471 0.521569 0.474510
0.580392 0.529412 0.486275
0.588235 0.537255 0.498039
0.600000 0.552941 0.509804
0.607843 0.560784 0.521569
0.615686 0.572549 0.533333
0.623529 0.580392 0.545098
0.631373 0.592157 0.556863
0.450980 0.392157 0.337255
0.462745 0.400000 0.349020
0.474510 0.411765 0.356863
0.478431 0.415686 0.360784
0.490196 0.427451 0.372549
0.498039 0.435294 0.380392
0.509804 0.447059 0.392157
0.521569 0.458824 0.403922
0.529412 0.470588 0.411765
0.537255 0.478431 0.419608
0.549020 0.486275 0.431373
0.560784 0.501961 0.447059
0.564706 0.505882 0.454902
0.568627 0.513725 0.466667
0.576471 0.521569 0.474510
0.580392 0.529412 0.486275
0.592157 0.545098 0.501961
0.600000 0.552941 0.509804
0.607843 0.560784 0.521569
0.619608 0.576471 0.537255
0.627451 0.584314 0.549020
0.631373 0.592157 0.556863
0.635294 0.600000 0.568627
0.647059 0.611765 0.580392
0.654902 0.623529 0.592157
0.486275 0.423529 0.368627
0.494118 0.431373 0.376471
0.505882 0.443137 0.388235
0.517647 0.454902 0.400000
0.525490 0.462745 0.407843
0.533333 0.470588 0.415686
0.545098 0.482353 0.427451
0.552941 0.490196 0.435294
0.564706 0.501961 0.450980
0.568627 0.509804 0.458824
0.572549 0.517647 0.470588
0.580392 0.525490 0.478431
0.588235 0.537255 0.498039
0.596078 0.549020 0.505882
0.603922 0.556863 0.513725
0.611765 0.564706 0.525490
0.623529 0.580392 0.545098
0.627451 0.588235 0.552941
0.631373 0.596078 0.560784
0.639216 0.603922 0.572549
0.650980 0.619608 0.584314
0.658824 0.627451 0.596078
0.662745 0.635294 0.603922
0.666667 0.639216 0.615686
0.678431 0.654902 0.631373
0.521569 0.458824 0.403922
0.525490 0.466667 0.407843
0.533333 0.470588 0.415686
0.545098 0.482353 0.427451
0.560784 0.498039 0.443137
0.564706 0.501961 0.450980
0.568627 0.509804 0.458824
0.572549 0.517647 0.470588
0.580392 0.529412 0.486275
0.588235 0.537255 0.498039
0.596078 0.549020 0.505882
0.607843 0.560784 0.521569
0.615686 0.572549 0.533333
0.623529 0.580392 0.545098
0.627451 0.588235 0.552941
0.631373 0.596078 0.560784
0.643137 0.607843 0.576471
0.650980 0.619608 0.584314
0.658824 0.627451 0.596078
0.666667 0.639216 0.607843
0.670588 0.647059 0.619608
0.678431 0.654902 0.631373
0.690196 0.666667 0.643137
0.701961 0.678431 0.658824
0.705882 0.686275 0.666667
0.552941 0.490196 0.435294
0.560784 0.501961 0.447059
0.564706 0.505882 0.454902
0.568627 0.513725 0.466667
0.576471 0.521569 0.474510
0.584314 0.533333 0.490196
0.592157 0.545098 0.501961
0.600000 0.552941 0.509804
0.611765 0.564706 0.525490
0.619608 0.576471 0.537255
0.627451 0.584314 0.549020
0.631373 0.592157 0.556863
0.639216 0.603922 0.572549
0.647059 0.611765 0.580392
0.654902 0.623529 0.592157
0.658824 0.631373 0.600000
0.666667 0.639216 0.615686
0.674510 0.650980 0.623529
0.686275 0.658824 0.635294
0.698039 0.674510 0.650980
0.705882 0.682353 0.662745
0.709804 0.690196 0.670588
0.717647 0.701961 0.682353
0.725490 0.713725 0.694118
0.741176 0.725490 0.709804
0.572549 0.517647 0.470588
0.580392 0.529412 0.486275
0.588235 0.537255 0.498039
0.596078 0.549020 0.505882
0.603922 0.556863 0.513725
0.615686 0.572549 0.533333
0.623529 0.580392 0.545098
0.627451 0.588235 0.552941
0.631373 0.596078 0.560784
0.643137 0.607843 0.576471
0.650980 0.619608 0.584314
0.658824 0.627451 0.596078
0.666667 0.639216 0.607843
0.670588 0.647059 0.619608
0.678431 0.654902 0.631373
0.690196 0.666667 0.643137
0.701961 0.678431 0.658824
0.705882 0.686275 0.666667
0.713725 0.694118 0.674510
0.721569 0.705882 0.686275
0.737255 0.721569 0.705882
0.741176 0.729412 0.713725
0.749020 0.737255 0.721569
0.756863 0.745098 0.729412
0.768627 0.756863 0.745098
0.600000 0.552941 0.509804
0.607843 0.560784 0.521569
0.615686 0.572549 0.533333
0.623529 0.580392 0.545098
0.627451 0.588235 0.552941
0.635294 0.600000 0.568627
0.643137 0.607843 0.576471
0.650980 0.619608 0.584314
0.658824 0.631373 0.600000
0.666667 0.639216 0.607843
0.670588 0.647059 0.619608
0.678431 0.654902 0.631373
0.698039 0.674510 0.650980
0.701961 0.678431 0.658824
0.705882 0.686275 0.666667
0.713725 0.694118 0.674510
0.725490 0.713725 0.694118
0.737255 0.721569 0.705882
0.741176 0.729412 0.713725
0.752941 0.741176 0.725490
0.760784 0.749020 0.733333
0.768627 0.756863 0.745098
0.776471 0.764706 0.752941
0.780392 0.776471 0.764706
0.792157 0.788235 0.776471
0.627451 0.584314 0.549020
0.631373 0.596078 0.560784
0.639216 0.603922 0.572549
0.647059 0.611765 0.580392
0.654902 0.623529 0.592157
0.662745 0.635294 0.603922
0.666667 0.639216 0.615686
0.674510 0.650980 0.623529
0.686275 0.658824 0.635294
0.698039 0.678431 0.654902
0.705882 0.682353 0.662745
0.709804 0.690196 0.670588
0.721569 0.705882 0.686275
0.729412 0.717647 0.698039
0.741176 0.725490 0.709804
0.745098 0.733333 0.717647
0.756863 0.745098 0.729412
0.764706 0.752941 0.741176
0.772549 0.760784 0.749020
0.776471 0.772549 0.760784
0.788235 0.784314 0.772549
0.796078 0.792157 0.780392
0.807843 0.803922 0.792157
0.819608 0.811765 0.803922
0.827451 0.823529 0.815686
0.650980 0.619608 0.584314
0.658824 0.627451 0.596078
0.662745 0.635294 0.603922
0.666667 0.639216 0.615686
0.674510 0.650980 0.623529
0.690196 0.666667 0.643137
0.698039 0.678431 0.654902
0.705882 0.682353 0.662745
0.713725 0.694118 0.674510
0.721569 0.705882 0.686275
0.729412 0.717647 0.698039
0.741176 0.725490 0.709804
0.749020 0.737255 0.721569
0.756863 0.745098 0.729412
0.764706 0.752941 0.741176
0.772549 0.760784 0.749020
0.780392 0.776471 0.764706
0.788235 0.784314 0.772549
0.796078 0.792157 0.780392
0.815686 0.807843 0.800000
0.819608 0.815686 0.807843
0.827451 0.823529 0.815686
0.835294 0.827451 0.823529
0.843137 0.835294 0.831373
0.854902 0.850980 0.847059
0.670588 0.647059 0.619608
0.686275 0.658824 0.635294
0.698039 0.674510 0.650980
0.701961 0.678431 0.658824
0.705882 0.686275 0.666667
0.717647 0.701961 0.682353
0.725490 0.713725 0.694118
0.737255 0.721569 0.705882
0.745098 0.733333 0.717647
0.752941 0.741176 0.725490
0.760784 0.749020 0.733333
0.768627 0.756863 0.745098
0.776471 0.772549 0.760784
0.784314 0.780392 0.768627
0.792157 0.788235 0.776471
0.803922 0.796078 0.788235
0.819608 0.811765 0.803922
0.823529 0.819608 0.811765
0.831373 0.823529 0.819608
0.839216 0.831373 0.827451
0.854902 0.847059 0.843137
0.858824 0.854902 0.850980
0.866667 0.862745 0.858824
0.874510 0.870588 0.866667
0.890196 0.890196 0.886275
0.705882 0.682353 0.662745
0.713725 0.694118 0.674510
0.721569 0.705882 0.686275
0.729412 0.717647 0.698039
0.741176 0.725490 0.709804
0.749020 0.737255 0.721569
0.756863 0.745098 0.729412
0.764706 0.752941 0.741176
0.772549 0.760784 0.749020
0.780392 0.776471 0.764706
0.788235 0.784314 0.772549
0.796078 0.792157 0.780392
0.815686 0.807843 0.800000
0.819608 0.815686 0.807843
0.827451 0.823529 0.815686
0.835294 0.827451 0.823529
0.843137 0.835294 0.831373
0.854902 0.850980 0.847059
0.862745 0.858824 0.854902
0.870588 0.866667 0.862745
0.878431 0.878431 0.874510
0.894118 0.894118 0.890196
0.901961 0.901961 0.898039
0.909804 0.909804 0.905882
0.921569 0.921569 0.917647
0.737255 0.721569 0.705882
0.741176 0.729412 0.713725
0.749020 0.737255 0.721569
0.756863 0.745098 0.729412
0.764706 0.752941 0.741176
0.776471 0.764706 0.752941
0.780392 0.776471 0.764706
0.788235 0.784314 0.772549
0.803922 0.796078 0.788235
0.815686 0.807843 0.800000
0.819608 0.815686 0.807843
0.827451 0.823529 0.815686
0.839216 0.831373 0.827451
0.847059 0.843137 0.835294
0.854902 0.850980 0.847059
0.862745 0.858824 0.854902
0.874510 0.870588 0.866667
0.882353 0.882353 0.878431
0.894118 0.894118 0.890196
0.901961 0.901961 0.898039
0.913725 0.913725 0.909804
0.921569 0.921569 0.917647
0.933333 0.933333 0.929412
0.945098 0.945098 0.941176
0.952941 0.952941 0.949020
0.760784 0.749020 0.733333
0.772549 0.760784 0.749020
0.776471 0.772549 0.760784
0.784314 0.780392 0.768627
0.792157 0.788235 0.776471
0.807843 0.803922 0.792157
0.819608 0.811765 0.803922
0.823529 0.819608 0.811765
0.831373 0.823529 0.819608
0.843137 0.835294 0.831373
0.854902 0.847059 0.843137
0.858824 0.854902 0.850980
0.870588 0.866667 0.862745
0.878431 0.878431 0.874510
0.890196 0.890196 0.886275
0.898039 0.898039 0.894118
0.905882 0.905882 0.901961
0.917647 0.917647 0.913725
0.929412 0.925490 0.925490
0.941176 0.941176 0.937255
0.949020 0.945098 0.945098
0.956863 0.952941 0.952941
0.960784 0.960784 0.960784
0.972549 0.972549 0.972549
0.984314 0.984314 0.984314
0.000000 0.000000 0.000000
0.003922 0.000000 0.000000
0.007843 0.003922 0.003922
0.023529 0.015686 0.011765
0.039216 0.031373 0.023529
0.047059 0.035294 0.027451
0.050980 0.039216 0.031373
0.058824 0.047059 0.035294
0.074510 0.062745 0.047059
0.090196 0.074510 0.058824
0.094118 0.078431 0.058824
0.105882 0.086275 0.066667
0.113725 0.094118 0.074510
0.129412 0.101961 0.082353
0.137255 0.109804 0.090196
0.149020 0.117647 0.094118
0.156863 0.125490 0.101961
0.168627 0.133333 0.109804
0.184314 0.149020 0.121569
0.192157 0.152941 0.125490
0.200000 0.160784 0.129412
0.207843 0.168627 0.137255
0.223529 0.180392 0.145098
0.239216 0.196078 0.160784
0.247059 0.200000 0.164706
0.027451 0.023529 0.015686
0.043137 0.035294 0.027451
0.047059 0.039216 0.031373
0.054902 0.043137 0.035294
0.066667 0.054902 0.043137
0.082353 0.070588 0.054902
0.094118 0.074510 0.058824
0.098039 0.078431 0.062745
0.109804 0.090196 0.070588
0.121569 0.098039 0.078431
0.137255 0.109804 0.090196
0.141176 0.113725 0.090196
0.152941 0.121569 0.098039
0.160784 0.129412 0.105882
0.176471 0.141176 0.113725
0.184314 0.149020 0.121569
0.196078 0.156863 0.125490
0.203922 0.164706 0.133333
0.215686 0.172549 0.141176
0.235294 0.192157 0.156863
0.243137 0.200000 0.164706
0.250980 0.203922 0.168627
0.258824 0.215686 0.176471
0.278431 0.235294 0.196078
0.286275 0.239216 0.200000
0.058824 0.047059 0.035294
0.066667 0.054902 0.043137
0.082353 0.070588 0.054902
0.094118 0.078431 0.058824
0.101961 0.082353 0.062745
0.109804 0.090196 0.070588
0.121569 0.098039 0.078431
0.137255 0.109804 0.090196
0.145098 0.113725 0.094118
0.152941 0.121569 0.098039
0.160784 0.129412 0.105882
0.184314 0.149020 0.121569
0.188235 0.152941 0.121569
0.196078 0.156863 0.125490
0.203922 0.164706 0.133333
0.223529 0.180392 0.145098
0.235294 0.192157 0.156863
0.243137 0.200000 0.164706
0.250980 0.203922 0.168627
0.266667 0.219608 0.184314
0.278431 0.235294 0.196078
0.286275 0.239216 0.200000
0.298039 0.247059 0.207843
0.305882 0.254902 0.215686
0.317647 0.266667 0.223529
0.098039 0.078431 0.062745
0.105882 0.086275 0.066667
0.113725 0.094118 0.074510
0.129412 0.101961 0.082353
0.141176 0.113725 0.090196
0.149020 0.117647 0.094118
0.156863 0.125490 0.101961
0.168627 0.133333 0.109804
0.184314 0.149020 0.121569
0.192157 0.152941 0.125490
0.200000 0.160784 0.129412
0.207843 0.168627 0.137255
0.231373 0.188235 0.152941
0.239216 0.196078 0.160784
0.247059 0.200000 0.164706
0.254902 0.207843 0.172549
0.270588 0.227451 0.188235
0.286275 0.239216 0.200000
0.290196 0.243137 0.203922
0.301961 0.250980 0.211765
0.309804 0.258824 0.219608
0.321569 0.270588 0.227451
0.333333 0.278431 0.235294
0.341176 0.290196 0.243137
0.352941 0.298039 0.247059
0.137255 0.109804 0.090196
0.141176 0.113725 0.090196
0.149020 0.117647 0.094118
0.160784 0.129412 0.105882
0.176471 0.141176 0.113725
0.184314 0.149020 0.121569
0.192157 0.152941 0.125490
0.203922 0.164706 0.133333
0.215686 0.172549 0.141176
0.231373 0.188235 0.152941
0.239216 0.196078 0.160784
0.250980 0.203922 0.168627
0.258824 0.215686 0.176471
0.270588 0.227451 0.188235
0.286275 0.239216 0.200000
0.294118 0.247059 0.203922
0.301961 0.250980 0.211765
0.309804 0.258824 0.219608
0.321569 0.270588 0.227451
0.337255 0.282353 0.235294
0.341176 0.290196 0.243137
0.352941 0.298039 0.247059
0.372549 0.313725 0.262745
0.380392 0.321569 0.270588
0.388235 0.329412 0.278431
0.168627 0.133333 0.109804
0.184314 0.149020 0.121569
0.188235 0.152941 0.121569
0.196078 0.156863 0.125490
0.207843 0.168627 0.137255
0.223529 0.180392 0.145098
0.235294 0.192157 0.156863
0.243137 0.200000 0.164706
0.254902 0.207843 0.172549
0.266667 0.219608 0.184314
0.278431 0.235294 0.196078
0.290196 0.243137 0.203922
0.298039 0.247059 0.207843
0.305882 0.254902 0.215686
0.317647 0.266667 0.223529
0.329412 0.278431 0.235294
0.337255 0.286275 0.239216
0.349020 0.294118 0.247059
0.356863 0.301961 0.254902
0.380392 0.321569 0.270588
0.384314 0.325490 0.274510
0.392157 0.333333 0.282353
0.400000 0.341176 0.290196
0.415686 0.356863 0.305882
0.427451 0.368627 0.317647
0.203922 0.164706 0.133333
0.215686 0.172549 0.141176
0.231373 0.188235 0.152941
0.239216 0.196078 0.160784
0.247059 0.200000 0.164706
0.258824 0.215686 0.176471
0.270588 0.227451 0.188235
0.286275 0.239216 0.200000
0.294118 0.247059 0.203922
0.301961 0.250980 0.211765
0.309804 0.258824 0.219608
0.321569 0.270588 0.227451
0.337255 0.282353 0.235294
0.341176 0.290196 0.243137
0.352941 0.298039 0.247059
0.364706 0.305882 0.258824
0.380392 0.321569 0.270588
0.388235 0.329412 0.278431
0.396078 0.337255 0.286275
0.407843 0.349020 0.298039
0.423529 0.364706 0.313725
0.431373 0.372549 0.321569
0.439216 0.376471 0.329412
0.447059 0.388235 0.333333
0.462745 0.400000 0.349020
0.243137 0.200000 0.164706
0.250980 0.203922 0.168627
0.258824 0.215686 0.176471
0.278431 0.235294 0.196078
0.286275 0.239216 0.200000
0.294118 0.247059 0.203922
0.301961 0.250980 0.211765
0.309804 0.258824 0.219608
0.329412 0.278431 0.235294
0.337255 0.282353 0.235294
0.341176 0.290196 0.243137
0.356863 0.301961 0.254902
0.372549 0.313725 0.262745
0.380392 0.321569 0.270588
0.388235 0.329412 0.278431
0.396078 0.337255 0.286275
0.411765 0.352941 0.301961
0.423529 0.364706 0.313725
0.431373 0.372549 0.321569
0.443137 0.380392 0.329412
0.450980 0.392157 0.337255
0.462745 0.400000 0.349020
0.474510 0.411765 0.356863
0.482353 0.419608 0.364706
0.490196 0.427451 0.372549
0.286275 0.239216 0.200000
0.290196 0.243137 0.203922
0.298039 0.247059 0.207843
0.305882 0.254902 0.215686
0.317647 0.266667 0.223529
0.333333 0.278431 0.235294
0.337255 0.286275 0.239216
0.349020 0.294118 0.247059
0.364706 0.305882 0.258824
0.380392 0.321569 0.270588
0.384314 0.325490 0.274510
0.392157 0.333333 0.282353
0.407843 0.349020 0.298039
0.415686 0.356863 0.305882
0.427451 0.368627 0.317647
0.435294 0.376471 0.325490
0.447059 0.388235 0.333333
0.458824 0.396078 0.345098
0.470588 0.407843 0.352941
0.478431 0.415686 0.360784
0.486275 0.423529 0.368627
0.494118 0.431373 0.376471
0.505882 0.443137 0.388235
0.517647 0.454902 0.400000
0.525490 0.466667 0.407843
0.309804 0.258824 0.219608
0.329412 0.278431 0.235294
0.337255 0.282353 0.235294
0.341176 0.290196 0.243137
0.352941 0.298039 0.247059
0.372549 0.313725 0.262745
0.380392 0.321569 0.270588
0.388235 0.329412 0.278431
0.396078 0.337255 0.286275
0.411765 0.352941 0.301961
0.423529 0.364706 0.313725
0.431373 0.372549 0.321569
0.443137 0.380392 0.329412
0.450980 0.392157 0.337255
0.462745 0.400000 0.349020
0.474510 0.411765 0.356863
0.482353 0.419608 0.364706
0.490196 0.427451 0.372549
0.498039 0.435294 0.380392
0.509804 0.447059 0.392157
0.521569 0.458824 0.403922
0.529412 0.470588 0.411765
0.537255 0.478431 0.419608
0.549020 0.486275 0.431373
0.560784 0.501961 0.447059
0.349020 0.294118 0.247059
