MonoPhotoReduxAged.cube
# A compact monochrome 3D color LUT inspired by analog photography; now sun bleached.
# Created by Timo Heidutzek
# https://github.com/trzyglow
# This LUT is not to be sold commercially.
# If you were asked to pay for this LUT, you were scammed.
# Version 1.0
# Licensed under CC-BY-SA-4.0
TITLE MonoPhotoReduxAged
LUT_3D_SIZE 25
0.054902 0.054902 0.054902
0.054902 0.054902 0.054902
0.070588 0.070588 0.070588
0.082353 0.082353 0.082353
0.094118 0.094118 0.094118
0.105882 0.105882 0.105882
0.109804 0.109804 0.109804
0.113725 0.113725 0.113725
0.121569 0.121569 0.121569
0.133333 0.133333 0.133333
0.133333 0.133333 0.133333
0.141176 0.141176 0.141176
0.149020 0.149020 0.149020
0.156863 0.156863 0.156863
0.168627 0.168627 0.168627
0.172549 0.172549 0.172549
0.180392 0.180392 0.180392
0.188235 0.188235 0.188235
0.203922 0.203922 0.203922
0.207843 0.207843 0.207843
0.211765 0.211765 0.211765
0.219608 0.219608 0.219608
0.235294 0.235294 0.235294
0.247059 0.247059 0.247059
0.250980 0.250980 0.250980
0.086275 0.086275 0.086275
0.101961 0.101961 0.101961
0.105882 0.105882 0.105882
0.109804 0.109804 0.109804
0.117647 0.117647 0.117647
0.129412 0.129412 0.129412
0.133333 0.133333 0.133333
0.137255 0.137255 0.137255
0.145098 0.145098 0.145098
0.152941 0.152941 0.152941
0.164706 0.164706 0.164706
0.172549 0.172549 0.172549
0.176471 0.176471 0.176471
0.180392 0.180392 0.180392
0.196078 0.196078 0.196078
0.203922 0.203922 0.203922
0.207843 0.207843 0.207843
0.219608 0.219608 0.219608
0.227451 0.227451 0.227451
0.243137 0.243137 0.243137
0.247059 0.247059 0.247059
0.250980 0.250980 0.250980
0.258824 0.258824 0.258824
0.270588 0.270588 0.270588
0.286275 0.286275 0.286275
0.109804 0.109804 0.109804
0.117647 0.117647 0.117647
0.129412 0.129412 0.129412
0.133333 0.133333 0.133333
0.137255 0.137255 0.137255
0.145098 0.145098 0.145098
0.156863 0.156863 0.156863
0.168627 0.168627 0.168627
0.172549 0.172549 0.172549
0.176471 0.176471 0.176471
0.188235 0.188235 0.188235
0.196078 0.196078 0.196078
0.203922 0.203922 0.203922
0.207843 0.207843 0.207843
0.219608 0.219608 0.219608
0.227451 0.227451 0.227451
0.243137 0.243137 0.243137
0.247059 0.247059 0.247059
0.250980 0.250980 0.250980
0.258824 0.258824 0.258824
0.270588 0.270588 0.270588
0.286275 0.286275 0.286275
0.286275 0.286275 0.286275
0.294118 0.294118 0.294118
0.301961 0.301961 0.301961
0.137255 0.137255 0.137255
0.141176 0.141176 0.141176
0.149020 0.149020 0.149020
0.164706 0.164706 0.164706
0.168627 0.168627 0.168627
0.172549 0.172549 0.172549
0.180392 0.180392 0.180392
0.188235 0.188235 0.188235
0.203922 0.203922 0.203922
0.207843 0.207843 0.207843
0.211765 0.211765 0.211765
0.227451 0.227451 0.227451
0.235294 0.235294 0.235294
0.247059 0.247059 0.247059
0.250980 0.250980 0.250980
0.254902 0.254902 0.254902
0.266667 0.266667 0.266667
0.278431 0.278431 0.278431
0.286275 0.286275 0.286275
0.290196 0.290196 0.290196
0.298039 0.298039 0.298039
0.305882 0.305882 0.305882
0.317647 0.317647 0.317647
0.321569 0.321569 0.321569
0.333333 0.333333 0.333333
0.164706 0.164706 0.164706
0.168627 0.168627 0.168627
0.172549 0.172549 0.172549
0.180392 0.180392 0.180392
0.188235 0.188235 0.188235
0.203922 0.203922 0.203922
0.207843 0.207843 0.207843
0.219608 0.219608 0.219608
0.227451 0.227451 0.227451
0.235294 0.235294 0.235294
0.247059 0.247059 0.247059
0.250980 0.250980 0.250980
0.254902 0.254902 0.254902
0.266667 0.266667 0.266667
0.286275 0.286275 0.286275
0.286275 0.286275 0.286275
0.290196 0.290196 0.290196
0.298039 0.298039 0.298039
0.309804 0.309804 0.309804
0.317647 0.317647 0.317647
0.321569 0.321569 0.321569
0.333333 0.333333 0.333333
0.349020 0.349020 0.349020
0.360784 0.360784 0.360784
0.364706 0.364706 0.364706
0.188235 0.188235 0.188235
0.196078 0.196078 0.196078
0.203922 0.203922 0.203922
0.211765 0.211765 0.211765
0.219608 0.219608 0.219608
0.227451 0.227451 0.227451
0.243137 0.243137 0.243137
0.250980 0.250980 0.250980
0.250980 0.250980 0.250980
0.258824 0.258824 0.258824
0.270588 0.270588 0.270588
0.286275 0.286275 0.286275
0.286275 0.286275 0.286275
0.294118 0.294118 0.294118
0.305882 0.305882 0.305882
0.317647 0.317647 0.317647
0.321569 0.321569 0.321569
0.329412 0.329412 0.329412
0.341176 0.341176 0.341176
0.349020 0.349020 0.349020
0.360784 0.360784 0.360784
0.364706 0.364706 0.364706
0.372549 0.372549 0.372549
0.384314 0.384314 0.384314
0.400000 0.400000 0.400000
0.219608 0.219608 0.219608
0.227451 0.227451 0.227451
0.235294 0.235294 0.235294
0.247059 0.247059 0.247059
0.250980 0.250980 0.250980
0.254902 0.254902 0.254902
0.266667 0.266667 0.266667
0.278431 0.278431 0.278431
0.286275 0.286275 0.286275
0.290196 0.290196 0.290196
0.298039 0.298039 0.298039
0.309804 0.309804 0.309804
0.317647 0.317647 0.317647
0.321569 0.321569 0.321569
0.333333 0.333333 0.333333
0.349020 0.349020 0.349020
0.360784 0.360784 0.360784
0.364706 0.364706 0.364706
0.368627 0.368627 0.368627
0.376471 0.376471 0.376471
0.392157 0.392157 0.392157
0.403922 0.403922 0.403922
0.403922 0.403922 0.403922
0.415686 0.415686 0.415686
0.423529 0.423529 0.423529
0.247059 0.247059 0.247059
0.250980 0.250980 0.250980
0.254902 0.254902 0.254902
0.270588 0.270588 0.270588
0.286275 0.286275 0.286275
0.286275 0.286275 0.286275
0.290196 0.290196 0.290196
0.301961 0.301961 0.301961
0.309804 0.309804 0.309804
0.317647 0.317647 0.317647
0.321569 0.321569 0.321569
0.337255 0.337255 0.337255
0.349020 0.349020 0.349020
0.360784 0.360784 0.360784
0.364706 0.364706 0.364706
0.368627 0.368627 0.368627
0.376471 0.376471 0.376471
0.392157 0.392157 0.392157
0.403922 0.403922 0.403922
0.403922 0.403922 0.403922
0.415686 0.415686 0.415686
0.423529 0.423529 0.423529
0.439216 0.439216 0.439216
0.443137 0.443137 0.443137
0.447059 0.447059 0.447059
0.278431 0.278431 0.278431
0.286275 0.286275 0.286275
0.286275 0.286275 0.286275
0.298039 0.298039 0.298039
0.305882 0.305882 0.305882
0.317647 0.317647 0.317647
0.321569 0.321569 0.321569
0.333333 0.333333 0.333333
0.341176 0.341176 0.341176
0.349020 0.349020 0.349020
0.360784 0.360784 0.360784
0.368627 0.368627 0.368627
0.372549 0.372549 0.372549
0.384314 0.384314 0.384314
0.400000 0.400000 0.400000
0.403922 0.403922 0.403922
0.407843 0.407843 0.407843
0.419608 0.419608 0.419608
0.431373 0.431373 0.431373
0.439216 0.439216 0.439216
0.447059 0.447059 0.447059
0.450980 0.450980 0.450980
0.466667 0.466667 0.466667
0.478431 0.478431 0.478431
0.482353 0.482353 0.482353
0.301961 0.301961 0.301961
0.309804 0.309804 0.309804
0.317647 0.317647 0.317647
0.321569 0.321569 0.321569
0.337255 0.337255 0.337255
0.349020 0.349020 0.349020
0.360784 0.360784 0.360784
0.364706 0.364706 0.364706
0.368627 0.368627 0.368627
0.376471 0.376471 0.376471
0.392157 0.392157 0.392157
0.403922 0.403922 0.403922
0.403922 0.403922 0.403922
0.415686 0.415686 0.415686
0.423529 0.423529 0.423529
0.435294 0.435294 0.435294
0.443137 0.443137 0.443137
0.447059 0.447059 0.447059
0.454902 0.454902 0.454902
0.474510 0.474510 0.474510
0.478431 0.478431 0.478431
0.482353 0.482353 0.482353
0.494118 0.494118 0.494118
0.505882 0.505882 0.505882
0.521569 0.521569 0.521569
0.329412 0.329412 0.329412
0.337255 0.337255 0.337255
0.349020 0.349020 0.349020
0.360784 0.360784 0.360784
0.364706 0.364706 0.364706
0.368627 0.368627 0.368627
0.376471 0.376471 0.376471
0.400000 0.400000 0.400000
0.403922 0.403922 0.403922
0.403922 0.403922 0.403922
0.415686 0.415686 0.415686
0.431373 0.431373 0.431373
0.439216 0.439216 0.439216
0.443137 0.443137 0.443137
0.447059 0.447059 0.447059
0.458824 0.458824 0.458824
0.474510 0.474510 0.474510
0.478431 0.478431 0.478431
0.482353 0.482353 0.482353
0.498039 0.498039 0.498039
0.505882 0.505882 0.505882
0.521569 0.521569 0.521569
0.525490 0.525490 0.525490
0.529412 0.529412 0.529412
0.537255 0.537255 0.537255
0.364706 0.364706 0.364706
0.368627 0.368627 0.368627
0.372549 0.372549 0.372549
0.384314 0.384314 0.384314
0.403922 0.403922 0.403922
0.403922 0.403922 0.403922
0.407843 0.407843 0.407843
0.419608 0.419608 0.419608
0.435294 0.435294 0.435294
0.439216 0.439216 0.439216
0.447059 0.447059 0.447059
0.454902 0.454902 0.454902
0.466667 0.466667 0.466667
0.478431 0.478431 0.478431
0.482353 0.482353 0.482353
0.486275 0.486275 0.486275
0.501961 0.501961 0.501961
0.513725 0.513725 0.513725
0.521569 0.521569 0.521569
0.529412 0.529412 0.529412
0.533333 0.533333 0.533333
0.541176 0.541176 0.541176
0.552941 0.552941 0.552941
0.560784 0.560784 0.560784
0.564706 0.564706 0.564706
0.400000 0.400000 0.400000
0.403922 0.403922 0.403922
0.403922 0.403922 0.403922
0.415686 0.415686 0.415686
0.423529 0.423529 0.423529
0.439216 0.439216 0.439216
0.443137 0.443137 0.443137
0.447059 0.447059 0.447059
0.458824 0.458824 0.458824
0.474510 0.474510 0.474510
0.478431 0.478431 0.478431
0.482353 0.482353 0.482353
0.498039 0.498039 0.498039
0.505882 0.505882 0.505882
0.521569 0.521569 0.521569
0.525490 0.525490 0.525490
0.529412 0.529412 0.529412
0.537255 0.537255 0.537255
0.545098 0.545098 0.545098
0.556863 0.556863 0.556863
0.564706 0.564706 0.564706
0.564706 0.564706 0.564706
0.576471 0.576471 0.576471
0.592157 0.592157 0.592157
0.600000 0.600000 0.600000
0.419608 0.419608 0.419608
0.431373 0.431373 0.431373
0.439216 0.439216 0.439216
0.443137 0.443137 0.443137
0.450980 0.450980 0.450980
0.458824 0.458824 0.458824
0.474510 0.474510 0.474510
0.478431 0.478431 0.478431
0.486275 0.486275 0.486275
0.498039 0.498039 0.498039
0.505882 0.505882 0.505882
0.521569 0.521569 0.521569
0.525490 0.525490 0.525490
0.529412 0.529412 0.529412
0.537255 0.537255 0.537255
0.545098 0.545098 0.545098
0.560784 0.560784 0.560784
0.564706 0.564706 0.564706
0.564706 0.564706 0.564706
0.584314 0.584314 0.584314
0.596078 0.596078 0.596078
0.600000 0.600000 0.600000
0.600000 0.600000 0.600000
0.611765 0.611765 0.611765
0.619608 0.619608 0.619608
0.447059 0.447059 0.447059
0.454902 0.454902 0.454902
0.466667 0.466667 0.466667
0.478431 0.478431 0.478431
0.482353 0.482353 0.482353
0.494118 0.494118 0.494118
0.501961 0.501961 0.501961
0.513725 0.513725 0.513725
0.525490 0.525490 0.525490
0.529412 0.529412 0.529412
0.533333 0.533333 0.533333
0.541176 0.541176 0.541176
0.556863 0.556863 0.556863
0.560784 0.560784 0.560784
0.564706 0.564706 0.564706
0.568627 0.568627 0.568627
0.592157 0.592157 0.592157
0.596078 0.596078 0.596078
0.600000 0.600000 0.600000
0.603922 0.603922 0.603922
0.615686 0.615686 0.615686
0.627451 0.627451 0.627451
0.631373 0.631373 0.631373
0.635294 0.635294 0.635294
0.647059 0.647059 0.647059
0.478431 0.478431 0.478431
0.482353 0.482353 0.482353
0.494118 0.494118 0.494118
0.501961 0.501961 0.501961
0.521569 0.521569 0.521569
0.525490 0.525490 0.525490
0.529412 0.529412 0.529412
0.533333 0.533333 0.533333
0.545098 0.545098 0.545098
0.556863 0.556863 0.556863
0.560784 0.560784 0.560784
0.564706 0.564706 0.564706
0.576471 0.576471 0.576471
0.592157 0.592157 0.592157
0.596078 0.596078 0.596078
0.600000 0.600000 0.600000
0.607843 0.607843 0.607843
0.615686 0.615686 0.615686
0.627451 0.627451 0.627451
0.631373 0.631373 0.631373
0.639216 0.639216 0.639216
0.647059 0.647059 0.647059
0.658824 0.658824 0.658824
0.670588 0.670588 0.670588
0.674510 0.674510 0.674510
0.513725 0.513725 0.513725
0.521569 0.521569 0.521569
0.525490 0.525490 0.525490
0.529412 0.529412 0.529412
0.537255 0.537255 0.537255
0.552941 0.552941 0.552941
0.560784 0.560784 0.560784
0.564706 0.564706 0.564706
0.568627 0.568627 0.568627
0.584314 0.584314 0.584314
0.596078 0.596078 0.596078
0.600000 0.600000 0.600000
0.603922 0.603922 0.603922
0.611765 0.611765 0.611765
0.619608 0.619608 0.619608
0.627451 0.627451 0.627451
0.635294 0.635294 0.635294
0.643137 0.643137 0.643137
0.654902 0.654902 0.654902
0.666667 0.666667 0.666667
0.670588 0.670588 0.670588
0.678431 0.678431 0.678431
0.682353 0.682353 0.682353
0.690196 0.690196 0.690196
0.701961 0.701961 0.701961
0.533333 0.533333 0.533333
0.545098 0.545098 0.545098
0.556863 0.556863 0.556863
0.560784 0.560784 0.560784
0.564706 0.564706 0.564706
0.576471 0.576471 0.576471
0.592157 0.592157 0.592157
0.596078 0.596078 0.596078
0.600000 0.600000 0.600000
0.607843 0.607843 0.607843
0.615686 0.615686 0.615686
0.627451 0.627451 0.627451
0.631373 0.631373 0.631373
0.639216 0.639216 0.639216
0.647059 0.647059 0.647059
0.658824 0.658824 0.658824
0.670588 0.670588 0.670588
0.674510 0.674510 0.674510
0.678431 0.678431 0.678431
0.686275 0.686275 0.686275
0.701961 0.701961 0.701961
0.705882 0.705882 0.705882
0.709804 0.709804 0.709804
0.713725 0.713725 0.713725
0.733333 0.733333 0.733333
0.564706 0.564706 0.564706
0.564706 0.564706 0.564706
0.576471 0.576471 0.576471
0.592157 0.592157 0.592157
0.596078 0.596078 0.596078
0.600000 0.600000 0.600000
0.607843 0.607843 0.607843
0.615686 0.615686 0.615686
0.627451 0.627451 0.627451
0.631373 0.631373 0.631373
0.639216 0.639216 0.639216
0.647059 0.647059 0.647059
0.666667 0.666667 0.666667
0.670588 0.670588 0.670588
0.674510 0.674510 0.674510
0.678431 0.678431 0.678431
0.690196 0.690196 0.690196
0.701961 0.701961 0.701961
0.705882 0.705882 0.705882
0.709804 0.709804 0.709804
0.721569 0.721569 0.721569
0.733333 0.733333 0.733333
0.737255 0.737255 0.737255
0.741176 0.741176 0.741176
0.749020 0.749020 0.749020
0.596078 0.596078 0.596078
0.600000 0.600000 0.600000
0.603922 0.603922 0.603922
0.611765 0.611765 0.611765
0.619608 0.619608 0.619608
0.631373 0.631373 0.631373
0.635294 0.635294 0.635294
0.643137 0.643137 0.643137
0.654902 0.654902 0.654902
0.666667 0.666667 0.666667
0.670588 0.670588 0.670588
0.678431 0.678431 0.678431
0.686275 0.686275 0.686275
0.698039 0.698039 0.698039
0.701961 0.701961 0.701961
0.709804 0.709804 0.709804
0.713725 0.713725 0.713725
0.729412 0.729412 0.729412
0.737255 0.737255 0.737255
0.737255 0.737255 0.737255
0.745098 0.745098 0.745098
0.756863 0.756863 0.756863
0.764706 0.764706 0.764706
0.772549 0.772549 0.772549
0.780392 0.780392 0.780392
0.615686 0.615686 0.615686
0.627451 0.627451 0.627451
0.631373 0.631373 0.631373
0.635294 0.635294 0.635294
0.643137 0.643137 0.643137
0.658824 0.658824 0.658824
0.666667 0.666667 0.666667
0.670588 0.670588 0.670588
0.678431 0.678431 0.678431
0.686275 0.686275 0.686275
0.698039 0.698039 0.698039
0.701961 0.701961 0.701961
0.709804 0.709804 0.709804
0.713725 0.713725 0.713725
0.729412 0.729412 0.729412
0.737255 0.737255 0.737255
0.741176 0.741176 0.741176
0.745098 0.745098 0.745098
0.756863 0.756863 0.756863
0.772549 0.772549 0.772549
0.776471 0.776471 0.776471
0.780392 0.780392 0.780392
0.784314 0.784314 0.784314
0.788235 0.788235 0.788235
0.803922 0.803922 0.803922
0.639216 0.639216 0.639216
0.654902 0.654902 0.654902
0.666667 0.666667 0.666667
0.670588 0.670588 0.670588
0.674510 0.674510 0.674510
0.682353 0.682353 0.682353
0.690196 0.690196 0.690196
0.701961 0.701961 0.701961
0.709804 0.709804 0.709804
0.709804 0.709804 0.709804
0.721569 0.721569 0.721569
0.733333 0.733333 0.733333
0.737255 0.737255 0.737255
0.741176 0.741176 0.741176
0.749020 0.749020 0.749020
0.760784 0.760784 0.760784
0.772549 0.772549 0.772549
0.776471 0.776471 0.776471
0.784314 0.784314 0.784314
0.788235 0.788235 0.788235
0.803922 0.803922 0.803922
0.807843 0.807843 0.807843
0.807843 0.807843 0.807843
0.815686 0.815686 0.815686
0.827451 0.827451 0.827451
0.670588 0.670588 0.670588
0.678431 0.678431 0.678431
0.686275 0.686275 0.686275
0.698039 0.698039 0.698039
0.701961 0.701961 0.701961
0.709804 0.709804 0.709804
0.713725 0.713725 0.713725
0.729412 0.729412 0.729412
0.737255 0.737255 0.737255
0.741176 0.741176 0.741176
0.745098 0.745098 0.745098
0.756863 0.756863 0.756863
0.772549 0.772549 0.772549
0.776471 0.776471 0.776471
0.780392 0.780392 0.780392
0.784314 0.784314 0.784314
0.788235 0.788235 0.788235
0.803922 0.803922 0.803922
0.807843 0.807843 0.807843
0.811765 0.811765 0.811765
0.819608 0.819608 0.819608
0.835294 0.835294 0.835294
0.839216 0.839216 0.839216
0.843137 0.843137 0.843137
0.850980 0.850980 0.850980
0.701961 0.701961 0.701961
0.705882 0.705882 0.705882
0.709804 0.709804 0.709804
0.713725 0.713725 0.713725
0.729412 0.729412 0.729412
0.737255 0.737255 0.737255
0.741176 0.741176 0.741176
0.745098 0.745098 0.745098
0.760784 0.760784 0.760784
0.772549 0.772549 0.772549
0.776471 0.776471 0.776471
0.780392 0.780392 0.780392
0.788235 0.788235 0.788235
0.796078 0.796078 0.796078
0.803922 0.803922 0.803922
0.807843 0.807843 0.807843
0.815686 0.815686 0.815686
0.823529 0.823529 0.823529
0.835294 0.835294 0.835294
0.839216 0.839216 0.839216
0.843137 0.843137 0.843137
0.850980 0.850980 0.850980
0.862745 0.862745 0.862745
0.870588 0.870588 0.870588
0.874510 0.874510 0.874510
0.721569 0.721569 0.721569
0.737255 0.737255 0.737255
0.737255 0.737255 0.737255
0.741176 0.741176 0.741176
0.749020 0.749020 0.749020
0.764706 0.764706 0.764706
0.772549 0.772549 0.772549
0.776471 0.776471 0.776471
0.784314 0.784314 0.784314
0.788235 0.788235 0.788235
0.803922 0.803922 0.803922
0.807843 0.807843 0.807843
0.811765 0.811765 0.811765
0.819608 0.819608 0.819608
0.827451 0.827451 0.827451
0.839216 0.839216 0.839216
0.839216 0.839216 0.839216
0.843137 0.843137 0.843137
0.854902 0.854902 0.854902
0.866667 0.866667 0.866667
0.870588 0.870588 0.870588
0.874510 0.874510 0.874510
0.882353 0.882353 0.882353
0.890196 0.890196 0.890196
0.898039 0.898039 0.898039
0.054902 0.054902 0.054902
0.054902 0.054902 0.054902
0.074510 0.074510 0.074510
0.086275 0.086275 0.086275
0.101961 0.101961 0.101961
0.105882 0.105882 0.105882
0.109804 0.109804 0.109804
0.113725 0.113725 0.113725
0.129412 0.129412 0.129412
0.133333 0.133333 0.133333
0.137255 0.137255 0.137255
0.145098 0.145098 0.145098
0.152941 0.152941 0.152941
0.164706 0.164706 0.164706
0.168627 0.168627 0.168627
0.176471 0.176471 0.176471
0.180392 0.180392 0.180392
0.188235 0.188235 0.188235
0.203922 0.203922 0.203922
0.207843 0.207843 0.207843
0.219608 0.219608 0.219608
0.227451 0.227451 0.227451
0.235294 0.235294 0.235294
0.247059 0.247059 0.247059
0.250980 0.250980 0.250980
0.094118 0.094118 0.094118
0.105882 0.105882 0.105882
0.109804 0.109804 0.109804
0.109804 0.109804 0.109804
0.121569 0.121569 0.121569
0.133333 0.133333 0.133333
0.133333 0.133333 0.133333
0.137255 0.137255 0.137255
0.149020 0.149020 0.149020
0.156863 0.156863 0.156863
0.168627 0.168627 0.168627
0.172549 0.172549 0.172549
0.180392 0.180392 0.180392
0.188235 0.188235 0.188235
0.196078 0.196078 0.196078
0.203922 0.203922 0.203922
0.211765 0.211765 0.211765
0.219608 0.219608 0.219608
0.227451 0.227451 0.227451
0.247059 0.247059 0.247059
0.250980 0.250980 0.250980
0.250980 0.250980 0.250980
0.258824 0.258824 0.258824
0.278431 0.278431 0.278431
0.286275 0.286275 0.286275
0.113725 0.113725 0.113725
0.121569 0.121569 0.121569
0.133333 0.133333 0.133333
0.137255 0.137255 0.137255
0.141176 0.141176 0.141176
0.149020 0.149020 0.149020
0.156863 0.156863 0.156863
0.168627 0.168627 0.168627
0.172549 0.172549 0.172549
0.180392 0.180392 0.180392
0.188235 0.188235 0.188235
0.203922 0.203922 0.203922
0.207843 0.207843 0.207843
0.211765 0.211765 0.211765
0.219608 0.219608 0.219608
0.235294 0.235294 0.235294
0.247059 0.247059 0.247059
0.250980 0.250980 0.250980
0.250980 0.250980 0.250980
0.266667 0.266667 0.266667
0.278431 0.278431 0.278431
0.286275 0.286275 0.286275
0.290196 0.290196 0.290196
0.298039 0.298039 0.298039
0.305882 0.305882 0.305882
0.137255 0.137255 0.137255
0.145098 0.145098 0.145098
0.152941 0.152941 0.152941
0.164706 0.164706 0.164706
0.172549 0.172549 0.172549
0.176471 0.176471 0.176471
0.180392 0.180392 0.180392
0.188235 0.188235 0.188235
0.203922 0.203922 0.203922
0.207843 0.207843 0.207843
0.219608 0.219608 0.219608
0.227451 0.227451 0.227451
0.243137 0.243137 0.243137
0.247059 0.247059 0.247059
0.250980 0.250980 0.250980
0.254902 0.254902 0.254902
0.270588 0.270588 0.270588
0.286275 0.286275 0.286275
0.286275 0.286275 0.286275
0.294118 0.294118 0.294118
0.301961 0.301961 0.301961
0.309804 0.309804 0.309804
0.317647 0.317647 0.317647
0.329412 0.329412 0.329412
0.337255 0.337255 0.337255
0.168627 0.168627 0.168627
0.172549 0.172549 0.172549
0.176471 0.176471 0.176471
0.188235 0.188235 0.188235
0.196078 0.196078 0.196078
0.203922 0.203922 0.203922
0.207843 0.207843 0.207843
0.219608 0.219608 0.219608
0.227451 0.227451 0.227451
0.243137 0.243137 0.243137
0.247059 0.247059 0.247059
0.250980 0.250980 0.250980
0.258824 0.258824 0.258824
0.270588 0.270588 0.270588
0.286275 0.286275 0.286275
0.286275 0.286275 0.286275
0.294118 0.294118 0.294118
0.301961 0.301961 0.301961
0.309804 0.309804 0.309804
0.321569 0.321569 0.321569
0.329412 0.329412 0.329412
0.337255 0.337255 0.337255
0.349020 0.349020 0.349020
0.360784 0.360784 0.360784
0.364706 0.364706 0.364706
0.188235 0.188235 0.188235
0.203922 0.203922 0.203922
0.207843 0.207843 0.207843
0.211765 0.211765 0.211765
0.227451 0.227451 0.227451
0.235294 0.235294 0.235294
0.247059 0.247059 0.247059
0.250980 0.250980 0.250980
0.254902 0.254902 0.254902
0.266667 0.266667 0.266667
0.278431 0.278431 0.278431
0.286275 0.286275 0.286275
0.290196 0.290196 0.290196
0.298039 0.298039 0.298039
0.305882 0.305882 0.305882
0.317647 0.317647 0.317647
0.321569 0.321569 0.321569
0.333333 0.333333 0.333333
0.341176 0.341176 0.341176
0.360784 0.360784 0.360784
0.364706 0.364706 0.364706
0.368627 0.368627 0.368627
0.372549 0.372549 0.372549
0.392157 0.392157 0.392157
0.403922 0.403922 0.403922
0.219608 0.219608 0.219608
0.227451 0.227451 0.227451
0.243137 0.243137 0.243137
0.247059 0.247059 0.247059
0.250980 0.250980 0.250980
0.258824 0.258824 0.258824
0.270588 0.270588 0.270588
0.286275 0.286275 0.286275
0.286275 0.286275 0.286275
0.294118 0.294118 0.294118
0.301961 0.301961 0.301961
0.309804 0.309804 0.309804
0.321569 0.321569 0.321569
0.329412 0.329412 0.329412
0.337255 0.337255 0.337255
0.349020 0.349020 0.349020
0.360784 0.360784 0.360784
0.364706 0.364706 0.364706
0.368627 0.368627 0.368627
0.376471 0.376471 0.376471
0.400000 0.400000 0.400000
0.403922 0.403922 0.403922
0.403922 0.403922 0.403922
0.415686 0.415686 0.415686
0.431373 0.431373 0.431373
0.250980 0.250980 0.250980
0.250980 0.250980 0.250980
0.258824 0.258824 0.258824
0.278431 0.278431 0.278431
0.286275 0.286275 0.286275
0.286275 0.286275 0.286275
0.294118 0.294118 0.294118
0.301961 0.301961 0.301961
0.317647 0.317647 0.317647
0.321569 0.321569 0.321569
0.329412 0.329412 0.329412
0.341176 0.341176 0.341176
0.349020 0.349020 0.349020
0.360784 0.360784 0.360784
0.364706 0.364706 0.364706
0.368627 0.368627 0.368627
0.384314 0.384314 0.384314
0.400000 0.400000 0.400000
0.403922 0.403922 0.403922
0.407843 0.407843 0.407843
0.419608 0.419608 0.419608
0.431373 0.431373 0.431373
0.439216 0.439216 0.439216
0.447059 0.447059 0.447059
0.450980 0.450980 0.450980
0.286275 0.286275 0.286275
0.286275 0.286275 0.286275
0.290196 0.290196 0.290196
0.298039 0.298039 0.298039
0.305882 0.305882 0.305882
0.317647 0.317647 0.317647
0.321569 0.321569 0.321569
0.333333 0.333333 0.333333
0.349020 0.349020 0.349020
0.360784 0.360784 0.360784
0.364706 0.364706 0.364706
0.368627 0.368627 0.368627
0.376471 0.376471 0.376471
0.392157 0.392157 0.392157
0.403922 0.403922 0.403922
0.403922 0.403922 0.403922
0.415686 0.415686 0.415686
0.423529 0.423529 0.423529
0.435294 0.435294 0.435294
0.443137 0.443137 0.443137
0.447059 0.447059 0.447059
0.454902 0.454902 0.454902
0.466667 0.466667 0.466667
0.478431 0.478431 0.478431
0.482353 0.482353 0.482353
0.301961 0.301961 0.301961
0.317647 0.317647 0.317647
0.321569 0.321569 0.321569
0.329412 0.329412 0.329412
0.337255 0.337255 0.337255
0.349020 0.349020 0.349020
0.360784 0.360784 0.360784
0.364706 0.364706 0.364706
0.368627 0.368627 0.368627
0.384314 0.384314 0.384314
0.400000 0.400000 0.400000
0.403922 0.403922 0.403922
0.407843 0.407843 0.407843
0.419608 0.419608 0.419608
0.431373 0.431373 0.431373
0.439216 0.439216 0.439216
0.447059 0.447059 0.447059
0.450980 0.450980 0.450980
0.458824 0.458824 0.458824
0.474510 0.474510 0.474510
0.478431 0.478431 0.478431
0.486275 0.486275 0.486275
0.498039 0.498039 0.498039
0.505882 0.505882 0.505882
0.521569 0.521569 0.521569
0.333333 0.333333 0.333333
